; generated by PrusaSlicer 2.5.2+win64 on 2023-05-16 at 21:19:57 UTC


;
;

;
;
; 

; external perimeters extrusion width = 0.45mm
; perimeters extrusion width = 0.45mm
; infill extrusion width = 0.45mm
; solid infill extrusion width = 0.45mm
; top infill extrusion width = 0.40mm
; support material extrusion width = 0.35mm
; first layer extrusion width = 0.42mm

M73 P0 R13
M201 X2500 Y2500 Z400 E5000 ; sets maximum accelerations, mm/sec^2
M203 X180 Y180 Z12 E80 ; sets maximum feedrates, mm / sec
M204 P2000 R1250 T2500 ; sets acceleration (P, T) and retract acceleration (R), mm/sec^2
M205 X8.00 Y8.00 Z2.00 E10.00 ; sets the jerk limits, mm/sec
M205 S0 T0 ; sets the minimum extruding and travel feed rate, mm/sec
M107
;TYPE:Custom
M862.3 P "MINI" ; printer model check
G90 ; use absolute coordinates
M83 ; extruder relative mode
M104 S170 ; set extruder temp for bed leveling
M140 S60 ; set bed temp
M109 R170 ; wait for bed leveling temp
M190 S60 ; wait for bed temp
M204 T1250 ; set travel acceleration
G28 ; home all without mesh bed level
G29 ; mesh bed leveling 
M204 T2500 ; restore travel acceleration
M104 S215 ; set extruder temp
G92 E0
G1 Y-2 X179 F2400
G1 Z3 F720
M109 S215 ; wait for extruder temp

; intro line
M73 P0 R12
G1 X170 F1000
G1 Z0.2 F720
G1 X110 E8 F900
G1 X40 E10 F700
G92 E0

M221 S95 ; set flow
G21 ; set units to millimeters
G90 ; use absolute coordinates
M83 ; use relative distances for extrusion
M900 K0.2 ; Filament gcode LA 1.5
; ; Filament gcode LA 1.0
M107
;LAYER_CHANGE
;Z:0.2
;HEIGHT:0.2
;BEFORE_LAYER_CHANGE
G92 E0.0
;0.2


M73 P1 R12
G1 E-3.2 F4200
G1 Z.2 F720
;AFTER_LAYER_CHANGE
;0.2
M73 P2 R12
G1 Z.4
G1 X133.651 Y59.835 F9000
G1 Z.2 F720
G1 E3.2 F2400
M204 P600
;TYPE:Skirt/Brim
;WIDTH:0.42
G1 F1200
G1 X134.587 Y58.283 E.05684
G1 X135.894 Y56.817 E.06156
G1 X137.328 Y55.709 E.05683
G1 X138.144 Y55.234 E.0296
G1 X139.367 Y54.699 E.04184
G1 X141.118 Y54.23 E.05684
G1 X142.445 Y54.089 E.04184
G1 X143.315 Y54.089 E.02729
G1 X144.256 Y54.171 E.0296
G1 X145.563 Y54.436 E.04184
G1 X147.265 Y55.06 E.05684
G1 X148.953 Y56.064 E.06156
G1 X150.314 Y57.261 E.05684
G1 X150.935 Y57.972 E.0296
G1 X151.693 Y59.07 E.04184
G1 X152.487 Y60.7 E.05684
G1 X152.878 Y61.976 E.04184
G1 X153.043 Y62.83 E.02729
G1 X153.143 Y63.769 E.0296
G1 X153.131 Y65.103 E.04184
G1 X152.842 Y66.893 E.05684
G1 X152.428 Y68.161 E.04184
G1 X152.072 Y68.956 E.02729
G1 X151.4 Y70.109 E.04184
G1 X150.835 Y70.865 E.0296
G1 X149.57 Y72.163 E.05684
G1 X147.964 Y73.292 E.06156
G1 X146.315 Y74.045 E.05683
G1 X145.412 Y74.321 E.0296
G1 X144.1 Y74.563 E.04184
G1 X142.288 Y74.62 E.05684
G1 X140.348 Y74.321 E.06156
G1 X138.638 Y73.719 E.05684
G1 X137.46 Y73.092 E.04184
G1 X136.682 Y72.557 E.0296
G1 X136.011 Y72.003 E.02729
G1 X135.077 Y71.05 E.04184
G1 X134.024 Y69.574 E.05684
G1 X133.421 Y68.384 E.04184
G1 X133.094 Y67.498 E.0296
G1 X132.692 Y65.731 E.05684
G1 X132.617 Y63.769 E.06156
G1 X132.882 Y61.976 E.05684
G1 X133.273 Y60.7 E.04184
G1 X133.627 Y59.89 E.02772
M204 P1000
G1 X133.972 Y60.041 F9000
M204 P600
G1 F1200
G1 X134.887 Y58.511 E.05589
G1 X136.155 Y57.089 E.05975
G1 X137.521 Y56.033 E.05412
G1 X138.311 Y55.572 E.0287
G1 X139.508 Y55.049 E.04093
G1 X141.175 Y54.603 E.05412
G1 X142.473 Y54.465 E.04093
G1 X143.286 Y54.465 E.02548
G1 X144.198 Y54.543 E.0287
G1 X145.477 Y54.804 E.04093
G1 X147.098 Y55.398 E.05412
G1 X148.736 Y56.372 E.05975
G1 X150.032 Y57.512 E.05412
G1 X150.635 Y58.2 E.02869
G1 X151.377 Y59.275 E.04093
G1 X152.132 Y60.827 E.05412
G1 X152.514 Y62.075 E.04093
G1 X152.669 Y62.873 E.02548
G1 X152.766 Y63.783 E.0287
G1 X152.754 Y65.089 E.04093
G1 X152.478 Y66.793 E.05413
G1 X152.073 Y68.034 E.04093
G1 X151.741 Y68.775 E.02548
G1 X151.084 Y69.904 E.04093
G1 X150.536 Y70.636 E.02869
G1 X149.33 Y71.872 E.05412
G1 X147.771 Y72.968 E.05975
G1 X146.201 Y73.685 E.05412
G1 X145.326 Y73.954 E.02869
G1 X144.042 Y74.19 E.04093
G1 X142.317 Y74.244 E.05412
G1 X140.434 Y73.954 E.05975
G1 X138.805 Y73.381 E.05412
G1 X137.652 Y72.768 E.04093
G1 X136.899 Y72.248 E.02869
G1 X136.272 Y71.731 E.02548
G1 X135.358 Y70.799 E.04093
G1 X134.355 Y69.394 E.05412
G1 X133.765 Y68.23 E.04093
G1 X133.448 Y67.371 E.02869
G1 X133.067 Y65.687 E.05413
G1 X132.994 Y63.783 E.05975
G1 X133.245 Y62.076 E.05412
G1 X133.628 Y60.827 E.04093
G1 X133.948 Y60.096 E.02504
M204 P1000
G1 X134.293 Y60.247 F9000
M204 P600
G1 F1200
G1 X134.339 Y60.143 E.00357
G1 X135.187 Y58.74 E.05141
G1 X136.417 Y57.36 E.05794
G1 X137.713 Y56.357 E.05141
G1 X138.479 Y55.91 E.02779
G1 X139.649 Y55.399 E.04003
G1 X141.233 Y54.976 E.05141
G1 X142.502 Y54.841 E.04003
G1 X143.257 Y54.841 E.02367
M73 P3 R12
G1 X144.14 Y54.916 E.02779
G1 X145.391 Y55.171 E.04003
G1 X146.93 Y55.736 E.05141
G1 X148.519 Y56.681 E.05794
G1 X149.751 Y57.763 E.05141
G1 X150.335 Y58.429 E.02779
G1 X151.06 Y59.48 E.04003
G1 X151.777 Y60.955 E.05141
G1 X152.151 Y62.175 E.04003
G1 X152.294 Y62.916 E.02367
G1 X152.389 Y63.798 E.02779
G1 X152.377 Y65.074 E.04003
G1 X152.115 Y66.693 E.05141
G1 X151.718 Y67.906 E.04003
G1 X151.409 Y68.595 E.02367
G1 X150.767 Y69.699 E.04003
G1 X150.236 Y70.408 E.02779
G1 X149.09 Y71.581 E.05141
G1 X147.579 Y72.644 E.05794
G1 X146.087 Y73.326 E.05141
G1 X145.24 Y73.586 E.02779
G1 X143.985 Y73.818 E.04003
G1 X142.346 Y73.869 E.05141
G1 X140.519 Y73.586 E.05794
G1 X138.972 Y73.043 E.05141
G1 X137.845 Y72.444 E.04003
G1 X137.116 Y71.94 E.02779
G1 X136.534 Y71.46 E.02367
G1 X135.64 Y70.548 E.04003
G1 X134.687 Y69.214 E.05141
G1 X134.109 Y68.075 E.04003
G1 X133.803 Y67.244 E.02779
G1 X133.441 Y65.644 E.05141
G1 X133.371 Y63.798 E.05794
G1 X133.609 Y62.175 E.05141
G1 X133.983 Y60.955 E.04003
G1 X134.269 Y60.302 E.02234
M204 P1000
G1 E-2.24 F4200
;WIPE_START
G1 F7200
G1 X134.339 Y60.143 E-.09626
G1 X135.1 Y58.883 E-.81574
;WIPE_END
G1 E-.048 F4200
G1 Z.4 F720
G1 X136.722 Y61.332 F9000
G1 Z.2 F720
G1 E3.2 F2400
M204 P600
G1 F1200
G1 X137.455 Y60.16 E.04333
G1 X138.392 Y59.171 E.04272
G1 X139.303 Y58.509 E.03531
G1 X139.943 Y58.158 E.0229
G1 X140.618 Y57.879 E.02288
G1 X141.949 Y57.562 E.04292
G1 X143.308 Y57.514 E.04263
G1 X144.045 Y57.597 E.02323
G1 X144.752 Y57.756 E.02273
G1 X145.979 Y58.238 E.04133
G1 X147.163 Y59.003 E.04419
G1 X147.72 Y59.497 E.02335
G1 X148.209 Y60.035 E.02278
G1 X148.952 Y61.167 E.04248
G1 X149.45 Y62.387 E.04131
G1 X149.681 Y63.487 E.03522
G1 X149.738 Y64.214 E.02289
G1 X149.717 Y64.936 E.02263
G1 X149.478 Y66.233 E.04137
G1 X149.016 Y67.426 E.04012
G1 X148.493 Y68.303 E.03202
G1 X147.994 Y68.93 E.02513
G1 X147.429 Y69.494 E.02502
G1 X146.36 Y70.269 E.04138
G1 X145.175 Y70.823 E.04104
G1 X144.19 Y71.092 E.03201
G1 X143.391 Y71.199 E.02528
G1 X142.598 Y71.213 E.02486
G1 X141.303 Y71.034 E.04099
G1 X140.088 Y70.625 E.04019
G1 X139.365 Y70.249 E.02557
G1 X138.703 Y69.802 E.02503
G1 X137.79 Y68.957 E.03899
G1 X136.999 Y67.892 E.04159
G1 X136.628 Y67.181 E.02516
G1 X136.333 Y66.411 E.02585
G1 X136.068 Y65.166 E.03991
G1 X136.034 Y63.912 E.03934
G1 X136.138 Y63.09 E.02596
G1 X136.34 Y62.285 E.02603
G1 X136.7 Y61.388 E.0303
M204 P1000
G1 X137.049 Y61.529 F9000
M204 P600
G1 F1200
G1 X137.742 Y60.405 E.04139
G1 X138.628 Y59.465 E.04051
G1 X139.495 Y58.833 E.03363
G1 X140.097 Y58.503 E.02154
G1 X140.748 Y58.233 E.02209
G1 X141.982 Y57.938 E.03978
G1 X143.281 Y57.891 E.04074
G1 X143.972 Y57.968 E.02182
G1 X144.655 Y58.121 E.02193
G1 X145.823 Y58.582 E.03936
G1 X146.924 Y59.295 E.04113
G1 X147.448 Y59.758 E.02193
G1 X147.92 Y60.277 E.022
G1 X148.61 Y61.328 E.03942
G1 X149.084 Y62.482 E.03914
G1 X149.306 Y63.529 E.03355
G1 X149.361 Y64.214 E.02153
G1 X149.341 Y64.91 E.02185
G1 X149.12 Y66.114 E.03838
G1 X148.684 Y67.248 E.03807
G1 X148.189 Y68.079 E.03033
G1 X147.719 Y68.671 E.02371
G1 X147.173 Y69.217 E.02421
G1 X146.183 Y69.935 E.03833
G1 X145.059 Y70.464 E.03896
G1 X144.127 Y70.72 E.03031
G1 X143.373 Y70.822 E.02386
G1 X142.606 Y70.836 E.02405
G1 X141.406 Y70.67 E.03798
G1 X140.248 Y70.284 E.03826
G1 X139.567 Y69.93 E.02408
G1 X138.926 Y69.497 E.02423
G1 X138.06 Y68.693 E.03708
G1 X137.327 Y67.705 E.03858
G1 X136.967 Y67.016 E.02435
G1 X136.69 Y66.291 E.02435
G1 X136.441 Y65.106 E.03797
G1 X136.411 Y63.917 E.03727
G1 X136.51 Y63.15 E.02425
G1 X136.702 Y62.39 E.02459
G1 X137.027 Y61.584 E.02723
M204 P1000
G1 X137.376 Y61.726 F9000
M204 P600
G1 F1200
G1 X137.409 Y61.646 E.00271
G1 X138.051 Y60.622 E.03792
G1 X138.865 Y59.759 E.03717
G1 X139.687 Y59.158 E.03195
G1 X140.269 Y58.838 E.02082
G1 X140.878 Y58.588 E.02063
G1 X142.051 Y58.31 E.03781
G1 X143.253 Y58.267 E.0377
G1 X143.92 Y58.341 E.02105
G1 X144.557 Y58.486 E.02049
G1 X145.634 Y58.909 E.03628
G1 X146.685 Y59.587 E.03921
G1 X147.19 Y60.033 E.02114
G1 X147.63 Y60.519 E.02054
G1 X148.285 Y61.519 E.03746
G1 X148.729 Y62.609 E.0369
G1 X148.931 Y63.571 E.03085
M73 P4 R12
G1 X148.984 Y64.234 E.02083
G1 X148.964 Y64.884 E.02042
G1 X148.761 Y65.996 E.03544
G1 X148.351 Y67.069 E.03602
G1 X147.886 Y67.855 E.02862
G1 X147.431 Y68.428 E.02295
G1 X146.918 Y68.939 E.02271
G1 X145.977 Y69.619 E.03639
G1 X144.943 Y70.105 E.03582
G1 X144.063 Y70.348 E.02861
G1 X143.333 Y70.447 E.0231
G1 X142.614 Y70.459 E.02255
G1 X141.475 Y70.299 E.03606
G1 X140.409 Y69.942 E.03526
G1 X139.75 Y69.601 E.02327
G1 X139.15 Y69.194 E.02273
G1 X138.33 Y68.429 E.03518
G1 X137.654 Y67.517 E.03558
G1 X137.307 Y66.852 E.02353
G1 X137.048 Y66.171 E.02285
G1 X136.817 Y65.078 E.03501
G1 X136.787 Y63.951 E.03535
G1 X136.883 Y63.21 E.02343
G1 X137.064 Y62.495 E.02312
G1 X137.354 Y61.781 E.02415
M204 P1000
G1 X137.703 Y61.923 F9000
M204 P600
G1 F1200
G1 X137.751 Y61.804 E.00406
G1 X138.36 Y60.839 E.03577
G1 X139.126 Y60.031 E.03489
G1 X139.88 Y59.482 E.02923
G1 X140.423 Y59.183 E.01944
G1 X141.008 Y58.942 E.01983
G1 X142.084 Y58.686 E.03469
G1 X143.226 Y58.643 E.03583
G1 X143.847 Y58.711 E.01961
G1 X144.46 Y58.85 E.01969
G1 X145.478 Y59.253 E.03432
G1 X146.446 Y59.879 E.03617
G1 X146.918 Y60.294 E.0197
G1 X147.341 Y60.761 E.01974
G1 X147.943 Y61.679 E.03441
G1 X148.363 Y62.704 E.03473
G1 X148.556 Y63.615 E.0292
G1 X148.607 Y64.233 E.01944
G1 X148.588 Y64.858 E.01963
G1 X148.394 Y65.911 E.03356
G1 X148.018 Y66.892 E.03293
G1 X147.582 Y67.631 E.02693
G1 X147.157 Y68.169 E.02149
G1 X146.662 Y68.662 E.02189
G1 X145.8 Y69.286 E.03337
G1 X144.826 Y69.746 E.03378
G1 X143.999 Y69.976 E.0269
G1 X143.316 Y70.07 E.02164
G1 X142.622 Y70.082 E.02174
G1 X141.578 Y69.936 E.03307
G1 X140.569 Y69.601 E.03334
G1 X139.953 Y69.282 E.02175
G1 X139.374 Y68.89 E.0219
G1 X138.6 Y68.165 E.03325
G1 X137.981 Y67.329 E.03262
G1 X137.655 Y66.707 E.02201
G1 X137.406 Y66.051 E.02202
G1 X137.19 Y65.018 E.03309
G1 X137.163 Y63.984 E.03241
G1 X137.251 Y63.292 E.0219
G1 X137.427 Y62.601 E.02234
G1 X137.68 Y61.979 E.02106
M204 P1000
G1 X138.029 Y62.122 F9000
M204 P600
G1 F1200
G1 X138.094 Y61.962 E.00542
G1 X138.647 Y61.084 E.03253
G1 X139.363 Y60.325 E.03271
G1 X140.072 Y59.807 E.02756
G1 X140.595 Y59.518 E.01871
G1 X141.136 Y59.297 E.01834
G1 X142.152 Y59.057 E.03272
G1 X143.198 Y59.02 E.03282
G1 X143.795 Y59.085 E.01884
G1 X144.362 Y59.214 E.01822
G1 X145.289 Y59.58 E.03126
G1 X146.208 Y60.172 E.03426
G1 X146.661 Y60.57 E.01891
G1 X147.05 Y61.003 E.01826
G1 X147.617 Y61.87 E.03248
G1 X147.998 Y62.799 E.03148
G1 X148.181 Y63.658 E.02754
G1 X148.231 Y64.253 E.01871
G1 X148.211 Y64.832 E.01817
G1 X148.035 Y65.793 E.03065
G1 X147.685 Y66.715 E.03091
G1 X147.278 Y67.408 E.02521
G1 X146.868 Y67.926 E.02072
G1 X146.407 Y68.383 E.02035
G1 X145.594 Y68.97 E.03144
G1 X144.709 Y69.388 E.03068
G1 X143.935 Y69.605 E.02518
G1 X143.276 Y69.695 E.02087
G1 X142.632 Y69.704 E.0202
G1 X141.648 Y69.565 E.03116
G1 X140.729 Y69.259 E.03037
G1 X140.136 Y68.952 E.02093
G1 X139.599 Y68.587 E.02036
G1 X138.871 Y67.902 E.03134
G1 X138.308 Y67.141 E.02967
G1 X137.995 Y66.543 E.02119
G1 X137.764 Y65.932 E.02047
G1 X137.563 Y64.958 E.03117
G1 X137.54 Y63.991 E.03035
G1 X137.624 Y63.352 E.02019
G1 X137.789 Y62.708 E.02087
G1 X138.006 Y62.177 E.01797
M204 P1000
G1 X138.354 Y62.321 F9000
M204 P600
G1 F1200
G1 X138.436 Y62.121 E.00677
G1 X138.956 Y61.301 E.03043
G1 X139.6 Y60.619 E.02942
G1 X140.266 Y60.13 E.0259
G1 X140.748 Y59.863 E.01729
G1 X141.265 Y59.652 E.01751
G1 X142.22 Y59.428 E.03074
G1 X143.171 Y59.396 E.02985
G1 X143.722 Y59.455 E.01738
G1 X144.264 Y59.579 E.01741
G1 X145.133 Y59.924 E.02932
G1 X145.97 Y60.464 E.03124
G1 X146.388 Y60.831 E.01744
G1 X146.761 Y61.245 E.01745
G1 X147.276 Y62.031 E.02947
G1 X147.633 Y62.895 E.02933
G1 X147.807 Y63.702 E.02587
G1 X147.853 Y64.252 E.01729
G1 X147.835 Y64.805 E.01736
G1 X147.667 Y65.707 E.02878
G1 X147.351 Y66.538 E.02786
G1 X146.973 Y67.185 E.02351
G1 X146.594 Y67.667 E.01922
G1 X146.152 Y68.105 E.01952
G1 X145.416 Y68.637 E.02846
G1 X144.59 Y69.029 E.02866
G1 X143.87 Y69.233 E.02346
G1 X143.258 Y69.318 E.01937
G1 X142.64 Y69.327 E.01938
G1 X141.75 Y69.202 E.0282
G1 X140.888 Y68.917 E.02846
G1 X140.338 Y68.634 E.01937
G1 X139.823 Y68.283 E.01954
G1 X139.163 Y67.664 E.02838
G1 X138.635 Y66.952 E.02779
G1 X138.343 Y66.398 E.01963
G1 X138.122 Y65.812 E.01964
G1 X137.939 Y64.932 E.02821
G1 X137.916 Y64.025 E.02844
G1 X137.996 Y63.413 E.01935
G1 X138.15 Y62.815 E.01937
G1 X138.331 Y62.376 E.01487
M204 P1000
G1 X138.679 Y62.52 F9000
M204 P600
G1 F1200
G1 X138.778 Y62.281 E.00814
G1 X139.243 Y61.546 E.02725
G1 X139.838 Y60.912 E.02725
G1 X140.459 Y60.454 E.02421
G1 X140.921 Y60.198 E.01654
G1 X141.393 Y60.006 E.01599
G1 X142.252 Y59.804 E.02765
G1 X143.144 Y59.772 E.028
G1 X143.671 Y59.829 E.01659
G1 X144.165 Y59.943 E.01591
G1 X144.945 Y60.251 E.02628
G1 X145.732 Y60.757 E.02935
G1 X146.131 Y61.107 E.01663
G1 X146.47 Y61.485 E.01593
G1 X146.95 Y62.222 E.02757
G1 X147.268 Y62.992 E.02612
G1 X147.432 Y63.746 E.02421
G1 X147.477 Y64.272 E.01654
G1 X147.459 Y64.778 E.01586
G1 X147.308 Y65.59 E.02592
G1 X147.017 Y66.362 E.02587
G1 X146.668 Y66.963 E.02177
G1 X146.305 Y67.424 E.01842
G1 X145.898 Y67.827 E.01794
G1 X145.21 Y68.32 E.02655
G1 X144.472 Y68.671 E.02563
G1 X143.805 Y68.861 E.02173
G1 X143.219 Y68.943 E.01857
G1 X142.651 Y68.95 E.01781
G1 X141.82 Y68.831 E.02631
G1 X141.047 Y68.575 E.02552
G1 X140.522 Y68.304 E.01854
G1 X140.049 Y67.981 E.01796
G1 X139.434 Y67.401 E.02648
G1 X138.962 Y66.764 E.02488
G1 X138.682 Y66.233 E.0188
G1 X138.481 Y65.694 E.01805
G1 X138.312 Y64.873 E.0263
G1 X138.292 Y64.058 E.02553
G1 X138.364 Y63.495 E.0178
G1 X138.512 Y62.922 E.01857
G1 X138.656 Y62.576 E.01175
M204 P1000
G1 X139.003 Y62.721 F9000
M204 P600
M73 P5 R12
G1 F1200
G1 X139.12 Y62.441 E.0095
G1 X139.551 Y61.764 E.02519
G1 X140.076 Y61.205 E.02403
G1 X140.654 Y60.777 E.02255
G1 X141.074 Y60.543 E.01507
G1 X141.521 Y60.361 E.01515
G1 X142.319 Y60.176 E.02568
G1 X143.118 Y60.149 E.02507
G1 X143.597 Y60.199 E.0151
G1 X144.066 Y60.307 E.01509
G1 X144.788 Y60.594 E.02436
G1 X145.494 Y61.05 E.02637
G1 X145.858 Y61.368 E.01513
G1 X146.18 Y61.726 E.01511
G1 X146.609 Y62.383 E.0246
G1 X146.904 Y63.089 E.02399
G1 X147.057 Y63.791 E.02253
G1 X147.099 Y64.27 E.01507
G1 X147.082 Y64.75 E.01504
G1 X146.941 Y65.504 E.02407
G1 X146.683 Y66.187 E.02289
G1 X146.363 Y66.741 E.02005
G1 X146.031 Y67.165 E.01687
G1 X145.643 Y67.548 E.0171
G1 X145.032 Y67.988 E.02361
G1 X144.352 Y68.313 E.02364
G1 X143.739 Y68.49 E.02
G1 X143.201 Y68.566 E.01702
G1 X142.66 Y68.573 E.01697
G1 X141.922 Y68.468 E.02339
G1 X141.206 Y68.232 E.02364
G1 X140.724 Y67.986 E.01695
G1 X140.274 Y67.678 E.01712
G1 X139.727 Y67.162 E.02357
G1 X139.288 Y66.574 E.02301
G1 X139.031 Y66.09 E.0172
G1 X138.839 Y65.576 E.01721
G1 X138.688 Y64.845 E.02338
G1 X138.668 Y64.092 E.02364
G1 X138.737 Y63.556 E.01695
G1 X138.874 Y63.031 E.01702
G1 X138.98 Y62.776 E.00864
M204 P1000
G1 X139.326 Y62.922 F9000
M204 P600
G1 F1200
G1 X139.461 Y62.602 E.01088
G1 X139.839 Y62.008 E.0221
G1 X140.315 Y61.497 E.02188
G1 X140.849 Y61.101 E.02084
G1 X141.247 Y60.879 E.0143
G1 X141.649 Y60.717 E.01359
G1 X142.351 Y60.552 E.02262
G1 X143.092 Y60.525 E.02325
G1 X143.546 Y60.573 E.0143
G1 X143.967 Y60.671 E.01355
G1 X144.6 Y60.922 E.02135
G1 X145.258 Y61.345 E.02453
G1 X145.585 Y61.628 E.01359
G1 X145.89 Y61.968 E.01429
G1 X146.269 Y62.546 E.02168
