; generated by PrusaSlicer 2.5.2+win64 on 2023-05-24 at 07:26:30 UTC


;
;

;
;
; 

; external perimeters extrusion width = 0.45mm
; perimeters extrusion width = 0.45mm
; infill extrusion width = 0.45mm
; solid infill extrusion width = 0.45mm
; top infill extrusion width = 0.40mm
; support material extrusion width = 0.35mm
; first layer extrusion width = 0.42mm

; external perimeters extrusion width = 0.45mm
; perimeters extrusion width = 0.45mm
; infill extrusion width = 0.45mm
; solid infill extrusion width = 0.45mm
; top infill extrusion width = 0.40mm
; support material extrusion width = 0.35mm
; first layer extrusion width = 0.42mm

; external perimeters extrusion width = 0.45mm
; perimeters extrusion width = 0.45mm
; infill extrusion width = 0.45mm
; solid infill extrusion width = 0.45mm
; top infill extrusion width = 0.40mm
; support material extrusion width = 0.35mm
; first layer extrusion width = 0.42mm

; external perimeters extrusion width = 0.45mm
; perimeters extrusion width = 0.45mm
; infill extrusion width = 0.45mm
; solid infill extrusion width = 0.45mm
; top infill extrusion width = 0.40mm
; support material extrusion width = 0.35mm
; first layer extrusion width = 0.42mm

M73 P0 R18
M201 X2500 Y2500 Z400 E5000 ; sets maximum accelerations, mm/sec^2
M203 X180 Y180 Z12 E80 ; sets maximum feedrates, mm / sec
M204 P2000 R1250 T2500 ; sets acceleration (P, T) and retract acceleration (R), mm/sec^2
M205 X8.00 Y8.00 Z2.00 E10.00 ; sets the jerk limits, mm/sec
M205 S0 T0 ; sets the minimum extruding and travel feed rate, mm/sec
M107
;TYPE:Custom
M862.3 P "MINI" ; printer model check
G90 ; use absolute coordinates
M83 ; extruder relative mode
M104 S170 ; set extruder temp for bed leveling
M140 S60 ; set bed temp
M109 R170 ; wait for bed leveling temp
M190 S60 ; wait for bed temp
M204 T1250 ; set travel acceleration
G28 ; home all without mesh bed level
G29 ; mesh bed leveling 
M204 T2500 ; restore travel acceleration
M104 S215 ; set extruder temp
G92 E0
G1 Y-2 X179 F2400
G1 Z3 F720
M109 S215 ; wait for extruder temp

; intro line
G1 X170 F1000
G1 Z0.2 F720
G1 X110 E8 F900
G1 X40 E10 F700
G92 E0

M221 S95 ; set flow
G21 ; set units to millimeters
G90 ; use absolute coordinates
M83 ; use relative distances for extrusion
M900 K0.2 ; Filament gcode LA 1.5
; ; Filament gcode LA 1.0
M107
;LAYER_CHANGE
;Z:0.2
;HEIGHT:0.2
;BEFORE_LAYER_CHANGE
G92 E0.0
;0.2


G1 E-3.2 F4200
M73 P1 R18
G1 Z.2 F720
;AFTER_LAYER_CHANGE
;0.2
G1 Z.4
G1 X80.239 Y66.165 F9000
G1 Z.2 F720
G1 E3.2 F2400
M204 P600
;TYPE:Skirt/Brim
;WIDTH:0.42
G1 F1200
G1 X81.014 Y65.234 E.03797
G1 X82.074 Y64.214 E.04615
G1 X82.874 Y63.588 E.03186
G1 X84.713 Y62.505 E.06691
G1 X86.078 Y61.954 E.04615
G1 X87.245 Y61.628 E.03797
G1 X88.244 Y61.448 E.03185
G1 X89.712 Y61.335 E.04615
G1 X107.247 Y61.029 E.54989
G1 X108.715 Y61.142 E.04615
G1 X109.993 Y61.39 E.04082
G1 X111.481 Y61.866 E.049
G1 X113.065 Y62.628 E.05511
G1 X118.223 Y65.584 E.18639
G1 X118.721 Y65.966 E.01968
G1 X118.832 Y66.076 E.0049
G1 X119.528 Y67.757 E.05704
G1 X119.527 Y78.387 E.3333
G1 X118.988 Y95.398 E.53364
G1 X118.496 Y96.772 E.04576
G1 X117.62 Y97.622 E.03829
G1 X111.79 Y100.976 E.21089
G1 X109.982 Y101.679 E.06081
G1 X108.549 Y102.015 E.04615
G1 X107.632 Y102.135 E.029
G1 X106.406 Y102.187 E.03848
G1 X89.171 Y102.046 E.54039
G1 X87.969 Y101.902 E.03797
G1 X86.262 Y101.482 E.05511
G1 X84.811 Y100.903 E.049
G1 X83.744 Y100.329 E.03797
G1 X82.463 Y99.434 E.049
G1 X81.555 Y98.632 E.03797
G1 X80.512 Y97.469 E.049
G1 X79.917 Y96.645 E.03186
G1 X79.302 Y95.601 E.03797
G1 X78.668 Y94.173 E.049
G1 X78.307 Y93.017 E.03798
G1 X78.015 Y91.482 E.049
G1 X77.928 Y90.288 E.03754
G1 X77.844 Y72.756 E.5497
G1 X78.013 Y71.294 E.04615
M73 P2 R18
G1 X78.31 Y70.026 E.04082
G1 X78.923 Y68.379 E.05511
G1 X79.665 Y67.003 E.049
G1 X80.205 Y66.215 E.02997
M204 P1000
G1 E-2.24 F4200
;WIPE_START
G1 F7200
G1 X81.014 Y65.234 E-.70427
G1 X81.284 Y64.974 E-.20773
;WIPE_END
G1 E-.048 F4200
G1 Z.4 F720
G1 X82.376 Y67.757 F9000
G1 Z.2 F720
G1 E3.2 F2400
M204 P600
G1 F1200
G1 X82.861 Y67.163 E.02405
G1 X83.452 Y66.553 E.02663
G1 X83.97 Y66.1 E.02157
G1 X84.502 Y65.699 E.02088
G1 X85.048 Y65.345 E.0204
G1 X85.734 Y64.969 E.02454
G1 X86.445 Y64.654 E.02436
G1 X87.054 Y64.438 E.02027
G1 X87.699 Y64.258 E.02099
G1 X88.384 Y64.12 E.02192
G1 X89.337 Y64.014 E.03008
G1 X90.277 Y64.008 E.02946
G1 X91.209 Y64.089 E.02934
G1 X92.14 Y64.267 E.02971
G1 X93.048 Y64.542 E.02976
G1 X93.91 Y64.895 E.0292
G1 X94.688 Y65.306 E.02759
G1 X95.388 Y65.762 E.02618
G1 X95.945 Y66.194 E.02212
G1 X96.442 Y66.642 E.02096
G1 X96.882 Y67.097 E.01985
G1 X97.381 Y67.698 E.0245
G1 X97.835 Y68.347 E.02483
G1 X98.415 Y69.362 E.03667
G1 X98.827 Y68.54 E.02884
G1 X99.161 Y67.984 E.02032
G1 X99.533 Y67.451 E.0204
G1 X100.04 Y66.832 E.02507
G1 X100.589 Y66.268 E.02467
G1 X101.14 Y65.785 E.02297
G1 X101.649 Y65.401 E.02
G1 X102.179 Y65.055 E.01986
G1 X102.877 Y64.671 E.02497
G1 X103.603 Y64.348 E.02491
G1 X104.212 Y64.132 E.02025
G1 X104.829 Y63.959 E.0201
G1 X105.558 Y63.812 E.02332
G1 X106.495 Y63.709 E.02957
G1 X107.471 Y63.704 E.0306
G1 X108.368 Y63.784 E.02824
G1 X109.261 Y63.953 E.02847
G1 X110.224 Y64.243 E.03154
G1 X111.052 Y64.582 E.02805
G1 X111.816 Y64.982 E.02705
G1 X112.532 Y65.447 E.02678
G1 X113.134 Y65.915 E.02391
G1 X113.589 Y66.326 E.01922
G1 X114.009 Y66.757 E.01887
G1 X114.528 Y67.379 E.02539
G1 X114.994 Y68.043 E.02542
G1 X115.316 Y68.588 E.01986
G1 X115.615 Y69.185 E.02093
G1 X115.889 Y69.848 E.02251
G1 X116.129 Y70.597 E.02466
G1 X116.309 Y71.375 E.02504
G1 X116.406 Y72.017 E.02034
G1 X116.458 Y72.652 E.01999
G1 X116.465 Y73.369 E.02248
G1 X116.406 Y74.19 E.02581
G1 X116.275 Y75.002 E.02578
G1 X116.134 Y75.59 E.01897
G1 X115.953 Y76.175 E.01919
G1 X115.675 Y76.885 E.02393
G1 X115.33 Y77.588 E.02454
G1 X114.924 Y78.268 E.02483
G1 X114.547 Y78.801 E.02048
G1 X114.136 Y79.303 E.02034
G1 X113.591 Y79.875 E.02476
G1 X112.995 Y80.404 E.025
G1 X112.468 Y80.802 E.0207
G1 X111.926 Y81.155 E.02027
G1 X110.808 Y81.752 E.03974
G1 X111.306 Y82.011 E.0176
G1 X112.006 Y82.467 E.0262
G1 X112.585 Y82.917 E.02298
G1 X113.061 Y83.347 E.02011
G1 X113.501 Y83.802 E.01984
G1 X114 Y84.403 E.02451
G1 X114.463 Y85.066 E.02534
G1 X114.783 Y85.61 E.0198
G1 X115.065 Y86.171 E.01967
G1 X115.345 Y86.845 E.02289
G1 X115.595 Y87.624 E.02566
G1 X115.776 Y88.415 E.02544
G1 X115.867 Y89.028 E.01944
G1 X115.919 Y89.65 E.01957
G1 X115.926 Y90.38 E.02289
G1 X115.867 Y91.201 E.0258
G1 X115.736 Y92.013 E.02579
G1 X115.588 Y92.626 E.01975
G1 X115.401 Y93.225 E.0197
G1 X115.13 Y93.91 E.02309
G1 X114.799 Y94.585 E.02356
G1 X114.369 Y95.303 E.02626
G1 X114.008 Y95.812 E.01958
G1 X113.607 Y96.304 E.01988
G1 X113.04 Y96.898 E.02574
G1 X112.421 Y97.443 E.02588
G1 X111.919 Y97.82 E.01969
G1 X111.386 Y98.167 E.01993
G1 X110.675 Y98.556 E.0254
G1 X110.008 Y98.853 E.02291
G1 X109.396 Y99.073 E.02037
G1 X108.75 Y99.255 E.02105
G1 X108.078 Y99.393 E.02154
G1 X107.251 Y99.495 E.02611
G1 X106.453 Y99.523 E.02504
G1 X105.817 Y99.497 E.01994
G1 X105.142 Y99.422 E.02132
G1 X104.449 Y99.293 E.02208
G1 X103.447 Y99.004 E.03269
G1 X102.553 Y98.645 E.03023
G1 X101.76 Y98.23 E.02804
G1 X101.047 Y97.768 E.02664
G1 X100.487 Y97.335 E.0222
G1 X99.998 Y96.897 E.02058
G1 X99.549 Y96.435 E.02021
G1 X99.039 Y95.821 E.02503
G1 X98.571 Y95.15 E.02566
G1 X98.227 Y94.561 E.02138
G1 X97.864 Y95.165 E.02211
G1 X97.486 Y95.699 E.02051
G1 X97.056 Y96.224 E.02129
G1 X96.519 Y96.785 E.02435
G1 X95.923 Y97.312 E.02493
G1 X95.407 Y97.701 E.02025
G1 X94.865 Y98.054 E.02031
G1 X94.169 Y98.436 E.02488
G1 X93.46 Y98.75 E.02431
G1 X92.85 Y98.968 E.02032
G1 X92.216 Y99.145 E.02065
G1 X91.527 Y99.285 E.02204
G1 X90.763 Y99.379 E.02412
G1 X89.933 Y99.41 E.02606
G1 X89.297 Y99.384 E.01997
G1 X88.661 Y99.315 E.02003
G1 X87.91 Y99.176 E.02397
G1 X86.962 Y98.904 E.03092
G1 X86.031 Y98.532 E.03142
G1 X85.254 Y98.127 E.02749
G1 X84.539 Y97.665 E.0267
G1 X83.933 Y97.195 E.02403
G1 X83.466 Y96.774 E.0197
G1 X83.027 Y96.321 E.0198
G1 X82.507 Y95.696 E.02547
G1 X82.041 Y95.025 E.02562
G1 X81.683 Y94.406 E.02244
G1 X81.398 Y93.82 E.02041
G1 X81.159 Y93.229 E.02
G1 X80.918 Y92.471 E.02494
G1 X80.746 Y91.716 E.02427
G1 X80.639 Y90.979 E.02336
G1 X80.594 Y90.34 E.02009
G1 X80.593 Y89.692 E.02032
G1 X80.653 Y88.896 E.02503
G1 X80.775 Y88.134 E.02419
G1 X80.926 Y87.499 E.02047
G1 X81.126 Y86.864 E.02088
G1 X81.409 Y86.154 E.02395
G1 X81.775 Y85.425 E.02558
G1 X82.109 Y84.871 E.02029
G1 X82.483 Y84.336 E.02045
G1 X82.981 Y83.73 E.02459
G1 X83.528 Y83.167 E.02464
G1 X84.068 Y82.693 E.02252
G1 X84.577 Y82.308 E.02002
G1 X85.48 Y81.732 E.03357
G1 X84.414 Y81.053 E.03964
G1 X83.836 Y80.602 E.02297
G1 X83.369 Y80.182 E.01968
G1 X82.93 Y79.729 E.0198
G1 X82.42 Y79.116 E.025
G1 X81.96 Y78.458 E.02517
G1 X81.585 Y77.813 E.02339
G1 X81.311 Y77.252 E.01958
G1 X81.077 Y76.678 E.01943
G1 X80.825 Y75.894 E.02582
G1 X80.648 Y75.123 E.02479
G1 X80.541 Y74.386 E.02336
G1 X80.497 Y73.76 E.01967
G1 X80.494 Y73.143 E.01935
G1 X80.554 Y72.319 E.02592
G1 X80.68 Y71.526 E.02517
G1 X80.833 Y70.892 E.02043
G1 X81.034 Y70.255 E.02095
G1 X81.325 Y69.532 E.02447
G1 X81.663 Y68.858 E.02363
G1 X82.01 Y68.279 E.02116
G1 X82.341 Y67.806 E.0181
M204 P1000
G1 X82.65 Y68.021 F9000
M204 P600
G1 F1200
G1 X83.148 Y67.407 E.02478
G1 X83.707 Y66.832 E.02516
G1 X84.203 Y66.397 E.02069
G1 X84.714 Y66.012 E.02005
G1 X85.235 Y65.672 E.01951
G1 X85.908 Y65.304 E.02406
G1 X86.578 Y65.007 E.02296
G1 X87.162 Y64.799 E.01943
G1 X87.78 Y64.626 E.02015
G1 X88.434 Y64.494 E.0209
G1 X89.369 Y64.39 E.0295
G1 X90.253 Y64.384 E.02773
G1 X91.148 Y64.461 E.02816
G1 X92.04 Y64.631 E.02848
G1 X92.914 Y64.895 E.02861
G1 X93.759 Y65.24 E.02863
G1 X94.49 Y65.626 E.02591
G1 X95.175 Y66.073 E.02566
G1 X95.708 Y66.488 E.02117
G1 X96.184 Y66.917 E.02011
G1 X96.606 Y67.354 E.01902
G1 X97.086 Y67.933 E.02359
G1 X97.522 Y68.558 E.02391
G1 X97.83 Y69.079 E.01898
G1 X98.112 Y69.642 E.01972
G1 X98.422 Y70.391 E.02545
G1 X98.817 Y69.403 E.03338
G1 X99.155 Y68.728 E.02367
G1 X99.474 Y68.194 E.01949
G1 X99.83 Y67.684 E.01951
G1 X100.317 Y67.089 E.02409
G1 X100.854 Y66.536 E.02418
G1 X101.383 Y66.074 E.02203
G1 X101.871 Y65.706 E.01916
G1 X102.367 Y65.382 E.0186
G1 X103.052 Y65.006 E.02449
G1 X103.749 Y64.696 E.02393
G1 X104.332 Y64.49 E.01937
G1 X104.924 Y64.324 E.01929
G1 X105.608 Y64.185 E.02187
G1 X106.527 Y64.085 E.02899
G1 X107.447 Y64.08 E.02884
G1 X108.325 Y64.158 E.02767
G1 X109.18 Y64.321 E.02728
G1 X110.089 Y64.595 E.02978
G1 X110.9 Y64.927 E.02748
G1 X111.632 Y65.312 E.02593
G1 X112.32 Y65.759 E.02571
G1 X112.887 Y66.2 E.02251
G1 X113.323 Y66.594 E.01844
G1 X113.734 Y67.015 E.01845
G1 X114.234 Y67.614 E.02445
G1 X114.68 Y68.253 E.02443
G1 X114.988 Y68.774 E.01898
G1 X115.269 Y69.335 E.01968
G1 X115.532 Y69.971 E.02158
G1 X115.768 Y70.705 E.02416
G1 X115.94 Y71.453 E.02406
G1 X116.031 Y72.054 E.01907
G1 X116.081 Y72.663 E.01916
G1 X116.088 Y73.35 E.02154
G1 X116.032 Y74.139 E.02479
G1 X115.907 Y74.921 E.02484
G1 X115.769 Y75.496 E.01854
G1 X115.595 Y76.056 E.0184
G1 X115.327 Y76.74 E.02303
G1 X114.995 Y77.415 E.02356
G1 X114.604 Y78.068 E.02386
G1 X114.25 Y78.568 E.01921
G1 X113.858 Y79.049 E.01946
G1 X113.335 Y79.598 E.02378
G1 X112.75 Y80.116 E.02452
G1 X112.256 Y80.49 E.01941
G1 X111.738 Y80.829 E.01942
G1 X111.069 Y81.196 E.02392
G1 X109.889 Y81.706 E.04031
G1 X111.109 Y82.332 E.04299
M73 P3 R18
G1 X111.794 Y82.779 E.02563
G1 X112.337 Y83.202 E.0216
G1 X112.794 Y83.614 E.01929
G1 X113.225 Y84.059 E.01941
G1 X113.705 Y84.638 E.02358
G1 X114.141 Y85.264 E.02393
G1 X114.449 Y85.785 E.01898
G1 X114.725 Y86.334 E.01926
G1 X114.988 Y86.968 E.02153
G1 X115.229 Y87.716 E.02465
G1 X115.404 Y88.478 E.0245
G1 X115.494 Y89.078 E.01901
G1 X115.542 Y89.674 E.01878
G1 X115.55 Y90.361 E.02153
G1 X115.493 Y91.15 E.02479
G1 X115.368 Y91.932 E.02484
G1 X115.227 Y92.519 E.01894
G1 X115.047 Y93.093 E.01886
G1 X114.788 Y93.751 E.02217
G1 X114.464 Y94.412 E.02307
G1 X114.058 Y95.091 E.02482
G1 X113.704 Y95.589 E.01915
G1 X113.319 Y96.06 E.01906
G1 X112.785 Y96.62 E.02429
G1 X112.188 Y97.146 E.02494
G1 X111.707 Y97.508 E.01887
G1 X111.199 Y97.84 E.01905
G1 X110.515 Y98.214 E.02444
G1 X109.861 Y98.505 E.02244
G1 X109.275 Y98.715 E.01951
G1 X108.655 Y98.89 E.02021
G1 X108.009 Y99.022 E.02066
G1 X107.214 Y99.119 E.02513
G1 X106.447 Y99.146 E.02405
G1 X105.84 Y99.12 E.01906
G1 X105.204 Y99.05 E.02007
G1 X104.527 Y98.924 E.02158
G1 X103.579 Y98.651 E.03094
G1 X102.702 Y98.298 E.02963
G1 X101.943 Y97.901 E.02687
G1 X101.272 Y97.465 E.02508
G1 X100.723 Y97.041 E.02174
G1 X100.264 Y96.629 E.01934
G1 X99.834 Y96.188 E.01932
G1 X99.334 Y95.586 E.02454
G1 X98.885 Y94.941 E.02465
G1 X98.546 Y94.359 E.02111
G1 X98.23 Y93.715 E.02248
G1 X97.935 Y94.313 E.0209
G1 X97.552 Y94.954 E.0234
G1 X97.182 Y95.476 E.02007
G1 X96.778 Y95.969 E.01998
G1 X96.263 Y96.508 E.02338
G1 X95.679 Y97.024 E.02445
G1 X95.185 Y97.396 E.01936
G1 X94.677 Y97.727 E.01904
G1 X94.008 Y98.094 E.02392
G1 X93.327 Y98.398 E.02339
G1 X92.742 Y98.607 E.01948
G1 X92.133 Y98.777 E.01981
G1 X91.473 Y98.912 E.02112
G1 X90.726 Y99.004 E.02363
G1 X89.927 Y99.033 E.02507
G1 X89.319 Y99.008 E.01908
G1 X88.71 Y98.941 E.01922
G1 X87.988 Y98.807 E.02302
G1 X87.076 Y98.544 E.02975
G1 X86.181 Y98.186 E.03023
G1 X85.436 Y97.797 E.02633
G1 X84.75 Y97.353 E.02563
G1 X84.18 Y96.91 E.02262
G1 X83.724 Y96.499 E.01928
G1 X83.302 Y96.064 E.01898
G1 X82.812 Y95.474 E.02404
G1 X82.364 Y94.829 E.02464
G1 X82.019 Y94.234 E.02155
G1 X81.745 Y93.672 E.01959
G1 X81.516 Y93.107 E.01913
G1 X81.284 Y92.379 E.02396
G1 X81.115 Y91.64 E.02378
G1 X81.014 Y90.945 E.02199
G1 X80.971 Y90.332 E.01927
G1 X80.969 Y89.712 E.01944
G1 X81.026 Y88.947 E.02406
G1 X81.143 Y88.214 E.02327
G1 X81.288 Y87.605 E.01963
G1 X81.479 Y86.997 E.02
G1 X81.75 Y86.316 E.02297
G1 X82.109 Y85.6 E.0251
G1 X82.428 Y85.071 E.01939
G1 X82.779 Y84.57 E.01917
G1 X83.267 Y83.976 E.02411
G1 X83.793 Y83.435 E.02365
G1 X84.311 Y82.981 E.0216
G1 X84.8 Y82.612 E.01921
G1 X85.319 Y82.273 E.01944
G1 X86.327 Y81.723 E.03597
G1 X85.324 Y81.195 E.03552
G1 X84.627 Y80.741 E.02609
G1 X84.083 Y80.318 E.02161
G1 X83.627 Y79.906 E.01927
G1 X83.206 Y79.472 E.01897
G1 X82.715 Y78.881 E.02407
G1 X82.274 Y78.249 E.02418
G1 X81.921 Y77.641 E.02203
G1 X81.658 Y77.103 E.01878
G1 X81.429 Y76.542 E.019
G1 X81.191 Y75.802 E.02438
G1 X81.017 Y75.047 E.02429
G1 X80.917 Y74.352 E.02199
G1 X80.874 Y73.752 E.01886
G1 X80.871 Y73.149 E.01893
G1 X80.927 Y72.37 E.02448
G1 X81.049 Y71.607 E.02423
G1 X81.194 Y70.999 E.01959
G1 X81.386 Y70.389 E.02006
G1 X81.666 Y69.694 E.02351
G1 X81.997 Y69.033 E.02316
G1 X82.323 Y68.489 E.01988
G1 X82.616 Y68.071 E.01602
M204 P1000
G1 X82.925 Y68.286 F9000
M204 P600
G1 F1200
G1 X83.435 Y67.652 E.0255
G1 X83.961 Y67.111 E.02368
G1 X84.446 Y66.685 E.02024
G1 X84.925 Y66.324 E.01881
G1 X85.423 Y65.999 E.01863
G1 X86.069 Y65.645 E.02309
G1 X86.724 Y65.355 E.02248
G1 X87.282 Y65.157 E.01855
G1 X87.862 Y64.994 E.0189
G1 X88.501 Y64.865 E.02042
G1 X89.381 Y64.767 E.02779
G1 X90.247 Y64.761 E.02714
G1 X91.106 Y64.836 E.02703
G1 X91.941 Y64.995 E.02667
G1 X92.78 Y65.247 E.02746
G1 X93.591 Y65.578 E.02747
G1 X94.306 Y65.956 E.02534
G1 X94.95 Y66.376 E.02411
G1 X95.471 Y66.781 E.02071
G1 X95.918 Y67.184 E.01886
G1 X96.32 Y67.6 E.01814
G1 X96.791 Y68.167 E.02311
G1 X97.209 Y68.767 E.02293
G1 X97.502 Y69.265 E.01811
G1 X97.771 Y69.804 E.0189
G1 X98.023 Y70.414 E.02068
G1 X98.306 Y71.314 E.02958
G1 X98.593 Y71.304 E.00899
G1 X98.714 Y70.801 E.01623
G1 X98.887 Y70.244 E.01827
G1 X99.158 Y69.564 E.02295
G1 X99.489 Y68.903 E.02319
G1 X99.787 Y68.404 E.01821
G1 X100.126 Y67.917 E.01862
G1 X100.603 Y67.335 E.0236
G1 X101.119 Y66.805 E.02317
G1 X101.625 Y66.363 E.02109
G1 X102.083 Y66.018 E.01795
G1 X102.556 Y65.708 E.01773
G1 X103.212 Y65.347 E.0235
G1 X103.895 Y65.044 E.02344
G1 X104.44 Y64.851 E.0181
G1 X105.006 Y64.692 E.01845
G1 X105.658 Y64.559 E.02085
G1 X106.539 Y64.462 E.02779
G1 X107.422 Y64.456 E.0277
G1 X108.264 Y64.53 E.02649
G1 X109.1 Y64.69 E.02667
G1 X109.955 Y64.948 E.028
G1 X110.749 Y65.273 E.02691
