; generated by PrusaSlicer 2.5.2+win64 on 2023-05-07 at 22:48:20 UTC


;
;

;
;
; 

; external perimeters extrusion width = 0.45mm
; perimeters extrusion width = 0.45mm
; infill extrusion width = 0.45mm
; solid infill extrusion width = 0.45mm
; top infill extrusion width = 0.40mm
; support material extrusion width = 0.35mm
; first layer extrusion width = 0.42mm

; external perimeters extrusion width = 0.45mm
; perimeters extrusion width = 0.45mm
; infill extrusion width = 0.45mm
; solid infill extrusion width = 0.45mm
; top infill extrusion width = 0.40mm
; support material extrusion width = 0.35mm
; first layer extrusion width = 0.42mm

M73 P0 R13
M201 X2500 Y2500 Z400 E5000 ; sets maximum accelerations, mm/sec^2
M203 X180 Y180 Z12 E80 ; sets maximum feedrates, mm / sec
M204 P2000 R1250 T2500 ; sets acceleration (P, T) and retract acceleration (R), mm/sec^2
M205 X8.00 Y8.00 Z2.00 E10.00 ; sets the jerk limits, mm/sec
M205 S0 T0 ; sets the minimum extruding and travel feed rate, mm/sec
M107
;TYPE:Custom
M862.3 P "MINI" ; printer model check
G90 ; use absolute coordinates
M83 ; extruder relative mode
M104 S170 ; set extruder temp for bed leveling
M140 S60 ; set bed temp
M109 R170 ; wait for bed leveling temp
M190 S60 ; wait for bed temp
M204 T1250 ; set travel acceleration
G28 ; home all without mesh bed level
G29 ; mesh bed leveling 
M204 T2500 ; restore travel acceleration
M104 S215 ; set extruder temp
G92 E0
G1 Y-2 X179 F2400
G1 Z3 F720
M109 S215 ; wait for extruder temp

; intro line
G1 X170 F1000
G1 Z0.2 F720
G1 X110 E8 F900
G1 X40 E10 F700
G92 E0

M221 S95 ; set flow
G21 ; set units to millimeters
G90 ; use absolute coordinates
M83 ; use relative distances for extrusion
M900 K0.2 ; Filament gcode LA 1.5
; ; Filament gcode LA 1.0
M107
;LAYER_CHANGE
;Z:0.2
;HEIGHT:0.2
;BEFORE_LAYER_CHANGE
G92 E0.0
;0.2


M73 P1 R13
G1 E-3.2 F4200
G1 Z.2 F720
;AFTER_LAYER_CHANGE
;0.2
G1 Z.4
G1 X47.244 Y51.326 F9000
G1 Z.2 F720
G1 E3.2 F2400
M204 P600
;TYPE:Skirt/Brim
;WIDTH:0.42
G1 F1200
G1 X48.424 Y50.24 E.05029
G1 X49.448 Y49.583 E.03816
M73 P2 R13
G1 X50.366 Y49.155 E.03174
G1 X51.762 Y48.741 E.04567
G1 X52.987 Y48.587 E.0387
G1 X62.255 Y48.577 E.29058
G1 X63.263 Y48.664 E.03174
G1 X64.68 Y49.003 E.04567
G1 X66.016 Y49.583 E.04567
G1 X67.231 Y50.387 E.04567
G1 X68.288 Y51.389 E.04567
G1 X69.155 Y52.559 E.04567
G1 X69.805 Y53.863 E.04567
G1 X70.22 Y55.259 E.04567
G1 X70.386 Y56.826 E.04942
G1 X70.386 Y65.653 E.27674
G1 X70.255 Y82.745 E.53595
G1 X70.037 Y84.526 E.05625
G1 X69.826 Y85.27 E.02422
G1 X69.357 Y86.392 E.03816
G1 X68.895 Y87.194 E.02902
G1 X68.157 Y88.162 E.03816
G1 X67.441 Y88.878 E.03174
G1 X66.473 Y89.616 E.03816
G1 X65.671 Y90.078 E.02902
G1 X64.548 Y90.548 E.03816
G1 X63.132 Y90.887 E.04567
G1 X62.003 Y90.976 E.0355
G1 X53.198 Y90.976 E.27608
G1 X51.396 Y90.758 E.05691
G1 X50.234 Y90.395 E.03816
G1 X48.931 Y89.745 E.04567
G1 X48.102 Y89.164 E.03175
G1 X47.207 Y88.339 E.03816
G1 X46.307 Y87.194 E.04567
G1 X45.844 Y86.392 E.02902
G1 X45.375 Y85.27 E.03816
G1 X45.036 Y83.853 E.04567
G1 X44.947 Y82.724 E.0355
G1 X44.947 Y73.919 E.27608
G1 X45.078 Y56.805 E.53661
G1 X45.296 Y55.024 E.05625
G1 X45.506 Y54.281 E.02422
G1 X45.975 Y53.158 E.03816
G1 X46.438 Y52.357 E.02901
G1 X47.2 Y51.367 E.03915
M204 P1000
G1 X47.465 Y51.631 F9000
M204 P600
G1 F1200
G1 X48.64 Y50.549 E.05008
G1 X49.637 Y49.91 E.03713
G1 X50.495 Y49.51 E.02968
G1 X51.828 Y49.112 E.04361
G1 X53.003 Y48.964 E.03716
G1 X62.238 Y48.954 E.28955
G1 X63.198 Y49.035 E.03019
G1 X64.551 Y49.357 E.04361
G1 X65.827 Y49.91 E.04361
G1 X66.988 Y50.675 E.04361
G1 X67.999 Y51.631 E.04361
G1 X68.828 Y52.748 E.04361
G1 X69.451 Y53.992 E.04361
G1 X69.848 Y55.324 E.04361
G1 X70.009 Y56.826 E.04736
G1 X70.009 Y65.65 E.27665
G1 X69.878 Y82.743 E.53595
G1 X69.672 Y84.429 E.05326
M73 P3 R13
G1 X69.32 Y85.559 E.03713
G1 X69.016 Y86.233 E.02319
G1 X68.586 Y86.978 E.02696
G1 X67.868 Y87.919 E.03713
G1 X67.198 Y88.589 E.02968
G1 X66.257 Y89.307 E.03713
G1 X65.512 Y89.737 E.02696
G1 X64.42 Y90.193 E.03713
G1 X63.067 Y90.516 E.04361
G1 X62.003 Y90.599 E.03344
G1 X53.198 Y90.599 E.27608
G1 X51.494 Y90.393 E.05382
G1 X50.363 Y90.041 E.03713
G1 X49.12 Y89.418 E.04361
G1 X48.344 Y88.875 E.02968
G1 X47.474 Y88.072 E.03713
G1 X46.616 Y86.978 E.04361
G1 X46.186 Y86.233 E.02696
G1 X45.729 Y85.141 E.03713
G1 X45.407 Y83.788 E.04361
G1 X45.324 Y82.724 E.03344
G1 X45.324 Y73.919 E.27608
G1 X45.455 Y56.808 E.53652
G1 X45.66 Y55.122 E.05326
G1 X45.861 Y54.41 E.02319
G1 X46.317 Y53.317 E.03713
G1 X46.747 Y52.573 E.02695
G1 X47.428 Y51.679 E.03525
M204 P1000
G1 E-2.24 F4200
;WIPE_START
G1 F7200
G1 X48.632 Y50.557 E-.912
;WIPE_END
G1 E-.048 F4200
G1 Z.4 F720
G1 X49.33 Y53.588 F9000
G1 Z.2 F720
G1 E3.2 F2400
M204 P600
G1 F1200
G1 X50.229 Y52.693 E.03981
G1 X51.414 Y52.011 E.04286
G1 X53.023 Y51.635 E.05179
G1 X62.448 Y51.636 E.29552
G1 X64.252 Y52.103 E.05841
G1 X65.748 Y53.121 E.05674
G1 X66.346 Y53.83 E.02907
G1 X66.817 Y54.602 E.02838
G1 X67.297 Y56.276 E.0546
G1 X67.339 Y65.806 E.29881
G1 X67.04 Y67.303 E.04785
G1 X66.281 Y68.711 E.05015
G1 X65.148 Y69.874 E.05092
G1 X65.573 Y70.174 E.01629
G1 X66.197 Y70.898 E.02996
G1 X66.726 Y71.788 E.03249
G1 X67.159 Y73.315 E.04976
G1 X67.215 Y82.826 E.29822
G1 X66.947 Y84.286 E.04653
G1 X66.183 Y85.759 E.05202
G1 X65.142 Y86.828 E.04679
G1 X63.911 Y87.542 E.04461
G1 X62.305 Y87.915 E.05168
G1 X53.088 Y87.935 E.28902
M73 P3 R12
G1 X51.636 Y87.668 E.04629
G1 X50.164 Y86.904 E.05199
G1 X49.034 Y85.784 E.04989
G1 X48.38 Y84.628 E.04163
G1 X47.987 Y82.854 E.05697
G1 X47.994 Y73.737 E.28585
G1 X48.293 Y72.247 E.04766
M73 P4 R12
G1 X49.051 Y70.839 E.05014
G1 X50.153 Y69.707 E.04954
G1 X49.27 Y68.828 E.03905
G1 X48.603 Y67.756 E.0396
G1 X48.135 Y65.913 E.05962
G1 X48.118 Y56.716 E.28836
G1 X48.386 Y55.264 E.04628
G1 X49.215 Y53.702 E.05545
G1 X49.287 Y53.631 E.00318
M204 P1000
G1 X49.554 Y53.897 F9000
M204 P600
G1 F1200
G1 X50.441 Y53.006 E.03942
G1 X51.529 Y52.371 E.03948
G1 X53.045 Y52.013 E.04884
G1 X62.425 Y52.013 E.29409
G1 X64.068 Y52.434 E.05319
G1 X65.478 Y53.385 E.0533
G1 X66.032 Y54.038 E.02687
G1 X66.481 Y54.776 E.02709
G1 X66.928 Y56.354 E.0514
G1 X66.965 Y65.753 E.29471
G1 X66.694 Y67.15 E.04461
G1 X65.962 Y68.509 E.0484
G1 X65.096 Y69.395 E.03885
G1 X64.398 Y69.829 E.02576
G1 X65.305 Y70.44 E.03428
G1 X65.9 Y71.131 E.02858
G1 X66.389 Y71.959 E.03016
G1 X66.782 Y73.343 E.04511
G1 X66.838 Y82.811 E.29685
G1 X66.582 Y84.189 E.04395
G1 X65.863 Y85.558 E.0485
G1 X64.891 Y86.545 E.04343
G1 X63.798 Y87.181 E.03965
G1 X62.241 Y87.543 E.05012
G1 X53.105 Y87.558 E.28646
G1 X51.733 Y87.303 E.04375
G1 X50.365 Y86.584 E.04847
G1 X49.348 Y85.574 E.04493
G1 X48.741 Y84.518 E.03819
G1 X48.364 Y82.833 E.05412
G1 X48.368 Y73.791 E.2835
G1 X48.639 Y72.4 E.04443
G1 X49.371 Y71.042 E.04839
G1 X50.236 Y70.156 E.03882
G1 X50.915 Y69.726 E.02519
G1 X50.409 Y69.428 E.0184
G1 X49.578 Y68.61 E.03656
G1 X48.939 Y67.582 E.03796
G1 X48.512 Y65.889 E.05473
G1 X48.496 Y56.733 E.28709
G1 X48.751 Y55.362 E.04374
G1 X49.512 Y53.939 E.05058
M204 P1000
G1 X49.789 Y54.195 F9000
M204 P600
G1 F1200
G1 X50.691 Y53.289 E.04009
G1 X51.645 Y52.731 E.03462
G1 X53.068 Y52.39 E.0459
G1 X62.357 Y52.385 E.29124
G1 X63.887 Y52.766 E.04944
G1 X65.207 Y53.649 E.0498
G1 X65.734 Y54.271 E.02556
G1 X66.146 Y54.95 E.0249
G1 X66.551 Y56.381 E.04664
G1 X66.592 Y65.702 E.29224
G1 X66.348 Y66.997 E.04133
G1 X65.643 Y68.306 E.04661
M73 P5 R12
G1 X64.845 Y69.112 E.03557
G1 X63.69 Y69.815 E.0424
G1 X65.038 Y70.707 E.05067
G1 X65.585 Y71.34 E.02623
G1 X66.034 Y72.088 E.02736
G1 X66.405 Y73.372 E.04189
G1 X66.46 Y82.794 E.29545
G1 X66.217 Y84.09 E.04134
G1 X65.544 Y85.356 E.04494
G1 X64.641 Y86.262 E.04009
G1 X63.685 Y86.82 E.03473
G1 X62.176 Y87.171 E.04855
G1 X53.122 Y87.181 E.28388
G1 X51.832 Y86.938 E.04118
G1 X50.567 Y86.264 E.04493
G1 X49.661 Y85.362 E.04009
G1 X49.102 Y84.405 E.03474
G1 X48.741 Y82.812 E.05122
G1 X48.741 Y73.843 E.28121
G1 X48.985 Y72.553 E.04116
G1 X49.69 Y71.245 E.0466
G1 X50.488 Y70.438 E.03557
G1 X51.667 Y69.707 E.04352
G1 X50.654 Y69.14 E.03639
G1 X49.86 Y68.357 E.03497
G1 X49.276 Y67.409 E.03491
G1 X48.884 Y65.821 E.05129
G1 X48.873 Y56.75 E.28441
G1 X49.116 Y55.46 E.04118
G1 X49.761 Y54.248 E.04305
M204 P1000
G1 X50.092 Y54.427 F9000
M204 P600
G1 F1200
G1 X50.905 Y53.6 E.03633
G1 X51.761 Y53.091 E.03124
G1 X53.134 Y52.761 E.04429
G1 X62.291 Y52.756 E.28709
G1 X63.707 Y53.099 E.04569
G1 X64.938 Y53.914 E.04629
G1 X65.42 Y54.479 E.02329
G1 X65.81 Y55.123 E.02362
G1 X66.174 Y56.408 E.04187
G1 X66.214 Y65.685 E.29086
G1 X65.983 Y66.898 E.03871
G1 X65.356 Y68.059 E.0414
G1 X64.594 Y68.83 E.03398
G1 X63.701 Y69.367 E.03268
G1 X62.537 Y69.638 E.03746
G1 X62.535 Y69.935 E.00932
G1 X63.575 Y70.191 E.03358
G1 X64.807 Y71.007 E.0463
G1 X65.288 Y71.572 E.02329
G1 X65.679 Y72.217 E.02363
G1 X66.035 Y73.451 E.04028
G1 X66.083 Y82.778 E.29244
G1 X65.852 Y83.991 E.03871
G1 X65.225 Y85.152 E.04138
G1 X64.428 Y85.95 E.03537
G1 X63.57 Y86.46 E.03129
G1 X62.112 Y86.799 E.04694
G1 X53.14 Y86.804 E.2813
G1 X51.932 Y86.573 E.03858
G1 X50.77 Y85.946 E.04137
G1 X49.972 Y85.149 E.03536
G1 X49.463 Y84.291 E.03128
G1 X49.118 Y82.79 E.04829
G1 X49.118 Y73.861 E.27996
G1 X49.35 Y72.653 E.03858
G1 X49.977 Y71.491 E.04139
G1 X50.739 Y70.72 E.034
G1 X51.578 Y70.206 E.03084
G1 X52.748 Y69.914 E.03781
G1 X52.742 Y69.614 E.00942
G1 X52.006 Y69.459 E.0236
G1 X50.898 Y68.852 E.03961
G1 X50.166 Y68.137 E.03207
G1 X49.634 Y67.289 E.03139
G1 X49.255 Y65.753 E.04961
M73 P6 R12
G1 X49.25 Y56.768 E.28171
G1 X49.481 Y55.56 E.03858
G1 X50.064 Y54.479 E.03849
M204 P1000
G1 E-2.24 F4200
;WIPE_START
G1 F7200
G1 X50.905 Y53.6 E-.67403
G1 X51.274 Y53.381 E-.23797
;WIPE_END
G1 E-.048 F4200
G1 Z.4 F720
G1 X53.07 Y70.226 F9000
G1 Z.2 F720
G1 E3.2 F2400
M204 P600
G1 F1200
G1 X62.095 Y70.221 E.283
G1 X63.398 Y70.526 E.04194
G1 X64.537 Y71.272 E.04271
G1 X64.991 Y71.805 E.02194
G1 X65.343 Y72.389 E.02138
G1 X65.665 Y73.529 E.03714
G1 X65.706 Y82.761 E.28947
G1 X65.488 Y83.889 E.03604
G1 X64.908 Y84.946 E.0378
G1 X64.213 Y85.64 E.03078
G1 X63.455 Y86.099 E.0278
G1 X62.048 Y86.427 E.0453
G1 X53.159 Y86.427 E.2787
G1 X52.033 Y86.209 E.03595
G1 X50.976 Y85.629 E.0378
G1 X50.283 Y84.934 E.03078
G1 X49.823 Y84.176 E.0278
G1 X49.496 Y82.769 E.0453
G1 X49.496 Y73.88 E.2787
G1 X49.714 Y72.754 E.03595
G1 X50.293 Y71.697 E.0378
G1 X50.989 Y71.004 E.03078
G1 X51.747 Y70.544 E.02781
G1 X53.011 Y70.24 E.04077
M204 P1000
G1 X53.097 Y70.607 F9000
M204 P600
G1 F1200
G1 X62.034 Y70.594 E.28021
G1 X63.222 Y70.861 E.03819
G1 X64.27 Y71.539 E.03912
G1 X64.676 Y72.013 E.01958
G1 X65.006 Y72.561 E.02005
G1 X65.295 Y73.605 E.03395
G1 X65.329 Y82.743 E.28653
G1 X65.124 Y83.786 E.03334
G1 X64.593 Y84.738 E.03417
G1 X63.965 Y85.354 E.02757
G1 X63.287 Y85.76 E.02478
G1 X62.027 Y86.05 E.04056
G1 X53.177 Y86.05 E.27746
G1 X52.136 Y85.845 E.03328
G1 X51.184 Y85.314 E.03417
G1 X50.568 Y84.686 E.02757
G1 X50.162 Y84.008 E.02479
G1 X49.873 Y82.748 E.04056
G1 X49.873 Y73.898 E.27746
G1 X50.078 Y72.857 E.03328
G1 X50.609 Y71.905 E.03417
G1 X51.236 Y71.289 E.02757
G1 X51.915 Y70.883 E.0248
G1 X53.038 Y70.62 E.03619
M204 P1000
G1 X53.121 Y70.987 F9000
M204 P600
G1 F1200
G1 X53.196 Y70.971 E.00239
G1 X62.012 Y70.971 E.27644
G1 X63.105 Y71.221 E.03515
G1 X64.001 Y71.805 E.03352
G1 X64.379 Y72.246 E.01823
G1 X64.668 Y72.731 E.0177
G1 X64.925 Y73.679 E.03078
G1 X64.952 Y82.725 E.28364
G1 X64.76 Y83.682 E.03059
G1 X64.279 Y84.527 E.0305
G1 X63.72 Y85.067 E.02436
M73 P7 R12
G1 X63.122 Y85.42 E.0218
G1 X62.006 Y85.673 E.03587
G1 X53.196 Y85.673 E.27622
G1 X52.241 Y85.481 E.03055
G1 X51.395 Y85 E.0305
G1 X50.855 Y84.441 E.02436
G1 X50.502 Y83.843 E.0218
G1 X50.25 Y82.727 E.03587
G1 X50.25 Y73.917 E.27622
G1 X50.441 Y72.962 E.03055
G1 X50.922 Y72.116 E.0305
G1 X51.481 Y71.576 E.02436
G1 X52.08 Y71.223 E.0218
G1 X53.063 Y71.001 E.0316
M204 P1000
G1 X53.144 Y71.364 F9000
M204 P600
G1 F1200
G1 X53.216 Y71.348 E.00232
G1 X61.992 Y71.348 E.27517
G1 X62.93 Y71.557 E.03014
G1 X63.734 Y72.073 E.02995
G1 X64.064 Y72.454 E.0158
G1 X64.331 Y72.901 E.01632
G1 X64.554 Y73.75 E.02755
G1 X64.575 Y82.706 E.2808
G1 X64.397 Y83.575 E.0278
G1 X63.968 Y84.313 E.02677
G1 X63.478 Y84.777 E.02117
G1 X62.958 Y85.079 E.01885
G1 X61.986 Y85.296 E.03124
G1 X53.216 Y85.296 E.27497
G1 X52.348 Y85.118 E.02778
G1 X51.61 Y84.689 E.02677
G1 X51.145 Y84.199 E.02117
G1 X50.843 Y83.679 E.01885
G1 X50.627 Y82.707 E.03124
G1 X50.627 Y73.937 E.27497
G1 X50.804 Y73.069 E.02778
G1 X51.234 Y72.331 E.02677
G1 X51.723 Y71.866 E.02117
G1 X52.243 Y71.564 E.01885
G1 X53.085 Y71.377 E.02704
M204 P1000
G1 X53.164 Y71.74 F9000
M204 P600
G1 F1200
G1 X53.236 Y71.725 E.0023
G1 X61.973 Y71.725 E.27394
G1 X62.759 Y71.894 E.0252
G1 X63.468 Y72.341 E.02629
G1 X63.768 Y72.687 E.01435
G1 X63.992 Y73.068 E.01384
G1 X64.183 Y73.82 E.02433
G1 X64.198 Y82.689 E.27808
G1 X64.055 Y83.413 E.02314
G1 X63.657 Y84.098 E.02485
G1 X63.239 Y84.485 E.01786
G1 X62.797 Y84.737 E.01595
G1 X61.966 Y84.919 E.02669
G1 X53.233 Y84.919 E.2738
G1 X52.51 Y84.776 E.02313
G1 X51.824 Y84.378 E.02485
G1 X51.437 Y83.96 E.01786
G1 X51.185 Y83.518 E.01595
G1 X51.004 Y82.687 E.02669
G1 X51.004 Y73.954 E.2738
G1 X51.146 Y73.23 E.02313
G1 X51.545 Y72.545 E.02485
G1 X51.962 Y72.158 E.01786
G1 X52.404 Y71.906 E.01595
G1 X53.106 Y71.753 E.02251
M204 P1000
G1 X53.183 Y72.117 F9000
M204 P600
G1 F1200
G1 X53.255 Y72.102 E.00231
G1 X61.952 Y72.102 E.27268
G1 X62.644 Y72.255 E.02223
G1 X63.202 Y72.61 E.02074
G1 X63.452 Y72.894 E.01186
G1 X63.652 Y73.234 E.01237
G1 X63.811 Y73.886 E.02104
G1 X63.82 Y82.67 E.2754
G1 X63.692 Y83.305 E.02032
G1 X63.349 Y83.878 E.02094
G1 X63.004 Y84.19 E.01459
G1 X62.639 Y84.394 E.0131
G1 X61.946 Y84.541 E.02221
G1 X53.253 Y84.541 E.27259
G1 X52.617 Y84.413 E.02032
M73 P8 R12
G1 X52.044 Y84.07 E.02094
G1 X51.732 Y83.725 E.01459
G1 X51.528 Y83.36 E.0131
G1 X51.381 Y82.667 E.02221
G1 X51.381 Y73.974 E.27259
G1 X51.509 Y73.338 E.02032
G1 X51.852 Y72.765 E.02094
G1 X52.198 Y72.453 E.01459
G1 X52.562 Y72.249 E.0131
G1 X53.124 Y72.13 E.01802
M204 P1000
G1 X53.2 Y72.494 F9000
M204 P600
G1 F1200
G1 X53.274 Y72.479 E.00237
G1 X61.933 Y72.479 E.27151
G1 X62.475 Y72.593 E.01737
G1 X62.938 Y72.881 E.01709
G1 X63.156 Y73.129 E.01035
G1 X63.311 Y73.397 E.00972
G1 X63.439 Y73.95 E.01779
G1 X63.443 Y82.65 E.2728
G1 X63.33 Y83.194 E.01742
G1 X63.045 Y83.653 E.01694
G1 X62.773 Y83.891 E.01134
G1 X62.484 Y84.049 E.01033
G1 X61.928 Y84.164 E.01781
G1 X53.272 Y84.164 E.27138
G1 X52.728 Y84.051 E.01742
G1 X52.269 Y83.766 E.01694
G1 X52.031 Y83.494 E.01134
G1 X51.873 Y83.205 E.01033
G1 X51.758 Y82.649 E.01781
G1 X51.758 Y73.993 E.27138
G1 X51.871 Y73.449 E.01742
G1 X52.156 Y72.99 E.01694
G1 X52.428 Y72.752 E.01134
G1 X52.717 Y72.594 E.01033
G1 X53.141 Y72.506 E.01356
M204 P1000
G1 X53.214 Y72.872 F9000
M204 P600
G1 F1200
G1 X53.292 Y72.856 E.00249
G1 X61.916 Y72.856 E.27042
G1 X62.311 Y72.934 E.01263
G1 X62.678 Y73.155 E.01342
G1 X62.84 Y73.335 E.00759
G1 X62.969 Y73.559 E.00811
G1 X63.066 Y74.008 E.01441
G1 X63.066 Y82.629 E.27031
G1 X62.97 Y83.079 E.0144
G1 X62.747 Y83.421 E.01281
G1 X62.548 Y83.588 E.00814
G1 X62.333 Y83.703 E.00766
G1 X61.91 Y83.787 E.01352
G1 X53.293 Y83.787 E.27018
G1 X52.844 Y83.691 E.0144
G1 X52.501 Y83.468 E.01281
G1 X52.334 Y83.269 E.00814
G1 X52.219 Y83.054 E.00766
G1 X52.135 Y82.631 E.01352
G1 X52.135 Y74.014 E.27018
G1 X52.232 Y73.565 E.01441
G1 X52.454 Y73.222 E.01281
G1 X52.653 Y73.055 E.00814
G1 X52.869 Y72.94 E.00766
G1 X53.155 Y72.883 E.00914
M204 P1000
G1 X53.224 Y73.249 F9000
M204 P600
G1 F1200
G1 X53.308 Y73.233 E.00269
G1 X61.896 Y73.233 E.26927
G1 X62.202 Y73.296 E.00977
G1 X62.42 Y73.43 E.00803
G1 X62.524 Y73.543 E.00483
G1 X62.627 Y73.72 E.0064
G1 X62.689 Y74.026 E.00979
G1 X62.689 Y82.613 E.26923
G1 X62.63 Y82.912 E.00956
G1 X62.48 Y83.153 E.0089
G1 X62.323 Y83.285 E.00644
G1 X62.187 Y83.355 E.0048
G1 X61.893 Y83.41 E.00938
G1 X53.31 Y83.41 E.26913
G1 X53.011 Y83.351 E.00956
G1 X52.77 Y83.201 E.0089
G1 X52.638 Y83.044 E.00644
G1 X52.568 Y82.908 E.0048
G1 X52.512 Y82.614 E.00938
G1 X52.512 Y74.031 E.26913
