; generated by PrusaSlicer 2.5.2+win64 on 2023-05-07 at 20:42:05 UTC


;
;

;
;
; 

; external perimeters extrusion width = 0.40mm
; perimeters extrusion width = 0.40mm
; infill extrusion width = 0.45mm
; solid infill extrusion width = 0.45mm
; top infill extrusion width = 0.40mm
; support material extrusion width = 0.35mm
; first layer extrusion width = 0.42mm

; external perimeters extrusion width = 0.40mm
; perimeters extrusion width = 0.40mm
; infill extrusion width = 0.45mm
; solid infill extrusion width = 0.45mm
; top infill extrusion width = 0.40mm
; support material extrusion width = 0.35mm
; first layer extrusion width = 0.42mm

; external perimeters extrusion width = 0.40mm
; perimeters extrusion width = 0.40mm
; infill extrusion width = 0.45mm
; solid infill extrusion width = 0.45mm
; top infill extrusion width = 0.40mm
; support material extrusion width = 0.35mm
; first layer extrusion width = 0.42mm

; external perimeters extrusion width = 0.40mm
; perimeters extrusion width = 0.40mm
; infill extrusion width = 0.45mm
; solid infill extrusion width = 0.45mm
; top infill extrusion width = 0.40mm
; support material extrusion width = 0.35mm
; first layer extrusion width = 0.42mm

M73 P0 R41
M201 X2500 Y2500 Z400 E5000 ; sets maximum accelerations, mm/sec^2
M203 X180 Y180 Z12 E80 ; sets maximum feedrates, mm / sec
M204 P2000 R1250 T2500 ; sets acceleration (P, T) and retract acceleration (R), mm/sec^2
M205 X8.00 Y8.00 Z2.00 E10.00 ; sets the jerk limits, mm/sec
M205 S0 T0 ; sets the minimum extruding and travel feed rate, mm/sec
M107
;TYPE:Custom
M862.3 P "MINI" ; printer model check
G90 ; use absolute coordinates
M83 ; extruder relative mode
M104 S170 ; set extruder temp for bed leveling
M140 S60 ; set bed temp
M109 R170 ; wait for bed leveling temp
M190 S60 ; wait for bed temp
M204 T1250 ; set travel acceleration
G28 ; home all without mesh bed level
G29 ; mesh bed leveling 
M204 T2500 ; restore travel acceleration
M104 S215 ; set extruder temp
G92 E0
G1 Y-2 X179 F2400
G1 Z3 F720
M109 S215 ; wait for extruder temp

; intro line
M73 P0 R40
G1 X170 F1000
G1 Z0.2 F720
G1 X110 E8 F900
G1 X40 E10 F700
G92 E0

M221 S95 ; set flow
G21 ; set units to millimeters
G90 ; use absolute coordinates
M83 ; use relative distances for extrusion
M900 K0.2 ; Filament gcode LA 1.5
; ; Filament gcode LA 1.0
M107
;LAYER_CHANGE
;Z:0.2
;HEIGHT:0.2
;BEFORE_LAYER_CHANGE
G92 E0.0
;0.2


G1 E-3.2 F4200
G1 Z.2 F720
;AFTER_LAYER_CHANGE
;0.2
G1 Z.4
G1 X55.66 Y59.35 F9000
G1 Z.2 F720
G1 E3.2 F2400
M204 P600
;TYPE:Skirt/Brim
;WIDTH:0.42
G1 F1200
G1 X57.076 Y58.162 E.05797
G1 X58.357 Y57.476 E.04554
G1 X59.241 Y57.163 E.0294
G1 X60.433 Y56.928 E.0381
G1 X61.26 Y56.863 E.02602
G1 X79.459 Y56.857 E.57062
G1 X80.627 Y56.97 E.0368
G1 X81.626 Y57.216 E.03225
G1 X82.827 Y57.697 E.04057
G1 X83.993 Y58.419 E.043
G1 X85.043 Y59.354 E.04408
G1 X85.892 Y60.431 E.043
G1 X86.578 Y61.712 E.04554
G1 X87.015 Y63.085 E.04518
G1 X87.191 Y64.617 E.04836
G1 X87.182 Y84.904 E.63607
G1 X87.068 Y86.072 E.0368
G1 X86.823 Y87.07 E.03225
G1 X86.341 Y88.271 E.04056
G1 X85.895 Y89.044 E.02798
G1 X84.685 Y90.487 E.05906
G1 X83.607 Y91.336 E.04301
G1 X82.785 Y91.811 E.02978
G1 X81.443 Y92.335 E.04517
G1 X79.637 Y92.627 E.05734
G1 X60.938 Y92.563 E.58632
G1 X59.992 Y92.459 E.02983
G1 X58.993 Y92.214 E.03225
G1 X57.792 Y91.732 E.04057
G1 X57.019 Y91.286 E.02798
G1 X55.576 Y90.075 E.05906
G1 X54.727 Y88.998 E.043
G1 X54.253 Y88.175 E.02977
G1 X53.729 Y86.834 E.04517
G1 X53.437 Y85.028 E.05734
G1 X53.512 Y64.372 E.64767
G1 X53.615 Y63.426 E.02983
G1 X53.861 Y62.428 E.03224
G1 X54.343 Y61.227 E.04057
G1 X54.789 Y60.454 E.02798
G1 X55.623 Y59.398 E.0422
M204 P1000
G1 X55.918 Y59.632 F9000
M204 P600
G1 F1200
G1 X57.265 Y58.489 E.05539
G1 X58.482 Y57.832 E.04338
G1 X59.366 Y57.519 E.0294
G1 X60.492 Y57.3 E.03594
G1 X61.261 Y57.24 E.02418
G1 X79.443 Y57.233 E.5701
G1 X80.546 Y57.338 E.03474
G1 X81.497 Y57.57 E.0307
G1 X82.639 Y58.024 E.03851
G1 X83.751 Y58.708 E.04094
G1 X84.754 Y59.597 E.04202
G1 X85.565 Y60.62 E.04094
G1 X86.222 Y61.837 E.04338
G1 X86.642 Y63.143 E.04302
G1 X86.814 Y64.617 E.04651
G1 X86.805 Y84.887 E.63556
G1 X86.7 Y85.99 E.03474
M73 P1 R40
G1 X86.469 Y86.941 E.0307
G1 X86.015 Y88.083 E.03851
G1 X85.569 Y88.855 E.02798
G1 X84.442 Y90.198 E.05495
G1 X83.419 Y91.009 E.04095
G1 X82.596 Y91.484 E.02978
G1 X81.317 Y91.979 E.04301
G1 X79.608 Y92.251 E.05426
G1 X60.954 Y92.186 E.58488
G1 X60.073 Y92.091 E.02777
G1 X59.122 Y91.859 E.0307
G1 X57.981 Y91.405 E.03851
G1 X57.208 Y90.959 E.02798
G1 X55.865 Y89.833 E.05495
G1 X55.054 Y88.809 E.04095
G1 X54.579 Y87.987 E.02977
G1 X54.084 Y86.708 E.04301
G1 X53.813 Y84.999 E.05426
G1 X53.888 Y64.388 E.64623
G1 X53.984 Y63.508 E.02777
G1 X54.215 Y62.557 E.03069
G1 X54.669 Y61.415 E.03851
G1 X55.115 Y60.642 E.02798
G1 X55.881 Y59.679 E.03858
M204 P1000
G1 E-2.24 F4200
;WIPE_START
G1 F7200
G1 X57.128 Y58.606 E-.912
;WIPE_END
G1 E-.048 F4200
G1 Z.4 F720
G1 X57.832 Y61.522 F9000
G1 Z.2 F720
G1 E3.2 F2400
M204 P600
G1 F1200
G1 X58.103 Y61.235 E.01237
G1 X59.197 Y60.451 E.04221
G1 X60.112 Y60.089 E.03084
G1 X61.03 Y59.923 E.02926
G1 X67.34 Y59.932 E.19784
G1 X68.947 Y60.366 E.05219
G1 X69.686 Y60.806 E.02696
G1 X70.336 Y61.342 E.02642
G1 X71.524 Y60.474 E.04613
G1 X72.494 Y60.082 E.0328
G1 X73.452 Y59.911 E.03053
G1 X79.631 Y59.911 E.19373
G1 X81.389 Y60.383 E.05708
G1 X82.07 Y60.798 E.025
G1 X82.683 Y61.295 E.02474
G1 X83.658 Y62.666 E.05276
G1 X84.115 Y64.25 E.05168
G1 X84.133 Y71.641 E.23173
G1 X83.835 Y72.925 E.04134
G1 X83.233 Y74.066 E.04044
G1 X82.665 Y74.723 E.02722
G1 X83.59 Y76.013 E.04977
G1 X84.1 Y77.662 E.05412
G1 X84.145 Y84.944 E.22831
G1 X83.826 Y86.405 E.0469
G1 X83.11 Y87.703 E.04645
G1 X82.564 Y88.276 E.02483
G1 X81.335 Y89.126 E.04686
G1 X80.37 Y89.46 E.03203
G1 X79.384 Y89.595 E.0312
G1 X73.384 Y89.575 E.18811
G1 X72.054 Y89.257 E.04288
G1 X70.971 Y88.677 E.0385
G1 X70.28 Y88.088 E.02848
G1 X68.946 Y89.036 E.05133
G1 X67.965 Y89.39 E.03269
G1 X66.987 Y89.531 E.03099
G1 X60.985 Y89.521 E.1882
G1 X59.606 Y89.197 E.0444
G1 X58.361 Y88.501 E.04472
G1 X57.788 Y87.957 E.02477
G1 X56.94 Y86.73 E.04678
G1 X56.604 Y85.763 E.03208
G1 X56.469 Y84.774 E.0313
G1 X56.494 Y77.729 E.2209
G1 X56.807 Y76.443 E.04149
G1 X57.387 Y75.362 E.03846
G1 X57.964 Y74.683 E.02796
G1 X57.039 Y73.38 E.0501
G1 X56.685 Y72.399 E.03269
G1 X56.543 Y71.422 E.03097
G1 X56.544 Y64.503 E.21692
G1 X56.858 Y63.092 E.04533
G1 X57.572 Y61.798 E.04634
G1 X57.791 Y61.565 E.01002
M204 P1000
G1 X58.065 Y61.822 F9000
M204 P600
G1 F1200
G1 X58.338 Y61.53 E.01252
G1 X59.397 Y60.772 E.04085
G1 X60.231 Y60.448 E.02803
G1 X61.079 Y60.298 E.02703
G1 X67.267 Y60.303 E.19402
G1 X68.777 Y60.704 E.04897
G1 X69.48 Y61.122 E.02566
G1 X70.08 Y61.62 E.02443
G1 X70.333 Y61.947 E.01298
G1 X70.683 Y61.556 E.01645
G1 X71.688 Y60.814 E.03916
G1 X72.616 Y60.439 E.0314
G1 X73.5 Y60.286 E.02814
G1 X79.606 Y60.288 E.19144
G1 X81.217 Y60.72 E.05228
G1 X81.843 Y61.099 E.02294
G1 X82.426 Y61.572 E.02354
G1 X83.306 Y62.803 E.04746
G1 X83.738 Y64.278 E.04819
G1 X83.76 Y71.579 E.2289
G1 X83.49 Y72.772 E.03835
G1 X82.91 Y73.87 E.03894
G1 X82.403 Y74.449 E.02415
G1 X82.028 Y74.729 E.01465
G1 X82.484 Y75.113 E.01869
G1 X83.24 Y76.157 E.0404
G1 X83.723 Y77.693 E.05051
G1 X83.767 Y84.926 E.22677
G1 X83.481 Y86.249 E.04245
G1 X82.819 Y87.462 E.04335
G1 X82.332 Y87.979 E.02225
G1 X81.185 Y88.779 E.04385
G1 X80.299 Y89.09 E.02944
G1 X79.371 Y89.217 E.02937
G1 X73.449 Y89.203 E.1857
G1 X72.21 Y88.913 E.0399
G1 X71.168 Y88.355 E.03705
G1 X70.623 Y87.884 E.02257
G1 X70.307 Y87.458 E.01663
G1 X69.958 Y87.854 E.01653
G1 X68.793 Y88.69 E.04499
G1 X67.855 Y89.028 E.03124
G1 X66.974 Y89.154 E.02792
G1 X61.048 Y89.149 E.18581
G1 X59.765 Y88.854 E.04128
G1 X58.601 Y88.21 E.04169
G1 X58.086 Y87.724 E.02221
G1 X57.286 Y86.58 E.04377
G1 X56.975 Y85.692 E.0295
G1 X56.846 Y84.762 E.02946
G1 X56.866 Y77.795 E.21845
G1 X57.151 Y76.599 E.03853
G1 X57.709 Y75.559 E.03702
G1 X58.172 Y75.021 E.02227
G1 X58.575 Y74.712 E.0159
G1 X58.221 Y74.392 E.01496
G1 X57.384 Y73.227 E.04497
G1 X57.046 Y72.29 E.03125
G1 X56.92 Y71.408 E.02792
G1 X56.917 Y64.563 E.21463
G1 X57.203 Y63.248 E.04219
G1 X57.864 Y62.037 E.04326
G1 X58.024 Y61.866 E.00737
M204 P1000
G1 X58.3 Y62.121 F9000
M204 P600
G1 F1200
G1 X58.575 Y61.824 E.01268
G1 X59.558 Y61.113 E.03804
G1 X60.316 Y60.815 E.02555
G1 X61.097 Y60.675 E.02486
G1 X67.196 Y60.674 E.19124
G1 X68.608 Y61.042 E.04576
G1 X69.251 Y61.422 E.02341
G1 X69.819 Y61.893 E.02314
G1 X70.306 Y62.558 E.02584
G1 X70.926 Y61.845 E.02964
G1 X71.852 Y61.155 E.03622
G1 X72.738 Y60.796 E.02997
G1 X73.547 Y60.66 E.02572
G1 X79.581 Y60.665 E.18921
G1 X81.044 Y61.056 E.04748
G1 X81.636 Y61.414 E.02168
G1 X82.167 Y61.848 E.02149
G1 X82.979 Y62.995 E.04408
G1 X83.361 Y64.306 E.04281
G1 X83.388 Y71.518 E.22613
G1 X83.144 Y72.62 E.03538
G1 X82.612 Y73.639 E.03603
G1 X82.135 Y74.183 E.02269
G1 X81.4 Y74.708 E.02831
G1 X82.193 Y75.355 E.0321
G1 X82.916 Y76.353 E.03863
G1 X83.346 Y77.723 E.04504
G1 X83.39 Y84.907 E.22523
G1 X83.119 Y86.141 E.03963
G1 X82.527 Y87.223 E.03866
G1 X82.098 Y87.683 E.01971
G1 X81.035 Y88.432 E.04077
G1 X80.192 Y88.727 E.028
G1 X79.359 Y88.84 E.02637
G1 X73.512 Y88.831 E.18334
G1 X72.364 Y88.568 E.03692
G1 X71.398 Y88.055 E.03428
G1 X70.888 Y87.615 E.02114
G1 X70.334 Y86.841 E.02984
G1 X69.717 Y87.563 E.02977
G1 X68.639 Y88.345 E.04175
G1 X67.746 Y88.667 E.02978
G1 X66.961 Y88.777 E.02486
G1 X61.109 Y88.776 E.18347
G1 X59.922 Y88.51 E.03816
G1 X58.841 Y87.917 E.03866
G1 X58.382 Y87.49 E.01965
G1 X57.633 Y86.43 E.0407
G1 X57.337 Y85.586 E.02806
G1 X57.223 Y84.75 E.02645
G1 X57.238 Y77.859 E.21605
G1 X57.496 Y76.754 E.03558
G1 X58.009 Y75.789 E.03427
G1 X58.443 Y75.284 E.02089
G1 X59.182 Y74.736 E.02882
G1 X58.512 Y74.152 E.02786
G1 X57.73 Y73.074 E.04176
G1 X57.408 Y72.18 E.02978
G1 X57.298 Y71.395 E.02486
G1 X57.294 Y64.584 E.21357
G1 X57.565 Y63.356 E.03942
G1 X58.156 Y62.276 E.03861
G1 X58.259 Y62.165 E.00475
M204 P1000
G1 X58.537 Y62.419 F9000
M204 P600
G1 F1200
G1 X58.813 Y62.117 E.01283
G1 X59.72 Y61.455 E.03522
G1 X60.404 Y61.183 E.02307
G1 X61.115 Y61.052 E.02266
G1 X67.126 Y61.045 E.18849
G1 X68.44 Y61.38 E.04251
G1 X69.046 Y61.739 E.02207
G1 X69.558 Y62.167 E.02093
G1 X70.378 Y63.311 E.04415
G1 X70.806 Y62.542 E.02759
G1 X71.166 Y62.136 E.01701
G1 X72.057 Y61.472 E.03486
G1 X72.821 Y61.164 E.02582
G1 X73.563 Y61.037 E.02359
G1 X79.557 Y61.043 E.18793
G1 X80.872 Y61.393 E.04268
G1 X81.429 Y61.73 E.02041
G1 X81.909 Y62.123 E.01945
G1 X82.627 Y63.133 E.03886
G1 X82.984 Y64.335 E.03932
G1 X83.015 Y71.457 E.22331
G1 X82.781 Y72.513 E.03391
G1 X82.29 Y73.441 E.03293
G1 X81.868 Y73.915 E.01989
G1 X80.68 Y74.752 E.04557
G1 X81.444 Y75.218 E.02806
G1 X81.902 Y75.596 E.01861
G1 X82.593 Y76.549 E.03693
G1 X82.97 Y77.754 E.03956
G1 X83.013 Y84.888 E.22371
G1 X82.775 Y85.986 E.03521
G1 X82.233 Y86.985 E.03565
G1 X81.864 Y87.386 E.01708
G1 X80.841 Y88.108 E.03926
G1 X80.089 Y88.364 E.0249
G1 X79.347 Y88.463 E.02348
G1 X73.575 Y88.459 E.18096
G1 X72.473 Y88.206 E.03544
G1 X71.595 Y87.733 E.03127
G1 X71.181 Y87.377 E.01714
G1 X70.256 Y86.085 E.0498
G1 X69.835 Y86.855 E.02753
G1 X69.478 Y87.27 E.01716
G1 X68.441 Y88.023 E.04019
G1 X67.64 Y88.305 E.02661
G1 X66.923 Y88.402 E.02268
G1 X61.169 Y88.403 E.18041
G1 X60.077 Y88.165 E.03505
M73 P2 R40
G1 X59.078 Y87.624 E.03564
G1 X58.677 Y87.254 E.0171
G1 X57.98 Y86.279 E.03758
G1 X57.699 Y85.479 E.02659
G1 X57.6 Y84.738 E.02345
G1 X57.61 Y77.924 E.21365
G1 X57.857 Y76.865 E.0341
G1 X58.33 Y75.987 E.03125
G1 X58.713 Y75.548 E.01826
G1 X59.927 Y74.659 E.04718
G1 X59.187 Y74.247 E.02657
G1 X58.805 Y73.913 E.0159
G1 X58.052 Y72.875 E.04021
G1 X57.77 Y72.075 E.02661
G1 X57.673 Y71.358 E.02268
G1 X57.671 Y64.604 E.21177
G1 X57.909 Y63.512 E.03505
G1 X58.451 Y62.513 E.03562
G1 X58.496 Y62.463 E.00211
M204 P1000
G1 X58.775 Y62.716 F9000
M204 P600
G1 F1200
G1 X59.052 Y62.41 E.01292
G1 X59.922 Y61.774 E.0338
G1 X60.522 Y61.541 E.02018
G1 X61.164 Y61.426 E.02046
G1 X67.102 Y61.422 E.18617
G1 X68.317 Y61.738 E.03936
G1 X68.838 Y62.054 E.01911
G1 X69.266 Y62.407 E.01739
G1 X69.892 Y63.28 E.03369
G1 X70.212 Y64.301 E.03353
G1 X70.499 Y64.291 E.009
G1 X70.672 Y63.563 E.02344
G1 X71.105 Y62.774 E.02824
G1 X71.408 Y62.426 E.01446
G1 X72.263 Y61.789 E.03343
G1 X72.906 Y61.532 E.02171
G1 X73.579 Y61.414 E.02144
G1 X79.532 Y61.42 E.18664
G1 X80.7 Y61.729 E.03788
G1 X81.221 Y62.045 E.01912
G1 X81.649 Y62.398 E.01736
G1 X82.301 Y63.324 E.03553
G1 X82.607 Y64.363 E.03397
G1 X82.642 Y71.396 E.22052
G1 X82.419 Y72.406 E.03241
G1 X81.969 Y73.243 E.0298
G1 X81.633 Y73.619 E.01581
G1 X80.65 Y74.312 E.03773
G1 X80.026 Y74.521 E.02061
G1 X79.559 Y74.588 E.01479
G1 X79.541 Y74.895 E.00965
G1 X80.693 Y75.202 E.03738
G1 X81.215 Y75.518 E.01912
G1 X81.643 Y75.871 E.01739
G1 X82.269 Y76.744 E.03369
G1 X82.593 Y77.784 E.03415
G1 X82.636 Y84.869 E.22216
G1 X82.412 Y85.878 E.03239
G1 X81.938 Y86.749 E.0311
G1 X81.627 Y87.092 E.01451
G1 X80.692 Y87.76 E.03603
G1 X79.985 Y88.001 E.02342
G1 X79.335 Y88.086 E.02056
G1 X73.598 Y88.082 E.1799
G1 X72.585 Y87.845 E.0326
G1 X71.796 Y87.413 E.02822
G1 X71.447 Y87.108 E.01453
G1 X70.726 Y86.094 E.03901
G1 X70.518 Y85.47 E.0206
G1 X70.456 Y85.044 E.01349
G1 X70.144 Y85.031 E.00978
G1 X69.947 Y85.866 E.02691
G1 X69.514 Y86.656 E.02824
G1 X69.209 Y87.005 E.01455
G1 X68.244 Y87.7 E.03729
G1 X67.537 Y87.941 E.02341
G1 X66.887 Y88.026 E.02056
G1 X61.19 Y88.026 E.17862
G1 X60.185 Y87.803 E.03228
G1 X59.314 Y87.329 E.0311
G1 X58.971 Y87.018 E.01451
G1 X58.303 Y86.083 E.03603
G1 X58.062 Y85.376 E.02342
G1 X57.977 Y84.726 E.02056
G1 X57.982 Y77.988 E.21125
G1 X58.218 Y76.976 E.0326
G1 X58.651 Y76.186 E.02822
G1 X58.953 Y75.839 E.01444
G1 X59.851 Y75.178 E.03497
G1 X60.452 Y74.945 E.02019
G1 X60.92 Y74.858 E.01492
G1 X60.928 Y74.553 E.00958
G1 X60.209 Y74.381 E.02317
G1 X59.419 Y73.949 E.02824
G1 X59.069 Y73.644 E.01455
G1 X58.374 Y72.678 E.03729
G1 X58.133 Y71.972 E.02341
G1 X58.048 Y71.322 E.02056
G1 X58.048 Y64.625 E.20997
G1 X58.272 Y63.62 E.03228
G1 X58.738 Y62.762 E.03061
M204 P1000
G1 E-2.24 F4200
;WIPE_START
G1 F7200
G1 X59.052 Y62.41 E-.26135
G1 X59.922 Y61.774 E-.59735
G1 X60.012 Y61.739 E-.0533
;WIPE_END
G1 E-.048 F4200
G1 Z.4 F720
G1 X71.669 Y76.165 F9000
G1 Z.2 F720
G1 E3.2 F2400
M204 P600
G1 F1200
G1 X72.459 Y75.58 E.03081
G1 X73.018 Y75.364 E.01878
G1 X73.589 Y75.264 E.01819
G1 X79.455 Y75.263 E.18392
G1 X80.522 Y75.539 E.03456
G1 X81.007 Y75.833 E.01779
G1 X81.382 Y76.144 E.01528
G1 X81.943 Y76.936 E.03041
G1 X82.224 Y77.866 E.03046
G1 X82.259 Y84.849 E.21896
G1 X82.051 Y85.769 E.02956
G1 X81.642 Y86.515 E.02668
G1 X81.39 Y86.798 E.01187
G1 X80.496 Y87.436 E.03445
G1 X79.918 Y87.63 E.01912
G1 X79.322 Y87.709 E.01885
G1 X73.66 Y87.709 E.17755
G1 X72.743 Y87.501 E.02948
G1 X71.996 Y87.093 E.02668
G1 X71.713 Y86.841 E.01187
G1 X71.075 Y85.947 E.03445
G1 X70.881 Y85.369 E.01912
G1 X70.802 Y84.773 E.01885
G1 X70.802 Y78.11 E.2089
G1 X71.01 Y77.193 E.02948
G1 X71.419 Y76.447 E.02668
G1 X71.629 Y76.21 E.00995
M204 P1000
G1 X71.908 Y76.458 F9000
M204 P600
G1 F1200
G1 X72.662 Y75.9 E.0294
G1 X73.132 Y75.723 E.01574
G1 X73.636 Y75.639 E.01603
G1 X79.431 Y75.64 E.18172
G1 X80.351 Y75.876 E.02975
G1 X80.799 Y76.148 E.01645
G1 X81.12 Y76.417 E.01313
G1 X81.615 Y77.125 E.0271
G1 X81.854 Y77.945 E.02678
G1 X81.881 Y84.828 E.21582
G1 X81.69 Y85.656 E.02666
G1 X81.323 Y86.313 E.02356
G1 X81.152 Y86.505 E.00808
G1 X80.347 Y87.089 E.03118
G1 X79.849 Y87.259 E.0165
G1 X79.309 Y87.332 E.01707
G1 X73.682 Y87.332 E.17645
G1 X72.855 Y87.14 E.02661
G1 X72.199 Y86.774 E.02356
G1 X72.006 Y86.603 E.00808
G1 X71.422 Y85.798 E.03118
G1 X71.252 Y85.299 E.0165
G1 X71.179 Y84.76 E.01707
G1 X71.179 Y78.132 E.20781
G1 X71.371 Y77.305 E.02661
G1 X71.737 Y76.649 E.02356
G1 X71.868 Y76.502 E.00617
M204 P1000
G1 X72.146 Y76.751 F9000
M204 P600
G1 F1200
G1 X72.862 Y76.22 E.02794
G1 X73.241 Y76.085 E.0126
G1 X73.681 Y76.013 E.01397
G1 X79.364 Y76.012 E.1782
G1 X80.18 Y76.214 E.02637
G1 X80.591 Y76.462 E.01504
G1 X80.857 Y76.687 E.01092
