; generated by PrusaSlicer 2.5.2+win64 on 2023-05-07 at 23:25:33 UTC


;
;

;
;
; 

; external perimeters extrusion width = 0.45mm
; perimeters extrusion width = 0.45mm
; infill extrusion width = 0.45mm
; solid infill extrusion width = 0.45mm
; top infill extrusion width = 0.40mm
; support material extrusion width = 0.35mm
; first layer extrusion width = 0.42mm

; external perimeters extrusion width = 0.45mm
; perimeters extrusion width = 0.45mm
; infill extrusion width = 0.45mm
; solid infill extrusion width = 0.45mm
; top infill extrusion width = 0.40mm
; support material extrusion width = 0.35mm
; first layer extrusion width = 0.42mm

M73 P0 R13
M201 X2500 Y2500 Z400 E5000 ; sets maximum accelerations, mm/sec^2
M203 X180 Y180 Z12 E80 ; sets maximum feedrates, mm / sec
M204 P2000 R1250 T2500 ; sets acceleration (P, T) and retract acceleration (R), mm/sec^2
M205 X8.00 Y8.00 Z2.00 E10.00 ; sets the jerk limits, mm/sec
M205 S0 T0 ; sets the minimum extruding and travel feed rate, mm/sec
M107
;TYPE:Custom
M862.3 P "MINI" ; printer model check
G90 ; use absolute coordinates
M83 ; extruder relative mode
M104 S170 ; set extruder temp for bed leveling
M140 S60 ; set bed temp
M109 R170 ; wait for bed leveling temp
M190 S60 ; wait for bed temp
M204 T1250 ; set travel acceleration
G28 ; home all without mesh bed level
G29 ; mesh bed leveling 
M204 T2500 ; restore travel acceleration
M104 S215 ; set extruder temp
G92 E0
G1 Y-2 X179 F2400
G1 Z3 F720
M109 S215 ; wait for extruder temp

; intro line
G1 X170 F1000
G1 Z0.2 F720
G1 X110 E8 F900
G1 X40 E10 F700
G92 E0

M221 S95 ; set flow
G21 ; set units to millimeters
G90 ; use absolute coordinates
M83 ; use relative distances for extrusion
M900 K0.2 ; Filament gcode LA 1.5
; ; Filament gcode LA 1.0
M107
;LAYER_CHANGE
;Z:0.2
;HEIGHT:0.2
;BEFORE_LAYER_CHANGE
G92 E0.0
;0.2


M73 P1 R13
G1 E-3.2 F4200
G1 Z.2 F720
;AFTER_LAYER_CHANGE
;0.2
G1 Z.4
G1 X53.664 Y87.582 F9000
G1 Z.2 F720
G1 E3.2 F2400
M204 P600
;TYPE:Skirt/Brim
;WIDTH:0.42
G1 F1200
G1 X54.466 Y87.119 E.02902
G1 X55.589 Y86.65 E.03816
G1 X57.005 Y86.31 E.04567
M73 P2 R13
G1 X58.014 Y86.224 E.03174
G1 X67.059 Y86.224 E.28361
G1 X68.068 Y86.31 E.03174
G1 X69.484 Y86.65 E.04567
G1 X70.82 Y87.23 E.04567
G1 X72.035 Y88.033 E.04567
G1 X73.093 Y89.035 E.04567
G1 X73.959 Y90.206 E.04567
G1 X74.61 Y91.509 E.04567
G1 X74.972 Y92.671 E.03816
G1 X75.191 Y94.473 E.05691
G1 X75.19 Y103.324 E.27751
G1 X74.95 Y117.701 E.45085
G1 X74.864 Y118.71 E.03174
G1 X74.597 Y119.897 E.03816
G1 X74.28 Y120.767 E.02901
G1 X73.722 Y121.848 E.03816
G1 X72.692 Y123.196 E.05317
G1 X71.797 Y124.021 E.03816
G1 X70.968 Y124.601 E.03174
G1 X69.887 Y125.16 E.03816
G1 X69.017 Y125.476 E.02901
G1 X67.83 Y125.743 E.03816
G1 X66.821 Y125.83 E.03174
G1 X57.896 Y125.833 E.27985
G1 X56.767 Y125.743 E.0355
G1 X55.58 Y125.476 E.03816
G1 X54.228 Y124.935 E.04567
G1 X53.426 Y124.472 E.02902
G1 X52.459 Y123.734 E.03816
G1 X51.743 Y123.018 E.03174
G1 X51.005 Y122.051 E.03816
G1 X50.542 Y121.249 E.02902
G1 X50.073 Y120.126 E.03816
G1 X49.733 Y118.71 E.04567
G1 X49.644 Y117.581 E.0355
G1 X49.644 Y108.776 E.27608
G1 X49.883 Y94.427 E.44995
G1 X49.971 Y93.344 E.03407
G1 X50.239 Y92.157 E.03816
G1 X50.555 Y91.287 E.02901
G1 X51.114 Y90.206 E.03816
G1 X52.143 Y88.858 E.05317
G1 X52.697 Y88.32 E.02422
G1 X53.617 Y87.618 E.03628
M204 P1000
G1 X53.845 Y87.918 F9000
M204 P600
G1 F1200
G1 X54.625 Y87.461 E.02835
G1 X55.718 Y87.004 E.03713
G1 X57.071 Y86.682 E.04361
G1 X58.03 Y86.601 E.03019
G1 X67.043 Y86.601 E.28258
G1 X68.002 Y86.682 E.03019
G1 X69.355 Y87.004 E.04361
G1 X70.632 Y87.556 E.04361
G1 X71.793 Y88.322 E.04361
G1 X72.804 Y89.278 E.04361
G1 X73.633 Y90.394 E.04361
G1 X74.256 Y91.638 E.04361
G1 X74.653 Y92.971 E.04361
G1 X74.814 Y94.473 E.04736
G1 X74.813 Y103.318 E.27732
G1 X74.573 Y117.685 E.45053
G1 X74.492 Y118.644 E.03019
G1 X74.232 Y119.799 E.03713
G1 X73.938 Y120.607 E.02695
G1 X73.395 Y121.659 E.03713
M73 P3 R13
G1 X72.426 Y122.929 E.05008
G1 X71.555 Y123.732 E.03713
G1 X70.78 Y124.275 E.02968
G1 X69.727 Y124.818 E.03713
G1 X68.92 Y125.112 E.02695
G1 X67.764 Y125.372 E.03713
G1 X66.805 Y125.453 E.03019
G1 X57.896 Y125.455 E.27933
G1 X56.833 Y125.372 E.03344
G1 X55.678 Y125.112 E.03713
G1 X54.387 Y124.593 E.04361
G1 X53.643 Y124.163 E.02696
G1 X52.701 Y123.445 E.03713
G1 X52.032 Y122.776 E.02968
G1 X51.314 Y121.834 E.03713
G1 X50.884 Y121.09 E.02696
G1 X50.427 Y119.997 E.03713
G1 X50.105 Y118.644 E.04361
G1 X50.022 Y117.581 E.03344
G1 X50.022 Y108.776 E.27608
G1 X50.26 Y94.433 E.44976
G1 X50.343 Y93.41 E.0322
G1 X50.603 Y92.254 E.03713
G1 X50.897 Y91.447 E.02695
G1 X51.44 Y90.395 E.03713
G1 X52.41 Y89.125 E.05008
G1 X52.939 Y88.608 E.02319
G1 X53.797 Y87.954 E.03384
M204 P1000
G1 E-2.24 F4200
;WIPE_START
G1 F7200
G1 X54.625 Y87.461 E-.53404
G1 X55.254 Y87.198 E-.37796
;WIPE_END
G1 E-.048 F4200
G1 Z.4 F720
G1 X55.103 Y90.288 F9000
G1 Z.2 F720
G1 E3.2 F2400
M204 P600
G1 F1200
G1 X56.423 Y89.581 E.04695
G1 X57.848 Y89.279 E.04564
G1 X67.259 Y89.283 E.2951
G1 X69.014 Y89.73 E.05677
G1 X70.555 Y90.77 E.05829
G1 X71.151 Y91.476 E.02897
G1 X71.626 Y92.256 E.02865
G1 X72.116 Y94.034 E.05783
G1 X72.139 Y103.509 E.29706
G1 X71.791 Y105.093 E.05086
G1 X71.171 Y106.219 E.04029
G1 X71.499 Y106.826 E.02166
G1 X71.891 Y108.436 E.05193
G1 X71.912 Y117.68 E.28987
G1 X71.674 Y119.059 E.04386
G1 X70.892 Y120.599 E.05415
G1 X69.91 Y121.63 E.04466
G1 X68.632 Y122.388 E.04659
G1 X67.164 Y122.754 E.04744
G1 X57.795 Y122.792 E.29377
G1 X56.418 Y122.554 E.04381
G1 X54.878 Y121.772 E.05414
G1 X53.845 Y120.788 E.04474
G1 X53.04 Y119.386 E.05067
G1 X52.697 Y117.818 E.05033
G1 X52.698 Y108.53 E.29123
G1 X53.06 Y106.922 E.05167
G1 X53.672 Y105.839 E.03901
G1 X53.331 Y105.216 E.0223
G1 X52.928 Y103.465 E.05632
G1 X52.923 Y94.369 E.2852
G1 X53.161 Y92.993 E.04377
G1 X54.085 Y91.264 E.06149
G1 X55.06 Y90.329 E.04234
M204 P1000
G1 X55.306 Y90.606 F9000
M204 P600
M73 P4 R13
G1 F1200
G1 X56.53 Y89.944 E.04362
G1 X57.868 Y89.656 E.04291
G1 X67.235 Y89.66 E.29371
G1 X68.888 Y90.087 E.05351
G1 X70.284 Y91.033 E.05289
G1 X70.836 Y91.685 E.02679
G1 X71.29 Y92.43 E.02733
G1 X71.745 Y94.109 E.05456
G1 X71.762 Y103.488 E.29409
G1 X71.429 Y104.984 E.04803
G1 X70.738 Y106.218 E.04436
G1 X71.14 Y106.942 E.02596
G1 X71.514 Y108.459 E.04899
G1 X71.535 Y117.665 E.28863
G1 X71.308 Y118.965 E.0414
G1 X70.57 Y120.401 E.05062
G1 X69.657 Y121.35 E.04128
G1 X68.465 Y122.048 E.04331
G1 X67.096 Y122.383 E.04418
G1 X57.81 Y122.415 E.29117
G1 X56.511 Y122.187 E.04134
G1 X55.076 Y121.449 E.05061
G1 X54.126 Y120.536 E.04132
G1 X53.383 Y119.226 E.04721
G1 X53.07 Y117.76 E.04702
G1 X53.075 Y108.551 E.28871
G1 X53.421 Y107.034 E.04879
G1 X54.107 Y105.841 E.04317
G1 X53.692 Y105.103 E.02657
G1 X53.305 Y103.443 E.05342
G1 X53.3 Y94.385 E.284
G1 X53.528 Y93.088 E.04129
G1 X54.369 Y91.514 E.05597
G1 X55.263 Y90.648 E.03903
M204 P1000
G1 X55.511 Y90.924 F9000
M204 P600
G1 F1200
G1 X56.637 Y90.306 E.04027
G1 X57.888 Y90.034 E.04014
G1 X67.212 Y90.037 E.29234
G1 X68.705 Y90.418 E.04831
G1 X70.013 Y91.297 E.04943
G1 X70.539 Y91.917 E.02548
G1 X70.953 Y92.601 E.02508
G1 X71.375 Y94.182 E.05129
G1 X71.385 Y103.467 E.29114
G1 X71.068 Y104.873 E.04517
G1 X70.473 Y105.921 E.03781
G1 X70.264 Y106.147 E.00964
G1 X70.781 Y107.06 E.0329
G1 X71.137 Y108.483 E.04602
G1 X71.158 Y117.649 E.28737
G1 X70.942 Y118.87 E.03891
G1 X70.249 Y120.202 E.04706
G1 X69.406 Y121.068 E.03789
G1 X68.301 Y121.708 E.04004
G1 X67.031 Y122.011 E.04094
G1 X57.826 Y122.038 E.28861
G1 X56.606 Y121.821 E.03885
G1 X55.275 Y121.128 E.04705
G1 X54.409 Y120.285 E.0379
G1 X53.726 Y119.068 E.04377
G1 X53.444 Y117.703 E.04372
G1 X53.452 Y108.573 E.28624
G1 X53.781 Y107.148 E.04588
M73 P5 R13
G1 X54.413 Y106.067 E.03926
G1 X54.572 Y105.89 E.00747
G1 X54.052 Y104.988 E.03263
G1 X53.682 Y103.421 E.05049
G1 X53.677 Y94.402 E.28278
G1 X53.894 Y93.184 E.0388
G1 X54.653 Y91.763 E.05052
G1 X55.468 Y90.966 E.03574
M204 P1000
G1 X55.718 Y91.24 F9000
M204 P600
G1 F1200
G1 X56.746 Y90.668 E.0369
G1 X57.909 Y90.411 E.03734
G1 X67.187 Y90.414 E.29092
G1 X68.578 Y90.775 E.04506
G1 X69.743 Y91.561 E.04406
G1 X70.224 Y92.126 E.02326
G1 X70.616 Y92.773 E.02372
G1 X71.004 Y94.254 E.04798
G1 X71.008 Y103.447 E.28825
G1 X70.726 Y104.711 E.04061
G1 X70.159 Y105.71 E.03603
G1 X69.735 Y106.136 E.01883
G1 X70.004 Y106.453 E.01304
G1 X70.422 Y107.179 E.02625
G1 X70.76 Y108.508 E.04301
G1 X70.781 Y117.632 E.28608
G1 X70.576 Y118.774 E.03638
G1 X69.929 Y120 E.04346
G1 X69.156 Y120.784 E.03451
G1 X68.139 Y121.367 E.03677
G1 X66.967 Y121.639 E.03771
G1 X57.843 Y121.661 E.28609
G1 X56.702 Y121.456 E.03632
G1 X55.477 Y120.808 E.04346
G1 X54.693 Y120.036 E.03451
G1 X54.089 Y118.962 E.03863
G1 X53.821 Y117.683 E.04097
G1 X53.829 Y108.596 E.28493
G1 X54.142 Y107.263 E.04292
G1 X54.723 Y106.283 E.03573
G1 X55.092 Y105.908 E.01648
G1 X54.882 Y105.67 E.00996
G1 X54.412 Y104.872 E.02904
G1 X54.059 Y103.398 E.04751
G1 X54.054 Y94.419 E.28154
G1 X54.259 Y93.28 E.03629
G1 X54.939 Y92.011 E.04513
G1 X55.675 Y91.283 E.03248
M204 P1000
G1 X55.927 Y91.555 F9000
M204 P600
G1 F1200
G1 X56.857 Y91.029 E.03351
G1 X57.93 Y90.788 E.03449
G1 X67.119 Y90.785 E.2881
G1 X68.397 Y91.107 E.04133
M73 P5 R12
G1 X69.473 Y91.826 E.04059
G1 X69.927 Y92.358 E.02194
G1 X70.279 Y92.944 E.02142
G1 X70.627 Y94.278 E.04322
G1 X70.631 Y103.427 E.28687
G1 X70.384 Y104.55 E.03605
G1 X69.845 Y105.5 E.03424
G1 X69.213 Y106.114 E.02761
G1 X69.689 Y106.661 E.02273
G1 X70.064 Y107.3 E.02323
G1 X70.383 Y108.533 E.03994
G1 X70.404 Y117.616 E.28478
G1 X70.21 Y118.677 E.03382
G1 X69.61 Y119.797 E.03983
G1 X68.909 Y120.498 E.03112
G1 X67.978 Y121.024 E.03351
G1 X66.905 Y121.266 E.03449
G1 X57.859 Y121.284 E.28362
G1 X56.8 Y121.09 E.03377
M73 P6 R12
G1 X55.68 Y120.49 E.03983
G1 X54.979 Y119.789 E.0311
G1 X54.433 Y118.805 E.03528
G1 X54.198 Y117.665 E.03651
G1 X54.206 Y108.617 E.28367
G1 X54.481 Y107.43 E.03821
G1 X55.034 Y106.498 E.03399
G1 X55.622 Y105.92 E.02586
G1 X55.193 Y105.457 E.0198
G1 X54.771 Y104.754 E.0257
G1 X54.436 Y103.375 E.04448
G1 X54.431 Y94.436 E.28028
G1 X54.625 Y93.377 E.03376
G1 X55.225 Y92.257 E.03983
G1 X55.884 Y91.598 E.02924
M204 P1000
G1 X56.148 Y91.866 F9000
M204 P600
G1 F1200
G1 X57.015 Y91.373 E.03127
G1 X57.99 Y91.16 E.03129
G1 X67.052 Y91.157 E.28414
G1 X68.218 Y91.44 E.03759
G1 X69.205 Y92.092 E.0371
G1 X69.612 Y92.567 E.01961
G1 X69.942 Y93.115 E.02006
G1 X70.25 Y94.302 E.03845
G1 X70.258 Y103.369 E.28429
G1 X70.041 Y104.39 E.03272
G1 X69.531 Y105.288 E.0324
G1 X68.629 Y106.146 E.03903
G1 X68.922 Y106.355 E.01128
G1 X69.373 Y106.868 E.02142
G1 X69.725 Y107.468 E.02182
G1 X70.006 Y108.557 E.03527
G1 X70.027 Y117.599 E.28349
G1 X69.845 Y118.578 E.03123
G1 X69.293 Y119.591 E.03616
G1 X68.663 Y120.211 E.02773
G1 X67.82 Y120.681 E.03026
G1 X66.845 Y120.893 E.03129
G1 X57.877 Y120.906 E.2812
G1 X56.899 Y120.725 E.03117
G1 X55.886 Y120.173 E.03616
G1 X55.266 Y119.543 E.02773
G1 X54.796 Y118.699 E.03028
G1 X54.575 Y117.645 E.03378
G1 X54.579 Y108.679 E.28113
G1 X54.821 Y107.596 E.03477
G1 X55.345 Y106.713 E.0322
G1 X55.941 Y106.139 E.02594
G1 X56.193 Y105.973 E.00947
G1 X55.506 Y105.244 E.03141
G1 X55.109 Y104.585 E.02413
G1 X54.813 Y103.353 E.03972
G1 X54.808 Y94.453 E.27904
G1 X54.99 Y93.476 E.03118
G1 X55.542 Y92.463 E.03616
G1 X56.106 Y91.908 E.02481
M204 P1000
G1 X56.367 Y92.178 F9000
M204 P600
G1 F1200
G1 X56.416 Y92.131 E.00214
G1 X57.123 Y91.735 E.0254
G1 X58.051 Y91.533 E.02977
G1 X66.989 Y91.529 E.28025
G1 X68.041 Y91.774 E.03387
G1 X68.936 Y92.358 E.03353
G1 X69.315 Y92.8 E.01823
G1 X69.604 Y93.284 E.01769
G1 X69.873 Y94.326 E.03373
G1 X69.884 Y103.313 E.2818
G1 X69.698 Y104.23 E.02933
G1 X69.217 Y105.078 E.03058
G1 X68.62 Y105.647 E.02584
G1 X67.83 Y106.095 E.02847
G1 X68.659 Y106.627 E.03089
G1 X69.077 Y107.103 E.01986
G1 X69.386 Y107.634 E.01928
G1 X69.629 Y108.582 E.03066
G1 X69.65 Y117.581 E.28218
G1 X69.481 Y118.477 E.02858
M73 P7 R12
G1 X68.978 Y119.382 E.03245
G1 X68.419 Y119.923 E.0244
G1 X67.712 Y120.319 E.0254
G1 X66.785 Y120.521 E.02977
G1 X57.894 Y120.529 E.27875
G1 X57 Y120.36 E.02854
G1 X56.095 Y119.858 E.03245
G1 X55.554 Y119.299 E.0244
G1 X55.159 Y118.592 E.02538
G1 X54.952 Y117.625 E.03103
G1 X54.951 Y108.737 E.27865
G1 X55.161 Y107.762 E.03129
G1 X55.655 Y106.929 E.03037
G1 X56.181 Y106.432 E.02267
G1 X56.992 Y105.952 E.02954
G1 X56.245 Y105.487 E.0276
G1 X55.796 Y105.003 E.02067
G1 X55.448 Y104.417 E.02137
G1 X55.19 Y103.331 E.03501
G1 X55.186 Y94.471 E.2778
G1 X55.354 Y93.577 E.02855
G1 X55.857 Y92.672 E.03245
G1 X56.324 Y92.22 E.02037
M204 P1000
G1 X56.583 Y92.492 F9000
M204 P600
G1 F1200
G1 X56.658 Y92.421 E.00327
G1 X57.231 Y92.098 E.02062
G1 X58.111 Y91.906 E.02824
G1 X66.928 Y91.902 E.27645
G1 X67.866 Y92.11 E.03014
G1 X68.67 Y92.626 E.02995
G1 X69 Y93.007 E.0158
G1 X69.266 Y93.454 E.0163
G1 X69.496 Y94.35 E.029
G1 X69.511 Y103.261 E.2794
G1 X69.355 Y104.072 E.02589
G1 X68.903 Y104.867 E.02866
G1 X68.381 Y105.355 E.02242
G1 X67.843 Y105.653 E.0193
G1 X66.959 Y105.846 E.02835
G1 X66.661 Y105.854 E.00935
G1 X66.629 Y106.185 E.01041
G1 X67.628 Y106.413 E.03213
G1 X68.432 Y106.929 E.02996
G1 X68.762 Y107.31 E.0158
G1 X69.029 Y107.757 E.01632
G1 X69.252 Y108.607 E.02755
G1 X69.273 Y117.564 E.28083
G1 X69.117 Y118.375 E.02589
G1 X68.665 Y119.17 E.02868
G1 X68.177 Y119.633 E.0211
G1 X67.604 Y119.956 E.02062
G1 X66.724 Y120.148 E.02824
G1 X57.912 Y120.152 E.27628
G1 X57.102 Y119.996 E.02586
G1 X56.307 Y119.545 E.02868
G1 X55.844 Y119.057 E.0211
G1 X55.521 Y118.484 E.02062
G1 X55.329 Y117.604 E.02824
G1 X55.325 Y108.793 E.27625
G1 X55.502 Y107.926 E.02775
G1 X55.965 Y107.145 E.02847
G1 X56.42 Y106.723 E.01946
G1 X56.941 Y106.42 E.0189
G1 X57.877 Y106.208 E.03007
G1 X58.177 Y106.2 E.00943
G1 X58.209 Y105.868 E.01044
G1 X57.225 Y105.649 E.03159
G1 X56.501 Y105.209 E.02658
G1 X56.107 Y104.789 E.01805
G1 X55.808 Y104.299 E.01802
G1 X55.568 Y103.308 E.03195
G1 X55.563 Y94.489 E.27651
G1 X55.719 Y93.679 E.02586
G1 X56.17 Y92.884 E.02868
G1 X56.539 Y92.534 E.01594
M204 P1000
G1 E-2.24 F4200
;WIPE_START
G1 F7200
G1 X56.658 Y92.421 E-.09112
G1 X57.231 Y92.098 E-.36441
G1 X58.036 Y91.922 E-.45647
;WIPE_END
G1 E-.048 F4200
G1 Z.4 F720
G1 X57.934 Y106.581 F9000
G1 Z.2 F720
G1 E3.2 F2400
M204 P600
G1 F1200
G1 X66.671 Y106.582 E.27394
G1 X67.457 Y106.75 E.0252
G1 X68.166 Y107.198 E.02629
G1 X68.466 Y107.544 E.01435
G1 X68.689 Y107.924 E.01384
G1 X68.881 Y108.677 E.02433
G1 X68.895 Y117.545 E.27808
G1 X68.753 Y118.27 E.02314
G1 X68.354 Y118.955 E.02485
G1 X67.937 Y119.342 E.01786
M73 P8 R12
G1 X67.495 Y119.594 E.01595
G1 X66.664 Y119.775 E.02669
G1 X57.931 Y119.775 E.2738
G1 X57.207 Y119.633 E.02313
G1 X56.522 Y119.234 E.02485
G1 X56.135 Y118.817 E.01786
G1 X55.883 Y118.375 E.01595
G1 X55.702 Y117.543 E.02669
G1 X55.702 Y108.811 E.2738
G1 X55.844 Y108.087 E.02313
G1 X56.243 Y107.402 E.02485
G1 X56.66 Y107.015 E.01786
G1 X57.102 Y106.763 E.01595
G1 X57.875 Y106.594 E.02481
M204 P1000
G1 X57.953 Y106.959 F9000
M204 P600
G1 F1200
G1 X66.65 Y106.959 E.2727
G1 X67.342 Y107.111 E.02223
G1 X67.9 Y107.467 E.02074
G1 X68.15 Y107.751 E.01186
G1 X68.35 Y108.091 E.01237
G1 X68.509 Y108.743 E.02104
G1 X68.518 Y117.526 E.2754
G1 X68.39 Y118.162 E.02032
G1 X68.047 Y118.735 E.02094
G1 X67.702 Y119.047 E.01459
G1 X67.337 Y119.251 E.0131
G1 X66.644 Y119.398 E.02221
G1 X57.95 Y119.398 E.27259
G1 X57.315 Y119.27 E.02032
G1 X56.742 Y118.927 E.02094
G1 X56.43 Y118.581 E.01459
G1 X56.226 Y118.217 E.0131
G1 X56.079 Y117.524 E.02221
G1 X56.079 Y108.83 E.27259
G1 X56.207 Y108.195 E.02032
G1 X56.55 Y107.622 E.02094
G1 X56.896 Y107.31 E.01459
G1 X57.26 Y107.106 E.0131
G1 X57.894 Y106.971 E.02031
M204 P1000
G1 X57.969 Y107.336 F9000
M204 P600
G1 F1200
G1 X66.631 Y107.336 E.27159
G1 X67.173 Y107.45 E.01737
G1 X67.636 Y107.737 E.01709
G1 X67.854 Y107.985 E.01035
G1 X68.009 Y108.254 E.00972
G1 X68.137 Y108.806 E.01779
G1 X68.141 Y117.507 E.2728
G1 X68.028 Y118.051 E.01742
G1 X67.743 Y118.51 E.01694
G1 X67.471 Y118.748 E.01134
G1 X67.182 Y118.906 E.01033
G1 X66.626 Y119.021 E.01781
G1 X57.97 Y119.021 E.27138
