; generated by PrusaSlicer 2.5.2+win64 on 2023-05-22 at 00:33:13 UTC


;
;

;
;
; 

; external perimeters extrusion width = 0.45mm
; perimeters extrusion width = 0.45mm
; infill extrusion width = 0.45mm
; solid infill extrusion width = 0.45mm
; top infill extrusion width = 0.40mm
; support material extrusion width = 0.35mm
; first layer extrusion width = 0.42mm

M73 P0 R35
M201 X2500 Y2500 Z400 E5000 ; sets maximum accelerations, mm/sec^2
M203 X180 Y180 Z12 E80 ; sets maximum feedrates, mm / sec
M204 P2000 R1250 T2500 ; sets acceleration (P, T) and retract acceleration (R), mm/sec^2
M205 X8.00 Y8.00 Z2.00 E10.00 ; sets the jerk limits, mm/sec
M205 S0 T0 ; sets the minimum extruding and travel feed rate, mm/sec
M107
;TYPE:Custom
M862.3 P "MINI" ; printer model check
G90 ; use absolute coordinates
M83 ; extruder relative mode
M104 S170 ; set extruder temp for bed leveling
M140 S60 ; set bed temp
M109 R170 ; wait for bed leveling temp
M190 S60 ; wait for bed temp
M204 T1250 ; set travel acceleration
G28 ; home all without mesh bed level
G29 ; mesh bed leveling 
M204 T2500 ; restore travel acceleration
M104 S215 ; set extruder temp
G92 E0
G1 Y-2 X179 F2400
G1 Z3 F720
M109 S215 ; wait for extruder temp

; intro line
G1 X170 F1000
G1 Z0.2 F720
G1 X110 E8 F900
G1 X40 E10 F700
G92 E0

M221 S95 ; set flow
G21 ; set units to millimeters
G90 ; use absolute coordinates
M83 ; use relative distances for extrusion
M900 K0.2 ; Filament gcode LA 1.5
; ; Filament gcode LA 1.0
M107
;LAYER_CHANGE
;Z:0.2
;HEIGHT:0.2
;BEFORE_LAYER_CHANGE
G92 E0.0
;0.2


G1 E-3.2 F4200
G1 Z.2 F720
;AFTER_LAYER_CHANGE
;0.2
G1 Z.4
G1 X76.485 Y82.303 F9000
G1 Z.2 F720
M73 P0 R34
G1 E3.2 F2400
M204 P600
;TYPE:Skirt/Brim
;WIDTH:0.42
G1 F1200
G1 X77.377 Y82.009 E.02945
G1 X88.72 Y80.331 E.35951
G1 X90.173 Y80.251 E.04564
G1 X91.28 Y80.331 E.03481
G1 X102.623 Y82.009 E.35951
G1 X103.968 Y82.605 E.04612
G1 X104.814 Y83.808 E.04612
G1 X104.974 Y84.733 E.02945
G1 X104.974 Y95.267 E.33026
G1 X104.581 Y96.684 E.04612
G1 X103.515 Y97.697 E.04612
G1 X102.623 Y97.991 E.02945
G1 X91.28 Y99.669 E.35951
G1 X90.173 Y99.749 E.03482
G1 X88.72 Y99.669 E.04564
G1 X77.377 Y97.991 E.35951
G1 X76.032 Y97.395 E.04612
G1 X75.186 Y96.192 E.04612
G1 X75.026 Y95.267 E.02945
G1 X75.026 Y84.733 E.33026
G1 X75.419 Y83.316 E.04612
G1 X76.441 Y82.344 E.04424
M204 P1000
G1 X76.745 Y82.82 F9000
M204 P600
G1 F1200
G1 X77.432 Y82.382 E.02555
G1 X88.775 Y80.704 E.35951
G1 X90.149 Y80.628 E.04316
M73 P1 R34
G1 X91.225 Y80.704 E.03382
G1 X102.568 Y82.382 E.35951
G1 X103.804 Y82.961 E.04278
G1 X104.597 Y84.733 E.0609
G1 X104.597 Y95.267 E.33026
G1 X104.206 Y96.574 E.04278
G1 X102.568 Y97.618 E.0609
G1 X91.225 Y99.296 E.35951
G1 X90.149 Y99.372 E.03382
G1 X88.775 Y99.296 E.04316
G1 X77.432 Y97.618 E.35951
G1 X76.196 Y97.039 E.04278
G1 X75.403 Y95.267 E.0609
G1 X75.403 Y84.733 E.33026
G1 X75.794 Y83.426 E.04278
G1 X76.694 Y82.852 E.03346
M204 P1000
; printing object ECE 115 spin wheel connector.STL id:0 copy 0
G1 E-2.24 F4200
;WIPE_START
G1 F7200
G1 X77.432 Y82.382 E-.48492
G1 X78.194 Y82.269 E-.42708
;WIPE_END
G1 E-.048 F4200
G1 Z.4 F720
G1 X84.246 Y85.22 F9000
G1 Z.2 F720
G1 E3.2 F2400
M204 P600
;TYPE:Support material
G1 F1200
G1 X83.676 Y86.005 E.0304
G1 X83.225 Y86.829 E.02945
G1 X82.891 Y87.674 E.02851
G1 X82.647 Y88.631 E.03097
G1 X82.535 Y89.533 E.02849
G1 X82.534 Y90.457 E.02897
G1 X82.657 Y91.422 E.0305
G1 X82.891 Y92.326 E.02927
G1 X83.225 Y93.171 E.02851
G1 X83.692 Y94.021 E.03039
G1 X84.227 Y94.756 E.02851
G1 X84.704 Y95.267 E.02189
G1 X77.78 Y95.267 E.21709
G1 X77.78 Y84.733 E.33026
G1 X84.704 Y84.733 E.21709
G1 X84.285 Y85.179 E.01918
M204 P1000
G1 E-2.24 F4200
;WIPE_START
G1 F7200
G1 X84.704 Y84.733 E-.33892
G1 X83.669 Y84.733 E-.57308
;WIPE_END
G1 E-.048 F4200
G1 Z.4 F720
G1 X83.715 Y95.097 F9000
G1 Z.2 F720
G1 E3.2 F2400
M204 P600
G1 F1200
G1 X83.715 Y94.63 E.01466
G1 X83.412 Y94.211 E.0162
G1 X83.296 Y94.009 E.00732
G1 X83.296 Y94.927 E.02881
G1 X82.877 Y94.927 E.01314
G1 X82.877 Y93.214 E.05372
G1 X82.571 Y92.441 E.02608
G1 X82.458 Y92.014 E.01383
G1 X82.458 Y94.927 E.09134
G1 X82.039 Y94.927 E.01314
G1 X82.039 Y85.073 E.30898
G1 X82.458 Y85.073 E.01314
G1 X82.458 Y87.986 E.09134
G1 X82.571 Y87.559 E.01384
G1 X82.877 Y86.786 E.02607
G1 X82.877 Y85.073 E.05372
G1 X83.296 Y85.073 E.01314
G1 X83.296 Y85.991 E.02881
G1 X83.412 Y85.788 E.00732
G1 X83.715 Y85.37 E.0162
G1 X83.715 Y84.903 E.01466
M204 P1000
G1 E-2.24 F4200
;WIPE_START
G1 F7200
G1 X83.715 Y85.37 E-.25903
G1 X83.412 Y85.788 E-.2863
G1 X83.296 Y85.991 E-.1294
G1 X83.296 Y85.563 E-.23728
;WIPE_END
G1 E-.048 F4200
G1 Z.4 F720
G1 X81.62 Y95.097 F9000
G1 Z.2 F720
G1 E3.2 F2400
M204 P600
G1 F1200
G1 X81.62 Y85.073 E.3143
G1 X81.201 Y85.073 E.01314
G1 X81.201 Y94.927 E.30898
G1 X80.783 Y94.927 E.01314
G1 X80.783 Y85.073 E.30898
G1 X80.364 Y85.073 E.01314
G1 X80.364 Y94.927 E.30898
G1 X79.945 Y94.927 E.01314
G1 X79.945 Y85.073 E.30898
G1 X79.526 Y85.073 E.01314
G1 X79.526 Y94.927 E.30898
G1 X79.107 Y94.927 E.01314
G1 X79.107 Y85.073 E.30898
G1 X78.688 Y85.073 E.01314
G1 X78.688 Y94.927 E.30898
G1 X78.269 Y94.927 E.01314
G1 X78.269 Y84.903 E.3143
M204 P1000
G1 E-2.24 F4200
;WIPE_START
G1 F7200
G1 X78.269 Y86.549 E-.912
;WIPE_END
G1 E-.048 F4200
G1 Z.4 F720
G1 X102.22 Y95.267 F9000
G1 Z.2 F720
G1 E3.2 F2400
M204 P600
G1 F1200
G1 X95.296 Y95.267 E.21709
G1 X95.773 Y94.756 E.02189
G1 X96.307 Y94.021 E.02851
G1 X96.774 Y93.171 E.0304
G1 X97.113 Y92.314 E.02888
G1 X97.344 Y91.421 E.02894
G1 X97.466 Y90.438 E.03104
G1 X97.465 Y89.528 E.02853
G1 X97.352 Y88.628 E.02845
G1 X97.108 Y87.67 E.03099
G1 X96.768 Y86.814 E.02888
G1 X96.324 Y86.005 E.02895
G1 X95.773 Y85.244 E.02945
G1 X95.296 Y84.733 E.02189
G1 X102.22 Y84.733 E.21709
G1 X102.22 Y95.21 E.32849
M204 P1000
G1 X101.731 Y95.097 F9000
M204 P600
G1 F1200
G1 X101.731 Y85.073 E.3143
G1 X101.312 Y85.073 E.01314
G1 X101.312 Y94.927 E.30898
G1 X100.893 Y94.927 E.01314
G1 X100.893 Y85.073 E.30898
G1 X100.474 Y85.073 E.01314
G1 X100.474 Y94.927 E.30898
G1 X100.055 Y94.927 E.01314
G1 X100.055 Y85.073 E.30898
G1 X99.636 Y85.073 E.01314
G1 X99.636 Y94.927 E.30898
G1 X99.217 Y94.927 E.01314
G1 X99.217 Y85.073 E.30898
G1 X98.799 Y85.073 E.01314
G1 X98.799 Y94.927 E.30898
G1 X98.38 Y94.927 E.01314
G1 X98.38 Y85.073 E.30898
G1 X97.961 Y85.073 E.01314
G1 X97.961 Y94.927 E.30898
G1 X97.542 Y94.927 E.01314
M73 P2 R34
G1 X97.542 Y92.014 E.09133
G1 X97.428 Y92.442 E.01387
G1 X97.123 Y93.214 E.02604
G1 X97.123 Y94.927 E.05371
G1 X96.704 Y94.927 E.01314
G1 X96.704 Y94.009 E.02881
G1 X96.588 Y94.212 E.00732
G1 X96.285 Y94.63 E.0162
G1 X96.285 Y95.097 E.01466
M204 P1000
G1 E-2.24 F4200
;WIPE_START
G1 F7200
G1 X96.285 Y94.63 E-.25903
G1 X96.588 Y94.212 E-.28629
G1 X96.704 Y94.009 E-.12941
G1 X96.704 Y94.437 E-.23728
;WIPE_END
G1 E-.048 F4200
G1 Z.4 F720
G1 X97.542 Y88.773 F9000
G1 Z.2 F720
G1 E3.2 F2400
M204 P600
G1 F1200
G1 X97.542 Y85.073 E.11603
G1 X97.123 Y85.073 E.01314
G1 X97.123 Y86.786 E.05372
G1 X97.06 Y86.639 E.005
G1 X96.704 Y85.991 E.02318
G1 X96.704 Y85.073 E.02881
G1 X96.285 Y85.073 E.01314
G1 X96.285 Y85.659 E.01839
M204 P1000
G1 E-2.24 F4200
;WIPE_START
G1 F7200
G1 X96.285 Y85.073 E-.32497
G1 X96.704 Y85.073 E-.23218
G1 X96.704 Y85.713 E-.35484
;WIPE_END
G1 E-.048 F4200
G1 Z.4 F720
G1 X96.119 Y91.027 F9000
G1 Z.2 F720
G1 E3.2 F2400
M204 P600
;TYPE:Perimeter
;WIDTH:0.419999
G1 F1200
G1 X96.101 Y91.164 E.00432
G1 X95.907 Y91.919 E.02445
G1 X95.62 Y92.645 E.02446
G1 X95.244 Y93.328 E.02446
G1 X94.786 Y93.959 E.02446
G1 X94.252 Y94.528 E.02446
G1 X93.651 Y95.025 E.02446
G1 X92.992 Y95.443 E.02446
G1 X92.287 Y95.775 E.02446
G1 X91.545 Y96.016 E.02446
G1 X90.778 Y96.162 E.02446
G1 X90 Y96.211 E.02446
G1 X89.222 Y96.162 E.02446
G1 X88.455 Y96.016 E.02446
G1 X87.713 Y95.775 E.02446
G1 X87.008 Y95.443 E.02446
G1 X86.349 Y95.025 E.02446
G1 X85.748 Y94.528 E.02446
G1 X85.214 Y93.959 E.02446
G1 X84.756 Y93.328 E.02446
G1 X84.38 Y92.645 E.02446
G1 X84.093 Y91.919 E.02446
G1 X83.898 Y91.163 E.02448
G1 X83.801 Y90.39 E.02444
G1 X83.801 Y89.61 E.02445
G1 X83.899 Y88.836 E.02446
G1 X84.093 Y88.081 E.02446
G1 X84.38 Y87.355 E.02446
G1 X84.756 Y86.672 E.02446
G1 X85.214 Y86.041 E.02446
G1 X85.748 Y85.472 E.02446
G1 X86.349 Y84.975 E.02446
G1 X87.008 Y84.557 E.02446
G1 X87.713 Y84.225 E.02446
G1 X88.455 Y83.984 E.02446
G1 X89.222 Y83.838 E.02446
G1 X90 Y83.789 E.02446
G1 X90.778 Y83.838 E.02446
G1 X91.545 Y83.984 E.02446
G1 X92.287 Y84.225 E.02446
G1 X92.992 Y84.557 E.02446
G1 X93.651 Y84.975 E.02446
G1 X94.188 Y85.42 E.02187
G1 X94.481 Y85.716 E.01308
G1 X94.953 Y86.27 E.0228
G1 X95.287 Y86.748 E.01829
G1 X95.656 Y87.444 E.0247
G1 X95.933 Y88.179 E.02463
G1 X96.115 Y88.943 E.02461
G1 X96.199 Y89.72 E.0245
G1 X96.199 Y90.389 E.021
G1 X96.126 Y90.968 E.01828
M204 P1000
G1 X96.493 Y91.075 F9000
M204 P600
;TYPE:External perimeter
G1 F1200
G1 X96.472 Y91.235 E.00506
G1 X96.267 Y92.036 E.02594
G1 X95.962 Y92.806 E.02595
G1 X95.563 Y93.531 E.02594
G1 X95.077 Y94.2 E.02595
G1 X94.511 Y94.803 E.02594
G1 X93.873 Y95.331 E.02595
G1 X93.174 Y95.774 E.02594
G1 X92.426 Y96.126 E.02594
G1 X91.639 Y96.382 E.02594
G1 X90.826 Y96.537 E.02595
G1 X90 Y96.589 E.02594
G1 X89.174 Y96.537 E.02594
G1 X88.361 Y96.382 E.02595
G1 X87.574 Y96.126 E.02594
G1 X86.826 Y95.774 E.02595
G1 X86.127 Y95.331 E.02594
G1 X85.489 Y94.803 E.02595
G1 X84.923 Y94.2 E.02594
G1 X84.437 Y93.531 E.02595
G1 X84.038 Y92.806 E.02594
G1 X83.733 Y92.036 E.02594
G1 X83.527 Y91.234 E.02597
G1 X83.424 Y90.414 E.02592
G1 X83.424 Y89.586 E.02594
G1 X83.528 Y88.765 E.02595
G1 X83.733 Y87.964 E.02595
G1 X84.038 Y87.194 E.02594
G1 X84.437 Y86.469 E.02595
G1 X84.923 Y85.8 E.02594
G1 X85.489 Y85.197 E.02594
G1 X86.127 Y84.669 E.02595
G1 X86.826 Y84.226 E.02594
G1 X87.574 Y83.874 E.02594
G1 X88.361 Y83.618 E.02594
G1 X89.174 Y83.463 E.02595
G1 X90 Y83.411 E.02594
G1 X90.826 Y83.463 E.02594
G1 X91.639 Y83.618 E.02595
G1 X92.426 Y83.874 E.02594
G1 X93.174 Y84.226 E.02595
G1 X93.873 Y84.669 E.02594
G1 X94.429 Y85.129 E.02262
G1 X94.756 Y85.458 E.01456
G1 X95.258 Y86.048 E.02428
G1 X95.617 Y86.567 E.01977
G1 X96.006 Y87.306 E.02619
G1 X96.298 Y88.086 E.02611
G1 X96.489 Y88.896 E.02609
G1 X96.576 Y89.72 E.02598
G1 X96.576 Y90.413 E.02175
G1 X96.5 Y91.015 E.01902
M204 P1000
G1 X96.345 Y91.14 F9000
G1 E-2.24 F4200
;WIPE_START
G1 F7200
G1 X96.472 Y91.235 E-.12268
G1 X96.267 Y92.036 E-.4585
G1 X96.047 Y92.591 E-.33082
;WIPE_END
G1 E-.048 F4200
G1 Z.4 F720
G1 X92.571 Y87.501 F9000
G1 Z.2 F720
G1 E3.2 F2400
M204 P600
;TYPE:Perimeter
G1 F1200
G1 X92.68 Y87.637 E.00546
G1 X92.737 Y87.886 E.00799
G1 X92.737 Y92.114 E.13259
G1 X92.65 Y92.415 E.00982
G1 X92.584 Y92.502 E.00342
G1 X92.062 Y92.934 E.02124
G1 X91.532 Y93.242 E.01923
G1 X90.958 Y93.456 E.01923
G1 X90.39 Y93.563 E.01811
G1 X89.742 Y93.577 E.02033
G1 X89.159 Y93.484 E.0185
G1 X88.631 Y93.309 E.01745
G1 X88.018 Y92.988 E.02169
G1 X87.475 Y92.556 E.02174
G1 X87.35 Y92.415 E.00592
G1 X87.263 Y92.114 E.00982
G1 X87.263 Y87.886 E.13259
G1 X87.32 Y87.637 E.00799
G1 X87.475 Y87.444 E.00777
G1 X87.942 Y87.063 E.01889
G1 X88.468 Y86.758 E.01906
G1 X89.042 Y86.544 E.01923
G1 X89.61 Y86.437 E.01811
G1 X90.258 Y86.423 E.02033
G1 X90.864 Y86.519 E.01923
G1 X91.36 Y86.688 E.01643
G1 X91.982 Y87.012 E.02199
G1 X92.533 Y87.454 E.02216
M204 P1000
G1 X92.274 Y87.726 F9000
M204 P600
;TYPE:External perimeter
G1 F1200
G1 X92.355 Y87.84 E.00438
G1 X92.36 Y92.114 E.13401
G1 X92.309 Y92.243 E.00435
G1 X91.824 Y92.642 E.01968
G1 X91.347 Y92.914 E.01721
G1 X90.831 Y93.101 E.01721
G1 X90.326 Y93.191 E.0161
G1 X89.742 Y93.2 E.01831
G1 X89.223 Y93.113 E.01648
G1 X88.684 Y92.928 E.01788
G1 X88.203 Y92.66 E.01726
G1 X87.714 Y92.264 E.01973
G1 X87.64 Y92.114 E.00523
G1 X87.64 Y87.886 E.13259
G1 X87.709 Y87.74 E.00507
G1 X88.178 Y87.357 E.01896
G1 X88.653 Y87.086 E.01715
G1 X89.169 Y86.899 E.01721
G1 X89.674 Y86.809 E.0161
G1 X90.258 Y86.8 E.01831
G1 X90.8 Y86.891 E.01721
G1 X91.318 Y87.073 E.01721
G1 X91.797 Y87.34 E.01721
G1 X92.228 Y87.688 E.01736
M204 P1000
G1 X92.411 Y87.697 F9000
G1 E-2.24 F4200
;WIPE_START
G1 F7200
G1 X92.355 Y87.84 E-.10977
G1 X92.356 Y89.288 E-.80223
;WIPE_END
G1 E-.048 F4200
G1 Z.4 F720
G1 X95.149 Y86.851 F9000
G1 Z.2 F720
G1 E3.2 F2400
M204 P600
;TYPE:Solid infill
;WIDTH:0.421498
G1 F1200
G1 X94.015 Y85.716 E.05049
G1 X93.451 Y85.25 E.02304
G1 X92.829 Y84.855 E.02321
G1 X92.431 Y84.668 E.01383
G1 X95.345 Y87.582 E.12973
G1 X95.584 Y88.186 E.02044
G1 X95.643 Y88.415 E.00746
G1 X91.58 Y84.352 E.18089
G1 X91.46 Y84.313 E.00396
G1 X90.898 Y84.206 E.01801
G1 X95.793 Y89.1 E.21789
G1 X95.86 Y89.703 E.01908
G1 X90.305 Y84.148 E.2473
G1 X90.07 Y84.133 E.00741
G1 X89.77 Y84.149 E.00945
G1 X95.86 Y90.238 E.2711
G1 X95.814 Y90.728 E.01549
G1 X93.076 Y87.99 E.12189
G1 X93.051 Y87.67 E.01012
G1 X92.984 Y87.485 E.0062
G1 X92.833 Y87.266 E.00836
G1 X92.194 Y86.743 E.026
G1 X91.688 Y86.456 E.01831
G1 X91.46 Y86.374 E.00763
G1 X89.262 Y84.175 E.09787
G1 X88.812 Y84.261 E.01441
G1 X90.699 Y86.148 E.08401
G1 X90.318 Y86.085 E.01215
G1 X90.1 Y86.085 E.00687
G1 X88.38 Y84.365 E.07656
G1 X87.976 Y84.496 E.01338
G1 X89.587 Y86.107 E.07169
G1 X89.125 Y86.18 E.01472
G1 X87.599 Y84.654 E.06795
G1 X87.234 Y84.825 E.01267
G1 X88.714 Y86.305 E.06586
G1 X88.325 Y86.451 E.01308
G1 X86.901 Y85.027 E.06341
G1 X86.573 Y85.235 E.01221
G1 X87.986 Y86.648 E.0629
G1 X87.737 Y86.791 E.00904
G1 X87.659 Y86.856 E.0032
G1 X86.278 Y85.475 E.06152
G1 X85.985 Y85.717 E.01197
G1 X87.367 Y87.1 E.06155
G1 X87.166 Y87.267 E.00822
G1 X87.098 Y87.366 E.00379
G1 X85.725 Y85.993 E.06113
G1 X85.467 Y86.27 E.01193
G1 X86.94 Y87.743 E.06557
G1 X86.924 Y88.262 E.01635
G1 X85.242 Y86.58 E.07488
G1 X85.02 Y86.894 E.0121
G1 X86.924 Y88.797 E.08472
G1 X86.924 Y89.333 E.01685
G1 X84.831 Y87.24 E.09318
G1 X84.65 Y87.595 E.01253
G1 X86.924 Y89.868 E.10121
G1 X86.924 Y90.404 E.01685
G1 X84.498 Y87.978 E.10797
G1 X84.416 Y88.186 E.00702
G1 X84.366 Y88.381 E.00636
G1 X86.924 Y90.939 E.11387
G1 X86.924 Y91.474 E.01685
G1 X84.117 Y88.668 E.12494
M204 P1000
G1 E-2.24 F4200
;WIPE_START
G1 F7200
G1 X85.281 Y89.832 E-.912
;WIPE_END
G1 E-.048 F4200
G1 Z.4 F720
G1 X92.907 Y88.356 F9000
G1 Z.2 F720
G1 E3.2 F2400
M204 P600
G1 F1200
G1 X95.744 Y91.193 E.12629
G1 X95.634 Y91.619 E.01385
G1 X93.076 Y89.061 E.11387
G1 X93.076 Y89.596 E.01685
G1 X95.502 Y92.022 E.10797
G1 X95.35 Y92.405 E.01299
G1 X93.076 Y90.132 E.10121
G1 X93.076 Y90.667 E.01685
G1 X95.169 Y92.76 E.09318
G1 X94.979 Y93.106 E.01241
G1 X93.076 Y91.203 E.08472
G1 X93.076 Y91.738 E.01685
G1 X94.758 Y93.42 E.07487
G1 X94.533 Y93.73 E.01207
G1 X93.06 Y92.257 E.06557
G1 X93.051 Y92.334 E.00245
G1 X92.939 Y92.597 E.00898
G1 X92.904 Y92.637 E.00167
G1 X94.275 Y94.007 E.06103
G1 X94.015 Y94.283 E.01192
G1 X92.636 Y92.904 E.06142
G1 X92.341 Y93.144 E.01198
G1 X93.722 Y94.526 E.06149
G1 X93.427 Y94.765 E.01198
G1 X92.014 Y93.352 E.0629
G1 X91.675 Y93.549 E.01233
G1 X93.099 Y94.973 E.06341
G1 X92.765 Y95.175 E.01228
G1 X91.286 Y93.695 E.06586
G1 X90.987 Y93.802 E.00999
G1 X90.876 Y93.821 E.00355
G1 X92.401 Y95.346 E.06791
G1 X92.024 Y95.504 E.01288
G1 X90.418 Y93.898 E.07149
G1 X90.318 Y93.915 E.00317
G1 X89.899 Y93.915 E.0132
G1 X91.62 Y95.635 E.07659
G1 X91.46 Y95.687 E.00528
G1 X91.188 Y95.739 E.00872
G1 X89.085 Y93.636 E.0936
M204 P1000
G1 E-2.24 F4200
;WIPE_START
G1 F7200
G1 X90.249 Y94.8 E-.912
;WIPE_END
G1 E-.048 F4200
G1 Z.4 F720
G1 X90.883 Y95.97 F9000
G1 Z.2 F720
G1 E3.2 F2400
M204 P600
G1 F1200
G1 X88.546 Y93.633 E.10404
G1 X88.363 Y93.57 E.0061
G1 X87.806 Y93.258 E.02011
G1 X87.17 Y92.736 E.02588
G1 X87.059 Y92.592 E.00573
G1 X86.949 Y92.334 E.00882
G1 X86.924 Y92.01 E.01025
G1 X84.186 Y89.272 E.12189
G1 X84.14 Y89.762 E.01549
G1 X90.235 Y95.857 E.27132
G1 X90 Y95.871 E.00741
G1 X89.695 Y95.852 E.00962
G1 X84.14 Y90.297 E.24729
G1 X84.207 Y90.9 E.01908
G1 X89.102 Y95.794 E.21788
G1 X88.54 Y95.687 E.018
G1 X88.42 Y95.648 E.00396
G1 X84.357 Y91.585 E.18088
G1 X84.416 Y91.814 E.00745
G1 X84.655 Y92.418 E.02045
G1 X87.569 Y95.332 E.12971
G1 X87.171 Y95.145 E.01383
G1 X86.549 Y94.75 E.02321
G1 X85.984 Y94.283 E.02307
