; generated by PrusaSlicer 2.5.2+win64 on 2023-05-22 at 00:35:21 UTC


;
;

;
;
; 

; external perimeters extrusion width = 0.45mm
; perimeters extrusion width = 0.45mm
; infill extrusion width = 0.45mm
; solid infill extrusion width = 0.45mm
; top infill extrusion width = 0.40mm
; support material extrusion width = 0.35mm
; first layer extrusion width = 0.42mm

; external perimeters extrusion width = 0.45mm
; perimeters extrusion width = 0.45mm
; infill extrusion width = 0.45mm
; solid infill extrusion width = 0.45mm
; top infill extrusion width = 0.40mm
; support material extrusion width = 0.35mm
; first layer extrusion width = 0.42mm

M73 P0 R45
M201 X2500 Y2500 Z400 E5000 ; sets maximum accelerations, mm/sec^2
M203 X180 Y180 Z12 E80 ; sets maximum feedrates, mm / sec
M204 P2000 R1250 T2500 ; sets acceleration (P, T) and retract acceleration (R), mm/sec^2
M205 X8.00 Y8.00 Z2.00 E10.00 ; sets the jerk limits, mm/sec
M205 S0 T0 ; sets the minimum extruding and travel feed rate, mm/sec
M107
;TYPE:Custom
M862.3 P "MINI" ; printer model check
G90 ; use absolute coordinates
M83 ; extruder relative mode
M104 S170 ; set extruder temp for bed leveling
M140 S60 ; set bed temp
M109 R170 ; wait for bed leveling temp
M190 S60 ; wait for bed temp
M204 T1250 ; set travel acceleration
G28 ; home all without mesh bed level
G29 ; mesh bed leveling 
M204 T2500 ; restore travel acceleration
M104 S215 ; set extruder temp
G92 E0
G1 Y-2 X179 F2400
G1 Z3 F720
M109 S215 ; wait for extruder temp

; intro line
G1 X170 F1000
G1 Z0.2 F720
G1 X110 E8 F900
G1 X40 E10 F700
G92 E0

M221 S95 ; set flow
G21 ; set units to millimeters
G90 ; use absolute coordinates
M83 ; use relative distances for extrusion
M900 K0.2 ; Filament gcode LA 1.5
; ; Filament gcode LA 1.0
M107
;LAYER_CHANGE
;Z:0.2
;HEIGHT:0.2
;BEFORE_LAYER_CHANGE
G92 E0.0
;0.2


G1 E-3.2 F4200
G1 Z.2 F720
;AFTER_LAYER_CHANGE
;0.2
G1 Z.4
G1 X54.386 Y62.566 F9000
G1 Z.2 F720
G1 E3.2 F2400
M204 P600
;TYPE:Skirt/Brim
;WIDTH:0.42
G1 F1200
G1 X55.432 Y61.69 E.04278
G1 X56.369 Y61.496 E.03001
G1 X103.816 Y61.463 E1.48765
G1 X105.123 Y61.854 E.04278
G1 X105.826 Y62.571 E.0315
G1 X108.745 Y67.198 E.17153
G1 X109.035 Y67.775 E.02023
G1 X124.549 Y104.638 E1.25402
G1 X124.735 Y105.56 E.02949
G1 X124.735 Y116.094 E.33026
G1 X124.344 Y117.401 E.04278
G1 X123.298 Y118.277 E.04278
G1 X122.361 Y118.471 E.03001
G1 X74.914 Y118.504 E1.48765
G1 X73.607 Y118.112 E.04278
G1 X72.904 Y117.395 E.0315
G1 X69.985 Y112.768 E.17153
G1 X69.695 Y112.192 E.02023
G1 X54.181 Y75.328 E1.25402
G1 X53.994 Y74.406 E.02949
G1 X53.994 Y63.873 E.33026
G1 X54.369 Y62.624 E.0409
M204 P1000
; printing object ECE 115 spin wheel holder side.STL id:0 copy 0
G1 E-2.24 F4200
;WIPE_START
G1 F7200
M73 P1 R45
G1 X55.432 Y61.69 E-.78411
G1 X55.658 Y61.643 E-.12789
;WIPE_END
G1 E-.048 F4200
G1 Z.4 F720
G1 X71.54 Y67.02 F9000
G1 Z.2 F720
G1 E3.2 F2400
M204 P600
;TYPE:Support material
G1 F1200
G1 X61.921 Y67.02 E.3016
G1 X61.64 Y67.301 E.01247
G1 X61.64 Y70.699 E.10653
G1 X61.921 Y70.98 E.01247
G1 X69.706 Y70.98 E.24409
G1 X69.991 Y71.005 E.00896
G1 X70.246 Y71.073 E.0083
G1 X70.486 Y71.185 E.0083
G1 X70.703 Y71.337 E.0083
G1 X70.89 Y71.524 E.0083
G1 X71.042 Y71.741 E.0083
G1 X71.154 Y71.981 E.0083
G1 X71.222 Y72.236 E.0083
G1 X71.247 Y72.521 E.00896
G1 X71.247 Y74.406 E.05911
G1 X56.372 Y74.406 E.46642
G1 X56.372 Y63.873 E.33026
G1 X71.54 Y63.873 E.47561
G1 X71.54 Y66.963 E.0969
M204 P1000
G1 X71.132 Y66.85 F9000
M204 P600
G1 F1200
G1 X71.132 Y64.212 E.08271
G1 X70.713 Y64.212 E.01314
G1 X70.713 Y66.681 E.07739
G1 X70.294 Y66.681 E.01314
G1 X70.294 Y64.212 E.07739
G1 X69.875 Y64.212 E.01314
G1 X69.875 Y66.681 E.07739
G1 X69.456 Y66.681 E.01314
G1 X69.456 Y64.212 E.07739
G1 X69.037 Y64.212 E.01314
G1 X69.037 Y66.681 E.07739
G1 X68.618 Y66.681 E.01314
G1 X68.618 Y64.212 E.07739
G1 X68.2 Y64.212 E.01314
G1 X68.2 Y66.681 E.07739
G1 X67.781 Y66.681 E.01314
G1 X67.781 Y64.212 E.07739
G1 X67.362 Y64.212 E.01314
G1 X67.362 Y66.681 E.07739
G1 X66.943 Y66.681 E.01314
G1 X66.943 Y64.212 E.07739
G1 X66.524 Y64.212 E.01314
G1 X66.524 Y66.681 E.07739
G1 X66.105 Y66.681 E.01314
G1 X66.105 Y64.212 E.07739
G1 X65.686 Y64.212 E.01314
G1 X65.686 Y66.681 E.07739
G1 X65.267 Y66.681 E.01314
G1 X65.267 Y64.212 E.07739
G1 X64.848 Y64.212 E.01314
G1 X64.848 Y66.681 E.07739
G1 X64.429 Y66.681 E.01314
G1 X64.429 Y64.212 E.07739
G1 X64.01 Y64.212 E.01314
G1 X64.01 Y66.681 E.07739
G1 X63.591 Y66.681 E.01314
G1 X63.591 Y64.212 E.07739
G1 X63.172 Y64.212 E.01314
G1 X63.172 Y66.681 E.07739
G1 X62.753 Y66.681 E.01314
G1 X62.753 Y64.212 E.07739
G1 X62.334 Y64.212 E.01314
G1 X62.334 Y66.681 E.07739
G1 X61.915 Y66.681 E.01314
G1 X61.915 Y64.212 E.07739
G1 X61.496 Y64.212 E.01314
G1 X61.496 Y66.965 E.08632
G1 X61.301 Y67.161 E.00865
G1 X61.301 Y70.839 E.11535
G1 X61.496 Y71.035 E.00865
G1 X61.496 Y74.067 E.09508
G1 X61.915 Y74.067 E.01314
G1 X61.915 Y71.319 E.08615
G1 X62.334 Y71.319 E.01314
G1 X62.334 Y74.067 E.08615
G1 X62.753 Y74.067 E.01314
G1 X62.753 Y71.319 E.08615
G1 X63.172 Y71.319 E.01314
G1 X63.172 Y74.067 E.08615
G1 X63.591 Y74.067 E.01314
G1 X63.591 Y71.319 E.08615
G1 X64.01 Y71.319 E.01314
G1 X64.01 Y74.067 E.08615
G1 X64.429 Y74.067 E.01314
G1 X64.429 Y71.319 E.08615
G1 X64.848 Y71.319 E.01314
G1 X64.848 Y74.067 E.08615
G1 X65.267 Y74.067 E.01314
G1 X65.267 Y71.319 E.08615
G1 X65.686 Y71.319 E.01314
G1 X65.686 Y74.067 E.08615
G1 X66.105 Y74.067 E.01314
G1 X66.105 Y71.319 E.08615
G1 X66.524 Y71.319 E.01314
G1 X66.524 Y74.067 E.08615
G1 X66.943 Y74.067 E.01314
G1 X66.943 Y71.319 E.08615
G1 X67.362 Y71.319 E.01314
G1 X67.362 Y74.067 E.08615
G1 X67.781 Y74.067 E.01314
G1 X67.781 Y71.319 E.08615
G1 X68.2 Y71.319 E.01314
G1 X68.2 Y74.067 E.08615
G1 X68.618 Y74.067 E.01314
G1 X68.618 Y71.319 E.08615
G1 X69.037 Y71.319 E.01314
G1 X69.037 Y74.067 E.08615
G1 X69.456 Y74.067 E.01314
G1 X69.456 Y71.319 E.08615
G1 X69.691 Y71.319 E.00737
G1 X69.875 Y71.335 E.00579
G1 X69.875 Y74.067 E.08564
G1 X70.294 Y74.067 E.01314
G1 X70.294 Y71.47 E.08142
G1 X70.484 Y71.598 E.00717
G1 X70.629 Y71.743 E.00643
G1 X70.713 Y71.863 E.0046
G1 X70.713 Y74.237 E.07442
M204 P1000
G1 X61.077 Y74.237 F9000
M204 P600
G1 F1200
G1 X61.077 Y64.212 E.3143
G1 X60.658 Y64.212 E.01314
G1 X60.658 Y74.067 E.30898
G1 X60.239 Y74.067 E.01314
G1 X60.239 Y64.212 E.30898
G1 X59.82 Y64.212 E.01314
G1 X59.82 Y74.067 E.30898
G1 X59.401 Y74.067 E.01314
G1 X59.401 Y64.212 E.30898
G1 X58.982 Y64.212 E.01314
G1 X58.982 Y74.067 E.30898
G1 X58.563 Y74.067 E.01314
M73 P1 R44
G1 X58.563 Y64.212 E.30898
G1 X58.144 Y64.212 E.01314
G1 X58.144 Y74.067 E.30898
G1 X57.725 Y74.067 E.01314
G1 X57.725 Y64.212 E.30898
G1 X57.306 Y64.212 E.01314
G1 X57.306 Y74.067 E.30898
G1 X56.887 Y74.067 E.01314
G1 X56.887 Y64.043 E.3143
M204 P1000
G1 E-2.24 F4200
;WIPE_START
G1 F7200
G1 X56.887 Y65.688 E-.912
;WIPE_END
G1 E-.048 F4200
G1 Z.4 F720
G1 X90.083 Y116.127 F9000
G1 Z.2 F720
G1 E3.2 F2400
M204 P600
G1 F1200
G1 X74.914 Y116.127 E.47561
G1 X74.914 Y112.98 E.09867
G1 X84.533 Y112.98 E.3016
G1 X84.814 Y112.699 E.01247
G1 X84.814 Y109.301 E.10653
G1 X84.533 Y109.02 E.01247
G1 X76.748 Y109.02 E.24409
G1 X76.464 Y108.995 E.00896
G1 X76.208 Y108.927 E.0083
G1 X75.968 Y108.815 E.0083
G1 X75.751 Y108.663 E.0083
G1 X75.564 Y108.476 E.0083
G1 X75.412 Y108.259 E.0083
G1 X75.301 Y108.019 E.0083
G1 X75.232 Y107.764 E.0083
G1 X75.207 Y107.479 E.00896
G1 X75.207 Y105.594 E.05911
G1 X90.083 Y105.594 E.46642
G1 X90.083 Y116.07 E.32849
M204 P1000
G1 X89.567 Y115.957 F9000
M204 P600
G1 F1200
G1 X89.567 Y105.933 E.3143
G1 X89.148 Y105.933 E.01314
G1 X89.148 Y115.788 E.30898
G1 X88.729 Y115.788 E.01314
G1 X88.729 Y105.933 E.30898
G1 X88.31 Y105.933 E.01314
G1 X88.31 Y115.788 E.30898
G1 X87.891 Y115.788 E.01314
G1 X87.891 Y105.933 E.30898
G1 X87.472 Y105.933 E.01314
G1 X87.472 Y115.788 E.30898
G1 X87.053 Y115.788 E.01314
G1 X87.053 Y105.933 E.30898
G1 X86.634 Y105.933 E.01314
G1 X86.634 Y115.788 E.30898
G1 X86.216 Y115.788 E.01314
G1 X86.216 Y105.933 E.30898
G1 X85.797 Y105.933 E.01314
M73 P2 R44
G1 X85.797 Y115.788 E.30898
G1 X85.378 Y115.788 E.01314
G1 X85.378 Y105.933 E.30898
G1 X84.959 Y105.933 E.01314
G1 X84.959 Y108.965 E.09508
G1 X84.674 Y108.681 E.01263
G1 X84.54 Y108.681 E.00421
G1 X84.54 Y105.933 E.08615
G1 X84.121 Y105.933 E.01314
G1 X84.121 Y108.681 E.08615
G1 X83.702 Y108.681 E.01314
G1 X83.702 Y105.933 E.08615
G1 X83.283 Y105.933 E.01314
G1 X83.283 Y108.681 E.08615
G1 X82.864 Y108.681 E.01314
G1 X82.864 Y105.933 E.08615
G1 X82.445 Y105.933 E.01314
G1 X82.445 Y108.681 E.08615
G1 X82.026 Y108.681 E.01314
G1 X82.026 Y105.933 E.08615
G1 X81.607 Y105.933 E.01314
G1 X81.607 Y108.681 E.08615
G1 X81.188 Y108.681 E.01314
G1 X81.188 Y105.933 E.08615
G1 X80.769 Y105.933 E.01314
G1 X80.769 Y108.681 E.08615
G1 X80.35 Y108.681 E.01314
G1 X80.35 Y105.933 E.08615
G1 X79.931 Y105.933 E.01314
G1 X79.931 Y108.681 E.08615
G1 X79.512 Y108.681 E.01314
G1 X79.512 Y105.933 E.08615
G1 X79.093 Y105.933 E.01314
G1 X79.093 Y108.681 E.08615
G1 X78.674 Y108.681 E.01314
G1 X78.674 Y105.933 E.08615
G1 X78.255 Y105.933 E.01314
G1 X78.255 Y108.681 E.08615
G1 X77.836 Y108.681 E.01314
G1 X77.836 Y105.933 E.08615
G1 X77.417 Y105.933 E.01314
G1 X77.417 Y108.681 E.08615
G1 X76.998 Y108.681 E.01314
G1 X76.998 Y105.933 E.08615
G1 X76.579 Y105.933 E.01314
G1 X76.579 Y108.665 E.08564
G1 X76.325 Y108.606 E.00819
G1 X76.16 Y108.53 E.00569
G1 X76.16 Y105.933 E.08142
G1 X75.741 Y105.933 E.01314
G1 X75.741 Y108.413 E.07775
M204 P1000
G1 E-2.24 F4200
;WIPE_START
G1 F7200
G1 X75.741 Y106.767 E-.912
;WIPE_END
G1 E-.048 F4200
G1 Z.4 F720
G1 X84.959 Y115.957 F9000
G1 Z.2 F720
G1 E3.2 F2400
M204 P600
G1 F1200
G1 X84.959 Y113.035 E.09164
G1 X84.674 Y113.319 E.01263
G1 X84.54 Y113.319 E.00421
G1 X84.54 Y115.788 E.07739
G1 X84.121 Y115.788 E.01314
G1 X84.121 Y113.319 E.07739
G1 X83.702 Y113.319 E.01314
G1 X83.702 Y115.788 E.07739
G1 X83.283 Y115.788 E.01314
G1 X83.283 Y113.319 E.07739
G1 X82.864 Y113.319 E.01314
G1 X82.864 Y115.788 E.07739
G1 X82.445 Y115.788 E.01314
G1 X82.445 Y113.319 E.07739
G1 X82.026 Y113.319 E.01314
G1 X82.026 Y115.788 E.07739
G1 X81.607 Y115.788 E.01314
G1 X81.607 Y113.319 E.07739
G1 X81.188 Y113.319 E.01314
G1 X81.188 Y115.788 E.07739
G1 X80.769 Y115.788 E.01314
G1 X80.769 Y113.319 E.07739
G1 X80.35 Y113.319 E.01314
G1 X80.35 Y115.788 E.07739
G1 X79.931 Y115.788 E.01314
G1 X79.931 Y113.319 E.07739
G1 X79.512 Y113.319 E.01314
G1 X79.512 Y115.788 E.07739
G1 X79.093 Y115.788 E.01314
G1 X79.093 Y113.319 E.07739
G1 X78.674 Y113.319 E.01314
G1 X78.674 Y115.788 E.07739
G1 X78.255 Y115.788 E.01314
G1 X78.255 Y113.319 E.07739
G1 X77.836 Y113.319 E.01314
G1 X77.836 Y115.788 E.07739
G1 X77.417 Y115.788 E.01314
G1 X77.417 Y113.319 E.07739
G1 X76.998 Y113.319 E.01314
G1 X76.998 Y115.788 E.07739
G1 X76.579 Y115.788 E.01314
G1 X76.579 Y113.319 E.07739
G1 X76.16 Y113.319 E.01314
G1 X76.16 Y115.788 E.07739
G1 X75.741 Y115.788 E.01314
G1 X75.741 Y113.319 E.07739
G1 X75.322 Y113.319 E.01314
G1 X75.322 Y115.957 E.08271
M204 P1000
G1 E-2.24 F4200
;WIPE_START
G1 F7200
G1 X75.322 Y114.312 E-.912
;WIPE_END
G1 E-.048 F4200
G1 Z.4 F720
G1 X71.118 Y70.09 F9000
G1 Z.2 F720
G1 E3.2 F2400
M204 P600
;TYPE:Perimeter
;WIDTH:0.419999
G1 F1200
G1 X70.726 Y69.899 E.01367
G1 X70.26 Y69.765 E.01523
G1 X69.737 Y69.713 E.01647
G1 X62.907 Y69.713 E.21414
G1 X62.907 Y68.287 E.04471
G1 X72.43 Y68.287 E.29858
G1 X72.937 Y68.308 E.01592
G1 X73.332 Y68.452 E.01317
G1 X73.654 Y68.722 E.01317
G1 X73.864 Y69.086 E.01318
G1 X73.94 Y69.534 E.01425
G1 X73.94 Y107.51 E1.19069
G1 X73.975 Y107.935 E.01339
G1 X74.093 Y108.406 E.01523
G1 X74.29 Y108.85 E.01523
G1 X74.562 Y109.253 E.01523
G1 X74.899 Y109.602 E.01523
G1 X75.292 Y109.888 E.01523
G1 X75.728 Y110.101 E.01523
G1 X76.195 Y110.235 E.01523
G1 X76.718 Y110.287 E.01647
G1 X83.547 Y110.287 E.21414
G1 X83.547 Y111.713 E.04471
G1 X74.025 Y111.713 E.29858
G1 X73.517 Y111.692 E.01592
G1 X73.122 Y111.548 E.01317
G1 X72.8 Y111.278 E.01318
G1 X72.59 Y110.914 E.01318
G1 X72.514 Y110.466 E.01425
G1 X72.514 Y72.49 E1.19069
G1 X72.479 Y72.065 E.01339
G1 X72.362 Y71.594 E.01523
G1 X72.164 Y71.15 E.01523
G1 X71.893 Y70.747 E.01523
G1 X71.556 Y70.398 E.01523
G1 X71.171 Y70.118 E.01491
M204 P1000
G1 X70.613 Y70.262 F9000
M204 P600
;TYPE:External perimeter
G1 F1200
G1 X70.162 Y70.129 E.01473
G1 X69.737 Y70.09 E.01338
G1 X62.53 Y70.09 E.22596
G1 X62.53 Y67.91 E.06835
G1 X72.43 Y67.91 E.3104
G1 X73.003 Y67.936 E.01799
G1 X73.521 Y68.124 E.0173
G1 X73.944 Y68.479 E.0173
G1 X74.22 Y68.957 E.0173
G1 X74.317 Y69.518 E.01786
G1 X74.317 Y107.51 E1.1912
G1 X74.351 Y107.902 E.01236
G1 X74.457 Y108.309 E.01317
G1 X74.648 Y108.719 E.0142
G1 X75.028 Y109.199 E.01919
G1 X75.508 Y109.579 E.01919
G1 X75.887 Y109.759 E.01317
G1 X76.293 Y109.871 E.01317
G1 X76.718 Y109.91 E.01338
G1 X83.924 Y109.91 E.22596
G1 X83.924 Y112.09 E.06835
G1 X74.025 Y112.09 E.3104
G1 X73.451 Y112.064 E.01799
G1 X72.933 Y111.876 E.0173
G1 X72.51 Y111.521 E.0173
G1 X72.235 Y111.043 E.0173
G1 X72.137 Y110.482 E.01786
G1 X72.137 Y72.49 E1.1912
G1 X72.104 Y72.098 E.01236
G1 X71.998 Y71.691 E.01317
G1 X71.806 Y71.281 E.0142
G1 X71.426 Y70.801 E.01919
G1 X70.947 Y70.421 E.01919
G1 X70.667 Y70.288 E.00971
M204 P1000
G1 X70.558 Y69.866 F9000
G1 E-2.24 F4200
;WIPE_START
G1 F7200
G1 X70.162 Y70.129 E-.29325
G1 X69.737 Y70.09 E-.23655
G1 X69.047 Y70.09 E-.3822
;WIPE_END
G1 E-.048 F4200
G1 Z.4 F720
G1 X73.744 Y69.295 F9000
G1 Z.2 F720
G1 E3.2 F2400
M204 P600
;TYPE:Solid infill
;WIDTH:0.422835
G1 F1200
G1 X73.279 Y68.829 E.02079
G1 X73.162 Y68.747 E.00452
G1 X73.025 Y68.683 E.00479
G1 X72.878 Y68.644 E.00479
G1 X72.539 Y68.626 E.01073
G1 X73.601 Y69.688 E.04744
G1 X73.601 Y70.226 E.01697
G1 X72.002 Y68.626 E.07144
G1 X71.464 Y68.626 E.01697
G1 X73.601 Y70.763 E.09544
G1 X73.601 Y71.3 E.01697
G1 X70.927 Y68.626 E.11945
G1 X70.39 Y68.626 E.01697
G1 X73.601 Y71.837 E.14345
G1 X73.601 Y72.375 E.01697
G1 X72.66 Y71.434 E.04204
G1 X72.467 Y70.996 E.01511
G1 X72.165 Y70.544 E.01716
G1 X71.788 Y70.149 E.01726
G1 X71.233 Y69.761 E.0214
G1 X70.794 Y69.567 E.01516
G1 X69.853 Y68.626 E.04204
G1 X69.315 Y68.626 E.01697
G1 X70.099 Y69.41 E.035
G1 X69.745 Y69.374 E.01124
G1 X69.525 Y69.374 E.00693
G1 X68.778 Y68.626 E.03338
G1 X68.241 Y68.626 E.01697
G1 X68.988 Y69.374 E.03338
G1 X68.451 Y69.374 E.01697
G1 X67.703 Y68.626 E.03338
G1 X67.166 Y68.626 E.01697
G1 X67.913 Y69.374 E.03338
G1 X67.376 Y69.374 E.01697
G1 X66.629 Y68.626 E.03338
G1 X66.092 Y68.626 E.01697
G1 X66.839 Y69.374 E.03338
G1 X66.301 Y69.374 E.01697
G1 X65.554 Y68.626 E.03338
G1 X65.017 Y68.626 E.01697
G1 X65.764 Y69.374 E.03338
G1 X65.227 Y69.374 E.01697
G1 X64.48 Y68.626 E.03338
G1 X63.942 Y68.626 E.01697
G1 X64.69 Y69.374 E.03338
G1 X64.152 Y69.374 E.01697
G1 X63.405 Y68.626 E.03338
G1 X63.247 Y68.626 E.00501
G1 X63.247 Y69.005 E.01196
G1 X63.785 Y69.543 E.02404
M204 P1000
G1 E-2.24 F4200
;WIPE_START
G1 F7200
G1 X63.247 Y69.005 E-.42175
G1 X63.247 Y68.626 E-.20985
G1 X63.405 Y68.626 E-.0879
G1 X63.651 Y68.872 E-.19251
;WIPE_END
G1 E-.048 F4200
G1 Z.4 F720
G1 X72.627 Y71.938 F9000
G1 Z.2 F720
G1 E3.2 F2400
M204 P600
G1 F1200
G1 X73.601 Y72.912 E.04349
G1 X73.601 Y73.449 E.01697
G1 X72.854 Y72.702 E.03338
G1 X72.854 Y73.239 E.01697
G1 X73.601 Y73.987 E.03338
G1 X73.601 Y74.524 E.01697
G1 X72.854 Y73.777 E.03338
G1 X72.854 Y74.314 E.01697
G1 X73.601 Y75.061 E.03338
G1 X73.601 Y75.598 E.01697
G1 X72.854 Y74.851 E.03338
G1 X72.854 Y75.389 E.01697
G1 X73.601 Y76.136 E.03338
G1 X73.601 Y76.673 E.01697
G1 X72.854 Y75.926 E.03338
M73 P3 R44
G1 X72.854 Y76.463 E.01697
G1 X73.601 Y77.21 E.03338
G1 X73.601 Y77.747 E.01697
G1 X72.854 Y77 E.03338
G1 X72.854 Y77.538 E.01697
G1 X73.601 Y78.285 E.03338
G1 X73.601 Y78.822 E.01697
G1 X72.854 Y78.075 E.03338
G1 X72.854 Y78.612 E.01697
G1 X73.601 Y79.359 E.03338
G1 X73.601 Y79.897 E.01697
G1 X72.854 Y79.149 E.03338
G1 X72.854 Y79.687 E.01697
G1 X73.601 Y80.434 E.03338
G1 X73.601 Y80.971 E.01697
G1 X72.854 Y80.224 E.03338
G1 X72.854 Y80.761 E.01697
G1 X73.601 Y81.508 E.03338
G1 X73.601 Y82.046 E.01697
G1 X72.854 Y81.299 E.03338
