; generated by PrusaSlicer 2.5.2+win64 on 2023-05-24 at 07:21:49 UTC


;
;

;
;
; 

; external perimeters extrusion width = 0.45mm
; perimeters extrusion width = 0.45mm
; infill extrusion width = 0.45mm
; solid infill extrusion width = 0.45mm
; top infill extrusion width = 0.40mm
; support material extrusion width = 0.35mm
; first layer extrusion width = 0.42mm

M73 P0 R40
M201 X2500 Y2500 Z400 E5000 ; sets maximum accelerations, mm/sec^2
M203 X180 Y180 Z12 E80 ; sets maximum feedrates, mm / sec
M204 P2000 R1250 T2500 ; sets acceleration (P, T) and retract acceleration (R), mm/sec^2
M205 X8.00 Y8.00 Z2.00 E10.00 ; sets the jerk limits, mm/sec
M205 S0 T0 ; sets the minimum extruding and travel feed rate, mm/sec
M107
;TYPE:Custom
M862.3 P "MINI" ; printer model check
G90 ; use absolute coordinates
M83 ; extruder relative mode
M104 S170 ; set extruder temp for bed leveling
M140 S60 ; set bed temp
M109 R170 ; wait for bed leveling temp
M190 S60 ; wait for bed temp
M204 T1250 ; set travel acceleration
G28 ; home all without mesh bed level
G29 ; mesh bed leveling 
M204 T2500 ; restore travel acceleration
M104 S215 ; set extruder temp
G92 E0
G1 Y-2 X179 F2400
G1 Z3 F720
M109 S215 ; wait for extruder temp

; intro line
G1 X170 F1000
G1 Z0.2 F720
G1 X110 E8 F900
G1 X40 E10 F700
G92 E0

M221 S95 ; set flow
G21 ; set units to millimeters
G90 ; use absolute coordinates
M83 ; use relative distances for extrusion
M900 K0.2 ; Filament gcode LA 1.5
; ; Filament gcode LA 1.0
M107
;LAYER_CHANGE
;Z:0.2
;HEIGHT:0.2
;BEFORE_LAYER_CHANGE
G92 E0.0
;0.2


G1 E-3.2 F4200
G1 Z.2 F720
;AFTER_LAYER_CHANGE
;0.2
G1 Z.4
G1 X67.787 Y77.034 F9000
G1 Z.2 F720
G1 E3.2 F2400
M204 P600
;TYPE:Skirt/Brim
;WIDTH:0.42
G1 F1200
G1 X68.627 Y76.327 E.03441
G1 X69.299 Y75.972 E.02384
G1 X70.244 Y75.689 E.03092
G1 X98.231 Y70.803 E.8908
G1 X113.809 Y70.767 E.48843
G1 X115.116 Y71.159 E.04278
G1 X115.993 Y72.205 E.04278
G1 X116.186 Y73.144 E.03008
G1 X116.186 Y106.856 E1.057
G1 X115.795 Y108.163 E.04278
G1 X114.749 Y109.039 E.04278
G1 X113.809 Y109.233 E.03008
G1 X98.231 Y109.197 E.48843
G1 X70.037 Y104.266 E.89742
G1 X69.311 Y104.034 E.0239
G1 X68.637 Y103.679 E.0239
G1 X68.034 Y103.213 E.0239
G1 X67.327 Y102.373 E.03441
G1 X66.825 Y101.299 E.03717
G1 X66.623 Y100 E.04123
G1 X66.632 Y79.793 E.63358
G1 X66.821 Y78.714 E.03436
G1 X67.307 Y77.66 E.03638
M73 P1 R40
G1 X67.751 Y77.081 E.02286
M204 P1000
; printing object slingshot arm holder large.STL id:0 copy 0
G1 E-2.24 F4200
;WIPE_START
G1 F7200
G1 X68.627 Y76.327 E-.64063
G1 X69.06 Y76.099 E-.27137
;WIPE_END
G1 E-.048 F4200
G1 Z.4 F720
G1 X113.809 Y85.995 F9000
G1 Z.2 F720
G1 E3.2 F2400
M204 P600
;TYPE:Support material
G1 F1200
G1 X98.64 Y85.995 E.47561
G1 X98.64 Y81.48 E.14158
G1 X109.806 Y81.48 E.35009
G1 X110.087 Y81.199 E.01247
G1 X110.087 Y77.801 E.10653
G1 X109.806 Y77.52 E.01247
G1 X98.64 Y77.52 E.35009
G1 X98.64 Y73.144 E.1372
G1 X113.809 Y73.144 E.47561
G1 X113.809 Y85.939 E.40116
M204 P1000
G1 X113.463 Y85.826 F9000
M204 P600
G1 F1200
G1 X113.463 Y73.484 E.38697
G1 X113.044 Y73.484 E.01314
G1 X113.044 Y85.656 E.38165
G1 X112.625 Y85.656 E.01314
G1 X112.625 Y73.484 E.38165
G1 X112.206 Y73.484 E.01314
G1 X112.206 Y85.656 E.38165
G1 X111.787 Y85.656 E.01314
G1 X111.787 Y73.484 E.38165
G1 X111.368 Y73.484 E.01314
G1 X111.368 Y85.656 E.38165
G1 X110.949 Y85.656 E.01314
G1 X110.949 Y73.484 E.38165
G1 X110.53 Y73.484 E.01314
G1 X110.53 Y85.656 E.38165
G1 X110.111 Y85.656 E.01314
G1 X110.111 Y81.655 E.12545
G1 X109.947 Y81.819 E.00729
G1 X109.692 Y81.819 E.00798
G1 X109.692 Y85.656 E.1203
G1 X109.273 Y85.656 E.01314
G1 X109.273 Y81.819 E.1203
G1 X108.854 Y81.819 E.01314
M73 P1 R39
G1 X108.854 Y85.656 E.1203
G1 X108.435 Y85.656 E.01314
G1 X108.435 Y81.819 E.1203
G1 X108.016 Y81.819 E.01314
G1 X108.016 Y85.656 E.1203
G1 X107.597 Y85.656 E.01314
G1 X107.597 Y81.819 E.1203
G1 X107.178 Y81.819 E.01314
G1 X107.178 Y85.656 E.1203
G1 X106.759 Y85.656 E.01314
G1 X106.759 Y81.819 E.1203
G1 X106.34 Y81.819 E.01314
G1 X106.34 Y85.656 E.1203
G1 X105.921 Y85.656 E.01314
G1 X105.921 Y81.819 E.1203
G1 X105.502 Y81.819 E.01314
G1 X105.502 Y85.656 E.1203
G1 X105.083 Y85.656 E.01314
G1 X105.083 Y81.819 E.1203
G1 X104.664 Y81.819 E.01314
G1 X104.664 Y85.656 E.1203
G1 X104.245 Y85.656 E.01314
G1 X104.245 Y81.819 E.1203
G1 X103.826 Y81.819 E.01314
G1 X103.826 Y85.656 E.1203
G1 X103.407 Y85.656 E.01314
G1 X103.407 Y81.819 E.1203
G1 X102.988 Y81.819 E.01314
G1 X102.988 Y85.656 E.1203
G1 X102.569 Y85.656 E.01314
G1 X102.569 Y81.819 E.1203
G1 X102.15 Y81.819 E.01314
G1 X102.15 Y85.656 E.1203
G1 X101.731 Y85.656 E.01314
G1 X101.731 Y81.819 E.1203
G1 X101.312 Y81.819 E.01314
G1 X101.312 Y85.656 E.1203
G1 X100.893 Y85.656 E.01314
G1 X100.893 Y81.819 E.1203
G1 X100.474 Y81.819 E.01314
G1 X100.474 Y85.656 E.1203
G1 X100.055 Y85.656 E.01314
G1 X100.055 Y81.819 E.1203
G1 X99.636 Y81.819 E.01314
G1 X99.636 Y85.656 E.1203
G1 X99.217 Y85.656 E.01314
G1 X99.217 Y81.65 E.12562
M204 P1000
G1 E-2.24 F4200
;WIPE_START
G1 F7200
G1 X99.217 Y83.295 E-.912
;WIPE_END
G1 E-.048 F4200
G1 Z.4 F720
G1 X110.111 Y77.585 F9000
G1 Z.2 F720
G1 E3.2 F2400
M204 P600
G1 F1200
G1 X110.111 Y73.484 E.12859
G1 X109.692 Y73.484 E.01314
G1 X109.692 Y77.181 E.11591
G1 X109.273 Y77.181 E.01314
G1 X109.273 Y73.484 E.11591
G1 X108.854 Y73.484 E.01314
G1 X108.854 Y77.181 E.11591
G1 X108.435 Y77.181 E.01314
G1 X108.435 Y73.484 E.11591
G1 X108.016 Y73.484 E.01314
G1 X108.016 Y77.181 E.11591
G1 X107.597 Y77.181 E.01314
G1 X107.597 Y73.484 E.11591
G1 X107.178 Y73.484 E.01314
G1 X107.178 Y77.181 E.11591
G1 X106.759 Y77.181 E.01314
G1 X106.759 Y73.484 E.11591
G1 X106.34 Y73.484 E.01314
G1 X106.34 Y77.181 E.11591
G1 X105.921 Y77.181 E.01314
G1 X105.921 Y73.484 E.11591
G1 X105.502 Y73.484 E.01314
G1 X105.502 Y77.181 E.11591
G1 X105.083 Y77.181 E.01314
G1 X105.083 Y73.484 E.11591
G1 X104.664 Y73.484 E.01314
G1 X104.664 Y77.181 E.11591
G1 X104.245 Y77.181 E.01314
G1 X104.245 Y73.484 E.11591
G1 X103.826 Y73.484 E.01314
G1 X103.826 Y77.181 E.11591
G1 X103.407 Y77.181 E.01314
G1 X103.407 Y73.484 E.11591
G1 X102.988 Y73.484 E.01314
G1 X102.988 Y77.181 E.11591
G1 X102.569 Y77.181 E.01314
G1 X102.569 Y73.484 E.11591
G1 X102.15 Y73.484 E.01314
G1 X102.15 Y77.181 E.11591
G1 X101.731 Y77.181 E.01314
G1 X101.731 Y73.484 E.11591
G1 X101.312 Y73.484 E.01314
G1 X101.312 Y77.181 E.11591
G1 X100.893 Y77.181 E.01314
G1 X100.893 Y73.484 E.11591
G1 X100.474 Y73.484 E.01314
G1 X100.474 Y77.181 E.11591
G1 X100.055 Y77.181 E.01314
G1 X100.055 Y73.484 E.11591
G1 X99.636 Y73.484 E.01314
G1 X99.636 Y77.181 E.11591
G1 X99.217 Y77.181 E.01314
G1 X99.217 Y73.314 E.12123
M204 P1000
G1 E-2.24 F4200
;WIPE_START
G1 F7200
G1 X99.217 Y74.96 E-.912
;WIPE_END
G1 E-.048 F4200
G1 Z.4 F720
G1 X113.809 Y106.856 F9000
G1 Z.2 F720
G1 E3.2 F2400
M204 P600
G1 F1200
G1 X98.64 Y106.856 E.47561
G1 X98.64 Y102.48 E.1372
M73 P2 R39
G1 X109.806 Y102.48 E.35009
G1 X110.087 Y102.199 E.01247
G1 X110.087 Y98.801 E.10653
G1 X109.806 Y98.52 E.01247
G1 X98.64 Y98.52 E.35009
G1 X98.64 Y94.005 E.14158
G1 X113.809 Y94.005 E.47561
G1 X113.809 Y106.799 E.40116
M204 P1000
G1 X113.463 Y106.686 F9000
M204 P600
G1 F1200
G1 X113.463 Y94.344 E.38697
G1 X113.044 Y94.344 E.01314
G1 X113.044 Y106.516 E.38165
G1 X112.625 Y106.516 E.01314
G1 X112.625 Y94.344 E.38165
G1 X112.206 Y94.344 E.01314
G1 X112.206 Y106.516 E.38165
G1 X111.787 Y106.516 E.01314
G1 X111.787 Y94.344 E.38165
G1 X111.368 Y94.344 E.01314
G1 X111.368 Y106.516 E.38165
G1 X110.949 Y106.516 E.01314
G1 X110.949 Y94.344 E.38165
G1 X110.53 Y94.344 E.01314
G1 X110.53 Y106.516 E.38165
G1 X110.111 Y106.516 E.01314
G1 X110.111 Y102.655 E.12107
G1 X109.947 Y102.819 E.00729
G1 X109.692 Y102.819 E.00798
G1 X109.692 Y106.516 E.11591
G1 X109.273 Y106.516 E.01314
G1 X109.273 Y102.819 E.11591
G1 X108.854 Y102.819 E.01314
G1 X108.854 Y106.516 E.11591
G1 X108.435 Y106.516 E.01314
G1 X108.435 Y102.819 E.11591
G1 X108.016 Y102.819 E.01314
G1 X108.016 Y106.516 E.11591
G1 X107.597 Y106.516 E.01314
G1 X107.597 Y102.819 E.11591
G1 X107.178 Y102.819 E.01314
G1 X107.178 Y106.516 E.11591
G1 X106.759 Y106.516 E.01314
G1 X106.759 Y102.819 E.11591
G1 X106.34 Y102.819 E.01314
G1 X106.34 Y106.516 E.11591
G1 X105.921 Y106.516 E.01314
G1 X105.921 Y102.819 E.11591
G1 X105.502 Y102.819 E.01314
G1 X105.502 Y106.516 E.11591
G1 X105.083 Y106.516 E.01314
G1 X105.083 Y102.819 E.11591
G1 X104.664 Y102.819 E.01314
G1 X104.664 Y106.516 E.11591
G1 X104.245 Y106.516 E.01314
G1 X104.245 Y102.819 E.11591
G1 X103.826 Y102.819 E.01314
G1 X103.826 Y106.516 E.11591
G1 X103.407 Y106.516 E.01314
G1 X103.407 Y102.819 E.11591
G1 X102.988 Y102.819 E.01314
G1 X102.988 Y106.516 E.11591
G1 X102.569 Y106.516 E.01314
G1 X102.569 Y102.819 E.11591
G1 X102.15 Y102.819 E.01314
G1 X102.15 Y106.516 E.11591
G1 X101.731 Y106.516 E.01314
G1 X101.731 Y102.819 E.11591
G1 X101.312 Y102.819 E.01314
G1 X101.312 Y106.516 E.11591
G1 X100.893 Y106.516 E.01314
G1 X100.893 Y102.819 E.11591
G1 X100.474 Y102.819 E.01314
G1 X100.474 Y106.516 E.11591
G1 X100.055 Y106.516 E.01314
G1 X100.055 Y102.819 E.11591
G1 X99.636 Y102.819 E.01314
G1 X99.636 Y106.516 E.11591
G1 X99.217 Y106.516 E.01314
G1 X99.217 Y102.65 E.12124
M204 P1000
G1 E-2.24 F4200
;WIPE_START
G1 F7200
G1 X99.217 Y104.295 E-.912
;WIPE_END
G1 E-.048 F4200
G1 Z.4 F720
G1 X110.111 Y98.585 F9000
G1 Z.2 F720
G1 E3.2 F2400
M204 P600
G1 F1200
G1 X110.111 Y94.344 E.13297
G1 X109.692 Y94.344 E.01314
G1 X109.692 Y98.181 E.12029
G1 X109.273 Y98.181 E.01314
G1 X109.273 Y94.344 E.12029
G1 X108.854 Y94.344 E.01314
G1 X108.854 Y98.181 E.12029
G1 X108.435 Y98.181 E.01314
G1 X108.435 Y94.344 E.12029
G1 X108.016 Y94.344 E.01314
G1 X108.016 Y98.181 E.12029
G1 X107.597 Y98.181 E.01314
G1 X107.597 Y94.344 E.12029
G1 X107.178 Y94.344 E.01314
G1 X107.178 Y98.181 E.12029
G1 X106.759 Y98.181 E.01314
G1 X106.759 Y94.344 E.12029
G1 X106.34 Y94.344 E.01314
G1 X106.34 Y98.181 E.12029
G1 X105.921 Y98.181 E.01314
G1 X105.921 Y94.344 E.12029
G1 X105.502 Y94.344 E.01314
G1 X105.502 Y98.181 E.12029
G1 X105.083 Y98.181 E.01314
G1 X105.083 Y94.344 E.12029
G1 X104.664 Y94.344 E.01314
G1 X104.664 Y98.181 E.12029
G1 X104.245 Y98.181 E.01314
G1 X104.245 Y94.344 E.12029
G1 X103.826 Y94.344 E.01314
G1 X103.826 Y98.181 E.12029
G1 X103.407 Y98.181 E.01314
G1 X103.407 Y94.344 E.12029
G1 X102.988 Y94.344 E.01314
G1 X102.988 Y98.181 E.12029
G1 X102.569 Y98.181 E.01314
G1 X102.569 Y94.344 E.12029
G1 X102.15 Y94.344 E.01314
G1 X102.15 Y98.181 E.12029
G1 X101.731 Y98.181 E.01314
G1 X101.731 Y94.344 E.12029
G1 X101.312 Y94.344 E.01314
G1 X101.312 Y98.181 E.12029
G1 X100.893 Y98.181 E.01314
G1 X100.893 Y94.344 E.12029
G1 X100.474 Y94.344 E.01314
G1 X100.474 Y98.181 E.12029
G1 X100.055 Y98.181 E.01314
G1 X100.055 Y94.344 E.12029
G1 X99.636 Y94.344 E.01314
G1 X99.636 Y98.181 E.12029
G1 X99.217 Y98.181 E.01314
G1 X99.217 Y94.174 E.12562
M204 P1000
G1 E-2.24 F4200
;WIPE_START
G1 F7200
G1 X99.217 Y95.82 E-.912
;WIPE_END
G1 E-.048 F4200
G1 Z.4 F720
G1 X95.236 Y99.305 F9000
G1 Z.2 F720
G1 E3.2 F2400
M204 P600
;TYPE:Perimeter
;WIDTH:0.419999
G1 F1200
G1 X95.291 Y99.507 E.00659
G1 X95.497 Y99.712 E.00911
G1 X95.779 Y99.787 E.00914
G1 X108.82 Y99.787 E.40891
G1 X108.82 Y100.5 E.02235
G1 X108.82 Y101.213 E.02235
G1 X71.528 Y101.213 E1.16927
G1 X70.79 Y101.192 E.02315
M73 P3 R39
G1 X70.395 Y101.048 E.01318
G1 X70.073 Y100.778 E.01317
G1 X69.863 Y100.414 E.01318
G1 X69.787 Y99.966 E.01425
G1 X69.787 Y98.572 E.04371
;WIDTH:0.455523
G1 X69.805 Y97.764 E.0277
G1 X69.792 Y96.957 E.0277
;WIDTH:0.430694
G1 X69.787 Y96.428 E.01705
;WIDTH:0.419999
G1 X69.787 Y83.572 E.40312
;WIDTH:0.455523
G1 X69.805 Y82.764 E.0277
G1 X69.792 Y81.957 E.0277
;WIDTH:0.430694
G1 X69.787 Y81.428 E.01705
;WIDTH:0.419999
G1 X69.808 Y79.79 E.05138
G1 X69.952 Y79.395 E.01318
G1 X70.222 Y79.073 E.01318
G1 X70.586 Y78.863 E.01317
G1 X71.034 Y78.787 E.01425
G1 X108.82 Y78.787 E1.18474
G1 X108.82 Y80.213 E.04471
G1 X95.779 Y80.213 E.40891
G1 X95.497 Y80.288 E.00914
G1 X95.291 Y80.493 E.00911
G1 X95.213 Y80.779 E.00929
G1 X95.213 Y81.428 E.02038
;WIDTH:0.455522
G1 X95.2 Y83.043 E.05539
;WIDTH:0.446746
G1 X95.213 Y83.572 E.01776
;WIDTH:0.419999
G1 X95.213 Y96.429 E.40312
;WIDTH:0.455522
G1 X95.2 Y98.043 E.05539
;WIDTH:0.446745
G1 X95.213 Y98.572 E.01776
;WIDTH:0.419999
G1 X95.22 Y99.247 E.02118
M204 P1000
G1 X95.59 Y99.221 F9000
M204 P600
;TYPE:External perimeter
G1 F1200
G1 X95.622 Y99.327 E.00344
G1 X95.779 Y99.41 E.00556
G1 X109.197 Y99.41 E.42073
G1 X109.197 Y101.59 E.06835
G1 X71.528 Y101.59 E1.18109
G1 X70.724 Y101.564 E.02521
G1 X70.206 Y101.376 E.0173
G1 X69.783 Y101.021 E.0173
G1 X69.507 Y100.543 E.0173
G1 X69.41 Y99.982 E.01786
G1 X69.41 Y80.57 E.60867
G1 X69.436 Y79.724 E.02652
G1 X69.624 Y79.206 E.0173
G1 X69.979 Y78.783 E.0173
G1 X70.457 Y78.507 E.0173
G1 X71.018 Y78.41 E.01786
G1 X109.197 Y78.41 E1.19708
G1 X109.197 Y80.59 E.06835
G1 X95.779 Y80.59 E.42073
G1 X95.746 Y80.593 E.00103
G1 X95.622 Y80.673 E.00464
G1 X95.59 Y80.779 E.00344
G1 X95.59 Y99.161 E.57638
M204 P1000
G1 X95.507 Y99.294 F9000
G1 E-2.24 F4200
;WIPE_START
G1 F7200
G1 X95.622 Y99.327 E-.09319
G1 X95.779 Y99.41 E-.0983
G1 X97.079 Y99.41 E-.72051
;WIPE_END
G1 E-.048 F4200
G1 Z.4 F720
G1 X70.514 Y98.546 F9000
G1 Z.2 F720
G1 E3.2 F2400
M204 P600
;TYPE:Perimeter
;WIDTH:0.446747
G1 F1200
G1 X70.257 Y97.962 E.02141
;WIDTH:0.455523
G1 X70.217 Y97.764 E.00693
G1 X70.217 Y97.236 E.01814
G1 X70.45 Y96.545 E.02499
;WIDTH:0.419999
G1 X70.888 Y95.97 E.02267
G1 X71.497 Y95.58 E.02267
G1 X72.29 Y95.413 E.02543
G1 X92.71 Y95.413 E.64023
G1 X93.32 Y95.513 E.01938
G1 X93.961 Y95.844 E.02264
G1 X94.452 Y96.375 E.02267
;WIDTH:0.430695
G1 X94.736 Y97.04 E.02332
;WIDTH:0.455522
G1 X94.783 Y97.236 E.00689
G1 X94.783 Y97.764 E.01814
;WIDTH:0.461504
G1 X94.777 Y97.866 E.00353
G1 X94.55 Y98.455 E.02197
;WIDTH:0.419999
G1 X94.246 Y98.87 E.01612
G1 X93.961 Y99.156 E.01267
G1 X93.503 Y99.42 E.01658
G1 X92.71 Y99.587 E.02543
G1 X72.29 Y99.587 E.64023
G1 X71.68 Y99.487 E.01938
G1 X71.191 Y99.244 E.01714
G1 X70.888 Y99.03 E.01163
G1 X70.548 Y98.625 E.01658
;WIDTH:0.446747
G1 X70.538 Y98.601 E.00087
M204 P1000
G1 X70.89 Y98.44 F9000
M204 P600
;TYPE:External perimeter
;WIDTH:0.419999
G1 F1200
G1 X70.837 Y98.382 E.00244
G1 X70.624 Y97.829 E.0186
G1 X70.612 Y97.236 E.0186
G1 X70.804 Y96.674 E.0186
G1 X71.177 Y96.213 E.0186
G1 X71.685 Y95.906 E.0186
G1 X72.29 Y95.79 E.01932
G1 X92.71 Y95.79 E.64023
G1 X93.254 Y95.884 E.01731
G1 X93.773 Y96.171 E.01859
G1 X94.163 Y96.618 E.0186
G1 X94.376 Y97.171 E.0186
G1 X94.385 Y97.797 E.01962
G1 X94.196 Y98.326 E.01761
G1 X93.823 Y98.787 E.0186
G1 X93.315 Y99.094 E.0186
G1 X92.71 Y99.21 E.01932
G1 X72.29 Y99.21 E.64023
G1 X71.746 Y99.116 E.01731
G1 X71.27 Y98.854 E.01705
G1 X70.93 Y98.484 E.01575
M204 P1000
G1 X70.815 Y98.461 F9000
G1 E-2.24 F4200
;WIPE_START
G1 F7200
G1 X70.837 Y98.382 E-.07645
G1 X70.624 Y97.829 E-.32877
G1 X70.612 Y97.236 E-.32879
G1 X70.716 Y96.932 E-.17799
;WIPE_END
G1 E-.048 F4200
G1 Z.4 F720
G1 X93.994 Y80.882 F9000
G1 Z.2 F720
G1 E3.2 F2400
M204 P600
;TYPE:Perimeter
G1 F1200
G1 X94.112 Y80.97 E.00461
G1 X94.452 Y81.375 E.01658
;WIDTH:0.430694
G1 X94.736 Y82.04 E.02332
;WIDTH:0.455522
G1 X94.783 Y82.236 E.00689
G1 X94.783 Y82.764 E.01814
;WIDTH:0.461504
G1 X94.777 Y82.866 E.00353
G1 X94.55 Y83.455 E.02197
;WIDTH:0.419999
G1 X94.112 Y84.03 E.02267
G1 X93.503 Y84.42 E.02267
G1 X92.71 Y84.587 E.02543
G1 X72.29 Y84.587 E.64023
G1 X71.68 Y84.487 E.01938
G1 X71.039 Y84.156 E.02264
G1 X70.548 Y83.625 E.02267
;WIDTH:0.446747
G1 X70.257 Y82.962 E.0243
;WIDTH:0.455523
G1 X70.217 Y82.764 E.00693
G1 X70.217 Y82.236 E.01814
G1 X70.45 Y81.545 E.02499
;WIDTH:0.419999
G1 X70.888 Y80.97 E.02267
G1 X71.306 Y80.69 E.01576
G1 X71.68 Y80.513 E.013
G1 X72.29 Y80.413 E.01938
G1 X92.71 Y80.413 E.64023
G1 X93.32 Y80.513 E.01938
G1 X93.877 Y80.795 E.0196
G1 X93.946 Y80.846 E.00268
M204 P1000
G1 X93.84 Y81.248 F9000
M204 P600
;TYPE:External perimeter
G1 F1200
G1 X94.163 Y81.618 E.01538
G1 X94.376 Y82.171 E.0186
G1 X94.385 Y82.797 E.01962
G1 X94.196 Y83.326 E.01761
G1 X93.823 Y83.787 E.0186
