; generated by PrusaSlicer 2.5.2+win64 on 2023-05-24 at 07:23:40 UTC


;
;

;
;
; 

; external perimeters extrusion width = 0.45mm
; perimeters extrusion width = 0.45mm
; infill extrusion width = 0.45mm
; solid infill extrusion width = 0.45mm
; top infill extrusion width = 0.40mm
; support material extrusion width = 0.35mm
; first layer extrusion width = 0.42mm

M73 P0 R16
M201 X2500 Y2500 Z400 E5000 ; sets maximum accelerations, mm/sec^2
M203 X180 Y180 Z12 E80 ; sets maximum feedrates, mm / sec
M204 P2000 R1250 T2500 ; sets acceleration (P, T) and retract acceleration (R), mm/sec^2
M205 X8.00 Y8.00 Z2.00 E10.00 ; sets the jerk limits, mm/sec
M205 S0 T0 ; sets the minimum extruding and travel feed rate, mm/sec
M107
;TYPE:Custom
M862.3 P "MINI" ; printer model check
G90 ; use absolute coordinates
M83 ; extruder relative mode
M104 S170 ; set extruder temp for bed leveling
M140 S60 ; set bed temp
M109 R170 ; wait for bed leveling temp
M190 S60 ; wait for bed temp
M204 T1250 ; set travel acceleration
G28 ; home all without mesh bed level
G29 ; mesh bed leveling 
M204 T2500 ; restore travel acceleration
M104 S215 ; set extruder temp
G92 E0
G1 Y-2 X179 F2400
G1 Z3 F720
M109 S215 ; wait for extruder temp

; intro line
G1 X170 F1000
G1 Z0.2 F720
G1 X110 E8 F900
G1 X40 E10 F700
G92 E0

M221 S95 ; set flow
G21 ; set units to millimeters
G90 ; use absolute coordinates
M83 ; use relative distances for extrusion
M900 K0.2 ; Filament gcode LA 1.5
; ; Filament gcode LA 1.0
M107
;LAYER_CHANGE
;Z:0.2
;HEIGHT:0.2
;BEFORE_LAYER_CHANGE
G92 E0.0
;0.2


G1 E-3.2 F4200
M73 P1 R16
G1 Z.2 F720
;AFTER_LAYER_CHANGE
;0.2
G1 Z.4
G1 X83.022 Y82.455 F9000
G1 Z.2 F720
G1 E3.2 F2400
M204 P600
;TYPE:Skirt/Brim
;WIDTH:0.42
G1 F1200
G1 X83.781 Y81.817 E.03108
G1 X84.668 Y81.211 E.03371
G1 X85.296 Y80.862 E.02252
G1 X86.694 Y80.266 E.04764
G1 X88.435 Y79.84 E.05619
G1 X89.504 Y79.734 E.03371
G1 X90.496 Y79.734 E.03107
G1 X92.271 Y79.976 E.05617
G1 X93.977 Y80.523 E.05617
G1 X95.332 Y81.211 E.04764
G1 X96.219 Y81.817 E.03371
G1 X97.545 Y83.022 E.05617
G1 X98.183 Y83.781 E.03108
G1 X98.789 Y84.668 E.03371
G1 X99.582 Y86.276 E.05618
G1 X100.083 Y87.996 E.05618
G1 X100.196 Y88.705 E.02252
G1 X100.278 Y90.223 E.04764
G1 X100.083 Y92.004 E.05619
G1 X99.816 Y93.045 E.03371
G1 X99.477 Y93.977 E.03108
G1 X98.789 Y95.332 E.04764
G1 X98.183 Y96.219 E.03371
G1 X96.978 Y97.545 E.05617
G1 X96.219 Y98.183 E.03108
G1 X95.332 Y98.789 E.03371
G1 X93.724 Y99.582 E.05618
G1 X92.004 Y100.083 E.05618
G1 X91.295 Y100.196 E.02252
G1 X89.777 Y100.278 E.04764
G1 X87.996 Y100.083 E.05619
G1 X86.955 Y99.816 E.03371
G1 X86.023 Y99.477 E.03108
G1 X85.054 Y99.012 E.03371
G1 X83.781 Y98.183 E.04764
G1 X82.455 Y96.978 E.05617
G1 X81.817 Y96.219 E.03108
G1 X81.211 Y95.332 E.03371
G1 X80.418 Y93.724 E.05618
G1 X79.917 Y92.004 E.05618
G1 X79.804 Y91.295 E.02252
G1 X79.722 Y89.777 E.04764
G1 X79.917 Y87.996 E.05619
G1 X80.184 Y86.955 E.03371
G1 X80.523 Y86.023 E.03108
G1 X81.211 Y84.668 E.04764
G1 X81.817 Y83.781 E.03371
G1 X82.981 Y82.499 E.05429
M204 P1000
G1 X83.26 Y82.753 F9000
M204 P600
G1 F1200
G1 X84.857 Y81.537 E.06293
G1 X86.823 Y80.62 E.06802
G1 X88.5 Y80.211 E.05413
G1 X90.463 Y80.11 E.06162
G1 X92.173 Y80.341 E.05412
G1 X93.817 Y80.865 E.05411
G1 X95.143 Y81.537 E.04661
G1 X96.003 Y82.126 E.03268
M73 P2 R16
G1 X97.279 Y83.288 E.05411
G1 X98.463 Y84.857 E.06162
G1 X99.227 Y86.405 E.05412
G1 X99.711 Y88.061 E.05412
G1 X99.901 Y90.223 E.06802
G1 X99.711 Y91.939 E.05412
G1 X99.135 Y93.817 E.06162
G1 X98.463 Y95.143 E.04661
G1 X97.874 Y96.003 E.03268
G1 X96.712 Y97.279 E.05411
G1 X95.143 Y98.463 E.06162
G1 X93.595 Y99.227 E.05412
G1 X91.939 Y99.711 E.05412
G1 X89.777 Y99.901 E.06802
G1 X88.061 Y99.711 E.05412
G1 X86.183 Y99.135 E.06162
G1 X85.243 Y98.685 E.03268
G1 X83.997 Y97.874 E.04661
G1 X82.721 Y96.712 E.05411
G1 X81.537 Y95.143 E.06162
G1 X80.773 Y93.595 E.05412
G1 X80.289 Y91.939 E.05412
G1 X80.099 Y89.777 E.06802
G1 X80.289 Y88.061 E.05412
G1 X80.865 Y86.183 E.06162
G1 X81.537 Y84.857 E.04661
G1 X82.126 Y83.997 E.03268
G1 X83.219 Y82.797 E.0509
M204 P1000
G1 X83.497 Y83.051 F9000
M204 P600
G1 F1200
G1 X83.555 Y82.988 E.00268
G1 X85.045 Y81.864 E.05853
G1 X86.952 Y80.975 E.06596
G1 X88.566 Y80.583 E.05206
G1 X90.43 Y80.486 E.05853
G1 X92.076 Y80.705 E.05206
G1 X93.658 Y81.206 E.05205
G1 X94.955 Y81.864 E.04558
G1 X95.786 Y82.435 E.03164
G1 X97.012 Y83.555 E.05205
G1 X98.136 Y85.045 E.05853
G1 X98.873 Y86.534 E.05206
G1 X99.34 Y88.127 E.05206
G1 X99.523 Y90.223 E.06596
G1 X99.34 Y91.873 E.05206
G1 X98.794 Y93.658 E.05853
G1 X98.136 Y94.955 E.04558
G1 X97.565 Y95.786 E.03164
G1 X96.445 Y97.012 E.05205
G1 X94.955 Y98.136 E.05853
G1 X93.466 Y98.873 E.05206
G1 X91.873 Y99.34 E.05206
G1 X89.777 Y99.523 E.06596
G1 X88.127 Y99.34 E.05206
G1 X86.342 Y98.794 E.05853
G1 X85.431 Y98.359 E.03164
G1 X84.214 Y97.565 E.04558
G1 X82.988 Y96.445 E.05205
G1 X81.864 Y94.955 E.05853
G1 X81.127 Y93.466 E.05206
G1 X80.66 Y91.873 E.05206
G1 X80.477 Y89.777 E.06596
G1 X80.66 Y88.127 E.05206
G1 X81.206 Y86.342 E.05853
G1 X81.864 Y85.045 E.04558
G1 X82.435 Y84.214 E.03164
G1 X83.457 Y83.095 E.0475
M204 P1000
G1 E-2.24 F4200
;WIPE_START
G1 F7200
G1 X83.555 Y82.988 E-.08055
G1 X84.753 Y82.084 E-.83145
;WIPE_END
G1 E-.048 F4200
G1 Z.4 F720
G1 X85.394 Y84.916 F9000
G1 Z.2 F720
G1 E3.2 F2400
M204 P600
G1 F1200
G1 X86.506 Y84.097 E.04328
G1 X87.727 Y83.528 E.04224
G1 X89.046 Y83.205 E.04258
G1 X89.73 Y83.145 E.02154
G1 X90.391 Y83.158 E.02071
G1 X91.257 Y83.256 E.02732
G1 X92.095 Y83.467 E.02711
G1 X93.132 Y83.897 E.03519
G1 X94.188 Y84.567 E.03922
G1 X95.078 Y85.388 E.03796
G1 X95.882 Y86.472 E.04231
G1 X96.464 Y87.703 E.04271
G1 X96.784 Y88.99 E.04157
G1 X96.852 Y90.342 E.04246
G1 X96.687 Y91.529 E.03757
G1 X96.339 Y92.623 E.03599
G1 X95.934 Y93.441 E.02861
G1 X95.439 Y94.182 E.02794
G1 X94.635 Y95.057 E.03727
G1 X93.562 Y95.862 E.04206
G1 X92.332 Y96.451 E.04274
G1 X91.01 Y96.784 E.04276
G1 X89.658 Y96.852 E.04246
G1 X88.471 Y96.687 E.03757
G1 X87.377 Y96.339 E.03599
G1 X86.559 Y95.934 E.02861
G1 X85.818 Y95.439 E.02794
G1 X84.943 Y94.635 E.03727
G1 X84.138 Y93.562 E.04206
G1 X83.549 Y92.332 E.04274
G1 X83.216 Y91.01 E.04276
G1 X83.148 Y89.658 E.04246
G1 X83.313 Y88.471 E.03755
G1 X83.659 Y87.381 E.03588
G1 X84.053 Y86.581 E.02795
G1 X84.558 Y85.822 E.0286
G1 X85.354 Y84.96 E.03677
M204 P1000
G1 X85.629 Y85.213 F9000
M204 P600
G1 F1200
G1 X86.683 Y84.431 E.04115
G1 X87.869 Y83.878 E.04105
G1 X89.093 Y83.58 E.03949
G1 X89.753 Y83.522 E.02077
G1 X90.375 Y83.535 E.01949
G1 X91.177 Y83.625 E.02533
G1 X91.99 Y83.829 E.02627
G1 X92.972 Y84.239 E.03336
G1 X93.946 Y84.857 E.03616
G1 X94.787 Y85.628 E.03578
G1 X95.55 Y86.651 E.04001
G1 X96.103 Y87.814 E.04038
G1 X96.409 Y89.028 E.03926
G1 X96.476 Y90.309 E.04022
G1 X96.323 Y91.431 E.03551
G1 X95.995 Y92.47 E.03414
G1 X95.614 Y93.242 E.02699
G1 X95.133 Y93.96 E.0271
G1 X94.394 Y94.767 E.03431
G1 X93.381 Y95.531 E.03979
G1 X92.22 Y96.09 E.0404
G1 X90.971 Y96.409 E.04041
G1 X89.691 Y96.476 E.04021
G1 X88.569 Y96.323 E.03551
G1 X87.53 Y95.995 E.03414
G1 X86.758 Y95.614 E.02699
G1 X86.04 Y95.133 E.0271
G1 X85.233 Y94.394 E.03431
G1 X84.469 Y93.381 E.03979
G1 X83.91 Y92.22 E.0404
G1 X83.591 Y90.971 E.04041
G1 X83.524 Y89.691 E.04021
G1 X83.677 Y88.569 E.03549
G1 X84.004 Y87.534 E.03402
G1 X84.386 Y86.759 E.0271
G1 X84.864 Y86.044 E.02698
G1 X85.588 Y85.257 E.03352
M204 P1000
G1 X85.863 Y85.51 F9000
M204 P600
G1 F1200
G1 X86.861 Y84.764 E.03906
G1 X87.978 Y84.239 E.0387
G1 X89.141 Y83.954 E.03753
M73 P3 R16
G1 X89.775 Y83.898 E.01998
G1 X90.357 Y83.911 E.01825
G1 X91.122 Y83.998 E.02412
G1 X91.883 Y84.191 E.02463
G1 X92.811 Y84.58 E.03154
G1 X93.729 Y85.165 E.03412
G1 X94.518 Y85.893 E.03366
G1 X95.236 Y86.861 E.03778
G1 X95.742 Y87.925 E.03696
G1 X96.033 Y89.068 E.03697
G1 X96.1 Y90.277 E.03798
G1 X95.958 Y91.334 E.03344
G1 X95.65 Y92.316 E.03226
G1 X95.281 Y93.063 E.02613
G1 X94.829 Y93.738 E.02546
G1 X94.129 Y94.499 E.03241
G1 X93.17 Y95.218 E.03758
G1 X92.074 Y95.742 E.03808
G1 X90.932 Y96.033 E.03696
G1 X89.723 Y96.1 E.03798
G1 X88.666 Y95.958 E.03344
G1 X87.684 Y95.65 E.03226
G1 X86.936 Y95.281 E.02613
G1 X86.262 Y94.829 E.02546
G1 X85.501 Y94.129 E.03241
G1 X84.782 Y93.17 E.03758
G1 X84.258 Y92.074 E.03808
G1 X83.967 Y90.932 E.03696
G1 X83.9 Y89.723 E.03798
G1 X84.042 Y88.666 E.03342
G1 X84.349 Y87.687 E.03217
G1 X84.706 Y86.958 E.02546
G1 X85.169 Y86.265 E.02613
G1 X85.823 Y85.554 E.03027
M204 P1000
G1 X86.1 Y85.81 F9000
M204 P600
G1 F1200
G1 X87.069 Y85.079 E.03808
G1 X88.12 Y84.589 E.03634
G1 X89.188 Y84.328 E.03446
G1 X89.798 Y84.275 E.0192
G1 X90.339 Y84.288 E.01699
G1 X91.066 Y84.372 E.02292
G1 X91.776 Y84.553 E.02299
G1 X92.65 Y84.921 E.02973
G1 X93.486 Y85.455 E.03111
G1 X94.227 Y86.133 E.03149
G1 X94.904 Y87.04 E.0355
G1 X95.382 Y88.038 E.03467
G1 X95.658 Y89.108 E.03467
G1 X95.723 Y90.246 E.03574
G1 X95.593 Y91.238 E.03136
G1 X95.305 Y92.163 E.03039
G1 X94.961 Y92.864 E.02447
G1 X94.524 Y93.515 E.0246
G1 X93.864 Y94.23 E.03049
G1 X92.959 Y94.904 E.03538
G1 X91.962 Y95.382 E.03467
G1 X90.892 Y95.658 E.03467
G1 X89.754 Y95.723 E.03574
G1 X88.762 Y95.593 E.03136
G1 X87.837 Y95.305 E.03039
G1 X87.136 Y94.961 E.02447
G1 X86.485 Y94.524 E.0246
G1 X85.77 Y93.864 E.03049
G1 X85.096 Y92.959 E.03538
G1 X84.618 Y91.962 E.03467
G1 X84.342 Y90.892 E.03467
G1 X84.277 Y89.754 E.03574
G1 X84.407 Y88.762 E.03135
G1 X84.694 Y87.84 E.03029
G1 X85.039 Y87.136 E.02459
G1 X85.474 Y86.488 E.02447
G1 X86.059 Y85.854 E.02703
M204 P1000
G1 X86.335 Y86.11 F9000
M204 P600
G1 F1200
G1 X86.402 Y86.038 E.00307
G1 X87.277 Y85.394 E.03408
G1 X88.261 Y84.939 E.03398
G1 X89.235 Y84.703 E.03141
G1 X89.82 Y84.652 E.01841
G1 X90.321 Y84.665 E.01572
G1 X91.009 Y84.745 E.02173
G1 X91.668 Y84.914 E.02134
G1 X92.487 Y85.262 E.02791
G1 X93.268 Y85.763 E.02909
G1 X93.958 Y86.398 E.0294
G1 X94.59 Y87.25 E.03325
G1 X95.033 Y88.183 E.03237
G1 X95.288 Y89.184 E.03239
G1 X95.347 Y90.216 E.03241
G1 X95.228 Y91.143 E.02931
G1 X94.96 Y92.011 E.02849
G1 X94.628 Y92.686 E.02359
G1 X94.22 Y93.292 E.02292
G1 X93.6 Y93.96 E.02857
G1 X92.75 Y94.59 E.03316
G1 X91.817 Y95.033 E.03237
G1 X90.816 Y95.288 E.03239
G1 X89.784 Y95.347 E.03241
G1 X88.857 Y95.228 E.02931
G1 X87.989 Y94.96 E.02849
G1 X87.314 Y94.628 E.02359
G1 X86.708 Y94.22 E.02292
G1 X86.04 Y93.6 E.02857
G1 X85.41 Y92.75 E.03316
G1 X84.967 Y91.817 E.03237
G1 X84.712 Y90.816 E.03239
G1 X84.653 Y89.784 E.03241
G1 X84.772 Y88.858 E.02929
G1 X85.039 Y87.992 E.02841
G1 X85.36 Y87.335 E.02292
G1 X85.779 Y86.71 E.02359
G1 X86.294 Y86.154 E.02377
M204 P1000
G1 X86.57 Y86.411 F9000
M204 P600
G1 F1200
G1 X86.665 Y86.309 E.00438
G1 X87.484 Y85.71 E.03181
G1 X88.401 Y85.29 E.03163
G1 X89.281 Y85.077 E.0284
G1 X89.841 Y85.028 E.01762
G1 X90.302 Y85.041 E.01444
G1 X90.928 Y85.113 E.01975
G1 X91.56 Y85.276 E.02047
G1 X92.324 Y85.602 E.02606
G1 X93.05 Y86.07 E.02707
G1 X93.689 Y86.663 E.02732
G1 X94.258 Y87.429 E.02994
G1 X94.673 Y88.295 E.0301
G1 X94.913 Y89.225 E.03011
G1 X94.971 Y90.187 E.0302
G1 X94.862 Y91.048 E.02723
G1 X94.614 Y91.859 E.02659
G1 X94.308 Y92.486 E.02188
G1 X93.915 Y93.069 E.02203
G1 X93.336 Y93.69 E.02665
G1 X92.571 Y94.258 E.02987
G1 X91.705 Y94.673 E.0301
G1 X90.775 Y94.913 E.03011
G1 X89.813 Y94.971 E.0302
G1 X88.952 Y94.862 E.02723
G1 X88.141 Y94.614 E.02659
G1 X87.514 Y94.308 E.02188
G1 X86.931 Y93.915 E.02202
G1 X86.31 Y93.336 E.02665
G1 X85.742 Y92.571 E.02987
G1 X85.327 Y91.705 E.0301
G1 X85.087 Y90.775 E.03011
G1 X85.029 Y89.813 E.0302
G1 X85.138 Y88.952 E.02723
G1 X85.385 Y88.144 E.0265
G1 X85.693 Y87.512 E.02202
G1 X86.083 Y86.934 E.02188
G1 X86.529 Y86.455 E.02051
M204 P1000
G1 X86.804 Y86.712 F9000
M204 P600
G1 F1200
G1 X86.928 Y86.58 E.00568
G1 X87.689 Y86.026 E.02953
G1 X88.54 Y85.641 E.02928
G1 X89.328 Y85.452 E.02541
G1 X89.863 Y85.405 E.01683
G1 X90.282 Y85.418 E.01314
G1 X90.871 Y85.486 E.0186
G1 X91.451 Y85.637 E.01878
G1 X92.16 Y85.942 E.02422
G1 X92.83 Y86.377 E.02504
G1 X93.418 Y86.926 E.02523
G1 X93.944 Y87.639 E.02775
G1 X94.313 Y88.409 E.02677
G1 X94.538 Y89.268 E.02785
G1 X94.594 Y90.159 E.02799
G1 X94.497 Y90.955 E.02516
G1 X94.269 Y91.708 E.02466
G1 X93.975 Y92.309 E.02097
G1 X93.612 Y92.844 E.02029
G1 X93.073 Y93.419 E.02471
G1 X92.361 Y93.944 E.02771
G1 X91.591 Y94.313 E.02677
G1 X90.732 Y94.538 E.02785
G1 X89.841 Y94.594 E.02799
G1 X89.045 Y94.497 E.02516
G1 X88.292 Y94.269 E.02466
G1 X87.691 Y93.975 E.02097
G1 X87.156 Y93.612 E.02029
G1 X86.581 Y93.073 E.02471
G1 X86.056 Y92.361 E.02771
G1 X85.687 Y91.591 E.02677
G1 X85.462 Y90.732 E.02785
G1 X85.406 Y89.841 E.02799
G1 X85.503 Y89.045 E.02515
G1 X85.731 Y88.294 E.0246
G1 X86.013 Y87.712 E.02029
G1 X86.387 Y87.157 E.02097
G1 X86.763 Y86.756 E.01723
M204 P1000
G1 X87.037 Y87.014 F9000
M204 P600
G1 F1200
G1 X87.189 Y86.852 E.00698
G1 X87.894 Y86.344 E.02724
G1 X88.678 Y85.992 E.02693
G1 X89.375 Y85.826 E.02247
G1 X89.884 Y85.782 E.01603
G1 X90.261 Y85.795 E.01182
G1 X90.814 Y85.859 E.01746
G1 X91.34 Y85.998 E.01707
G1 X91.995 Y86.281 E.02238
G1 X92.609 Y86.683 E.02301
G1 X93.147 Y87.189 E.02314
G1 X93.629 Y87.846 E.02556
G1 X93.964 Y88.553 E.02454
G1 X94.168 Y89.344 E.02561
G1 X94.218 Y90.131 E.02473
G1 X94.131 Y90.863 E.0231
G1 X93.922 Y91.557 E.02273
G1 X93.655 Y92.109 E.01921
G1 X93.308 Y92.62 E.01937
G1 X92.811 Y93.148 E.02274
G1 X92.154 Y93.629 E.02553
G1 X91.447 Y93.964 E.02454
G1 X90.656 Y94.168 E.02561
G1 X89.869 Y94.218 E.02473
G1 X89.137 Y94.131 E.0231
G1 X88.443 Y93.922 E.02273
G1 X87.891 Y93.655 E.01921
G1 X87.38 Y93.308 E.01937
G1 X86.852 Y92.811 E.02274
G1 X86.371 Y92.154 E.02553
G1 X86.036 Y91.447 E.02454
G1 X85.832 Y90.656 E.02561
G1 X85.782 Y89.869 E.02473
G1 X85.869 Y89.137 E.0231
G1 X86.077 Y88.445 E.02267
G1 X86.346 Y87.889 E.01937
G1 X86.69 Y87.382 E.01921
G1 X86.995 Y87.058 E.01395
M204 P1000
G1 X87.268 Y87.317 F9000
M204 P600
G1 F1200
G1 X87.451 Y87.125 E.00831
G1 X88.067 Y86.679 E.02384
G1 X88.784 Y86.355 E.02468
G1 X89.422 Y86.2 E.02057
G1 X89.905 Y86.158 E.0152
G1 X90.239 Y86.171 E.01049
G1 X90.731 Y86.227 E.01553
G1 X91.23 Y86.359 E.01617
G1 X91.829 Y86.62 E.0205
G1 X92.387 Y86.989 E.02097
G1 X92.875 Y87.45 E.02105
G1 X93.313 Y88.053 E.02336
G1 X93.615 Y88.697 E.02233
G1 X93.793 Y89.387 E.02234
G1 X93.841 Y90.106 E.02258
M73 P4 R16
G1 X93.764 Y90.772 E.02103
G1 X93.576 Y91.407 E.02077
G1 X93.322 Y91.931 E.01827
G1 X93.006 Y92.394 E.01758
G1 X92.55 Y92.875 E.02078
G1 X91.947 Y93.313 E.02334
G1 X91.303 Y93.615 E.02233
G1 X90.613 Y93.793 E.02234
G1 X89.894 Y93.841 E.02258
G1 X89.228 Y93.764 E.02103
G1 X88.593 Y93.576 E.02077
G1 X88.069 Y93.322 E.01827
G1 X87.606 Y93.006 E.01758
G1 X87.125 Y92.55 E.02078
G1 X86.687 Y91.947 E.02334
G1 X86.385 Y91.303 E.02233
G1 X86.207 Y90.613 E.02234
G1 X86.159 Y89.894 E.02258
G1 X86.236 Y89.228 E.02103
G1 X86.423 Y88.594 E.02074
G1 X86.666 Y88.089 E.01758
G1 X86.993 Y87.606 E.01827
G1 X87.227 Y87.36 E.01064
M204 P1000
G1 X87.499 Y87.62 F9000
M204 P600
G1 F1200
G1 X87.711 Y87.398 E.00961
G1 X88.271 Y86.997 E.02162
G1 X88.891 Y86.717 E.02132
G1 X89.469 Y86.575 E.01867
G1 X89.925 Y86.535 E.01434
G1 X90.215 Y86.547 E.00912
G1 X90.674 Y86.6 E.01446
G1 X91.117 Y86.719 E.01441
G1 X91.661 Y86.959 E.01863
G1 X92.164 Y87.293 E.01893
G1 X92.602 Y87.711 E.01898
G1 X92.98 Y88.231 E.02015
G1 X93.255 Y88.811 E.02014
G1 X93.419 Y89.432 E.02014
G1 X93.465 Y90.082 E.02042
G1 X93.398 Y90.683 E.01895
G1 X93.229 Y91.258 E.01881
G1 X93.003 Y91.731 E.01643
G1 X92.703 Y92.169 E.01663
G1 X92.289 Y92.602 E.0188
G1 X91.769 Y92.98 E.02014
G1 X91.189 Y93.255 E.02014
G1 X90.568 Y93.419 E.02014
G1 X89.918 Y93.465 E.02042
G1 X89.317 Y93.398 E.01895
G1 X88.742 Y93.229 E.01881
G1 X88.269 Y93.003 E.01643
G1 X87.831 Y92.703 E.01663
G1 X87.398 Y92.289 E.0188
G1 X87.02 Y91.769 E.02014
G1 X86.745 Y91.189 E.02014
G1 X86.581 Y90.568 E.02014
G1 X86.535 Y89.918 E.02042
G1 X86.602 Y89.317 E.01895
G1 X86.77 Y88.743 E.01876
G1 X87 Y88.265 E.01662
G1 X87.296 Y87.832 E.01643
G1 X87.457 Y87.663 E.00734
M204 P1000
G1 X87.728 Y87.924 F9000
M204 P600
G1 F1200
G1 X87.97 Y87.672 E.01095
G1 X88.445 Y87.332 E.01833
G1 X89 Y87.078 E.01912
