; generated by PrusaSlicer 2.5.2+win64 on 2023-05-24 at 07:29:09 UTC


;
;

;
;
; 

; external perimeters extrusion width = 0.45mm
; perimeters extrusion width = 0.45mm
; infill extrusion width = 0.45mm
; solid infill extrusion width = 0.45mm
; top infill extrusion width = 0.40mm
; support material extrusion width = 0.35mm
; first layer extrusion width = 0.42mm

; external perimeters extrusion width = 0.45mm
; perimeters extrusion width = 0.45mm
; infill extrusion width = 0.45mm
; solid infill extrusion width = 0.45mm
; top infill extrusion width = 0.40mm
; support material extrusion width = 0.35mm
; first layer extrusion width = 0.42mm

M73 P0 R3
M201 X2500 Y2500 Z400 E5000 ; sets maximum accelerations, mm/sec^2
M203 X180 Y180 Z12 E80 ; sets maximum feedrates, mm / sec
M204 P2000 R1250 T2500 ; sets acceleration (P, T) and retract acceleration (R), mm/sec^2
M205 X8.00 Y8.00 Z2.00 E10.00 ; sets the jerk limits, mm/sec
M205 S0 T0 ; sets the minimum extruding and travel feed rate, mm/sec
M107
;TYPE:Custom
M862.3 P "MINI" ; printer model check
G90 ; use absolute coordinates
M83 ; extruder relative mode
M104 S170 ; set extruder temp for bed leveling
M140 S60 ; set bed temp
M109 R170 ; wait for bed leveling temp
M190 S60 ; wait for bed temp
M204 T1250 ; set travel acceleration
G28 ; home all without mesh bed level
G29 ; mesh bed leveling 
M204 T2500 ; restore travel acceleration
M104 S215 ; set extruder temp
G92 E0
G1 Y-2 X179 F2400
G1 Z3 F720
M109 S215 ; wait for extruder temp

; intro line
M73 P1 R3
G1 X170 F1000
M73 P2 R3
G1 Z0.2 F720
G1 X110 E8 F900
G1 X40 E10 F700
G92 E0

M221 S95 ; set flow
G21 ; set units to millimeters
G90 ; use absolute coordinates
M83 ; use relative distances for extrusion
M900 K0.2 ; Filament gcode LA 1.5
; ; Filament gcode LA 1.0
M107
;LAYER_CHANGE
;Z:0.2
;HEIGHT:0.2
;BEFORE_LAYER_CHANGE
G92 E0.0
;0.2


M73 P4 R3
G1 E-3.2 F4200
M73 P6 R3
G1 Z.2 F720
;AFTER_LAYER_CHANGE
;0.2
G1 Z.4
G1 X73.029 Y80.785 F9000
G1 Z.2 F720
M73 P7 R3
G1 E3.2 F2400
M204 P600
;TYPE:Skirt/Brim
;WIDTH:0.42
G1 F1200
G1 X74.37 Y79.684 E.0544
G1 X75.257 Y79.108 E.03317
G1 X76.301 Y78.557 E.03701
G1 X77.916 Y77.924 E.0544
G1 X78.938 Y77.65 E.03317
G1 X80.101 Y77.448 E.03701
G1 X81.936 Y77.348 E.0576
G1 X99.532 Y78.051 E.55216
G1 X101.578 Y78.486 E.0656
G1 X103.202 Y79.097 E.0544
G1 X104.499 Y79.787 E.04604
G1 X106.192 Y81.016 E.0656
G1 X107.248 Y82.037 E.04604
G1 X108.004 Y82.943 E.03701
M73 P8 R3
G1 X109.028 Y84.519 E.05891
G1 X109.548 Y85.578 E.03701
G1 X110.009 Y86.82 E.04153
G1 X110.339 Y88.103 E.04153
G1 X110.543 Y89.557 E.04604
G1 X110.587 Y90.737 E.03701
G1 X110.504 Y92.059 E.04153
G1 X110.283 Y93.365 E.04153
G1 X109.927 Y94.64 E.04153
G1 X109.439 Y95.872 E.04153
G1 X108.959 Y96.814 E.03317
G1 X108.249 Y97.933 E.04153
G1 X107.52 Y98.861 E.03702
G1 X106.5 Y99.917 E.04604
G1 X105.479 Y100.762 E.04153
G1 X104.376 Y101.495 E.04153
G1 X103.202 Y102.109 E.04153
G1 X101.971 Y102.596 E.04153
G1 X100.695 Y102.953 E.04153
G1 X99.389 Y103.174 E.04153
G1 X98.067 Y103.257 E.04153
G1 X80.101 Y102.552 E.56373
G1 X78.055 Y102.117 E.0656
M73 P9 R3
G1 X76.675 Y101.614 E.04604
G1 X75.134 Y100.816 E.0544
G1 X73.442 Y99.587 E.0656
G1 X72.113 Y98.258 E.05891
G1 X70.883 Y96.566 E.0656
G1 X70.086 Y95.025 E.0544
G1 X69.583 Y93.645 E.04604
G1 X69.148 Y91.598 E.0656
G1 X69.046 Y89.866 E.0544
G1 X69.101 Y88.81 E.03316
G1 X69.268 Y87.642 E.03701
G1 X69.755 Y85.827 E.05891
G1 X70.606 Y83.915 E.0656
G1 X71.541 Y82.454 E.0544
G1 X72.207 Y81.632 E.03317
G1 X72.987 Y80.828 E.03513
M204 P1000
G1 X73.27 Y81.08 F9000
M204 P600
G1 F1200
G1 X74.592 Y79.989 E.05374
G1 X76.472 Y78.892 E.06825
G1 X78.033 Y78.283 E.05255
G1 X80.16 Y77.821 E.06825
G1 X81.922 Y77.725 E.05531
G1 X99.473 Y78.424 E.55075
G1 X100.738 Y78.651 E.04029
M73 P10 R3
G1 X102.69 Y79.286 E.06436
G1 X104.187 Y80.038 E.05255
G1 X105.356 Y80.825 E.04419
G1 X106.247 Y81.569 E.03639
G1 X107.146 Y82.488 E.04029
G1 X107.944 Y83.495 E.04029
G1 X108.499 Y84.349 E.03193
G1 X109.094 Y85.488 E.04029
G1 X109.568 Y86.682 E.04029
G1 X109.914 Y87.92 E.04029
G1 X110.113 Y89.064 E.0364
G1 X110.21 Y90.47 E.04419
G1 X110.157 Y91.754 E.04029
G1 X109.97 Y93.025 E.04029
G1 X109.686 Y94.15 E.0364
G1 X109.203 Y95.474 E.04419
G1 X108.692 Y96.516 E.03639
G1 X107.711 Y98.026 E.05643
G1 X106.967 Y98.917 E.0364
G1 X106.049 Y99.816 E.04029
G1 X105.041 Y100.614 E.04029
G1 X103.847 Y101.361 E.04419
G1 X101.971 Y102.196 E.06436
G1 X100.738 Y102.555 E.04029
G1 X99.349 Y102.799 E.04419
M73 P11 R3
G1 X98.191 Y102.877 E.03639
G1 X80.284 Y102.196 E.56189
G1 X78.896 Y101.952 E.04419
G1 X76.943 Y101.317 E.06436
G1 X75.677 Y100.699 E.04419
G1 X74.277 Y99.778 E.05255
G1 X72.751 Y98.404 E.06436
G1 X71.689 Y97.108 E.05255
G1 X70.592 Y95.228 E.06825
G1 X69.983 Y93.667 E.05255
G1 X69.52 Y91.539 E.06825
G1 X69.423 Y89.866 E.05254
G1 X69.641 Y87.701 E.06825
G1 X70.065 Y86.079 E.05255
G1 X70.942 Y84.087 E.06825
G1 X71.846 Y82.676 E.05255
G1 X73.23 Y81.125 E.06517
M204 P1000
M73 P12 R3
G1 E-2.24 F4200
;WIPE_START
G1 F7200
G1 X74.494 Y80.071 E-.912
;WIPE_END
G1 E-.048 F4200
G1 Z.4 F720
G1 X75.125 Y83.002 F9000
G1 Z.2 F720
G1 E3.2 F2400
M204 P600
G1 F1200
G1 X75.294 Y82.832 E.00751
G1 X76.141 Y82.157 E.03395
G1 X76.946 Y81.644 E.02995
G1 X77.795 Y81.216 E.0298
G1 X78.685 Y80.872 E.02994
G1 X79.589 Y80.622 E.02939
G1 X80.65 Y80.444 E.03373
G1 X81.569 Y80.388 E.02887
G1 X82.498 Y80.421 E.02917
G1 X83.76 Y80.61 E.04
G1 X84.776 Y80.893 E.03307
G1 X85.712 Y81.265 E.03158
G1 X86.621 Y81.742 E.03217
G1 X87.458 Y82.302 E.03158
G1 X88.23 Y82.946 E.03153
G1 X88.928 Y83.663 E.03137
G1 X89.534 Y84.43 E.03065
G1 X89.999 Y85.157 E.02707
G1 X90.71 Y84.262 E.03584
G1 X91.543 Y83.421 E.0371
G1 X92.325 Y82.796 E.0314
G1 X93.145 Y82.267 E.03059
G1 X94.028 Y81.819 E.03106
G1 X94.939 Y81.468 E.0306
G1 X95.881 Y81.212 E.03062
G1 X96.845 Y81.052 E.03064
G1 X97.823 Y80.991 E.0307
G1 X98.797 Y81.03 E.03059
G1 X100.014 Y81.218 E.0386
G1 X100.988 Y81.488 E.03169
G1 X101.925 Y81.858 E.03158
G1 X102.818 Y82.323 E.03157
G1 X103.657 Y82.88 E.03156
G1 X104.417 Y83.506 E.0309
G1 X105.12 Y84.219 E.03139
G1 X105.732 Y84.982 E.03066
M73 P13 R3
G1 X106.263 Y85.804 E.03068
G1 X106.707 Y86.675 E.03067
G1 X107.061 Y87.586 E.03062
G1 X107.32 Y88.528 E.03064
G1 X107.484 Y89.508 E.03115
G1 X107.546 Y90.485 E.03071
G1 X107.506 Y91.481 E.03124
G1 X107.367 Y92.452 E.03075
G1 X107.128 Y93.407 E.03088
G1 X106.769 Y94.391 E.03284
G1 X106.314 Y95.312 E.03223
G1 X105.787 Y96.146 E.03091
G1 X105.157 Y96.944 E.03189
G1 X104.34 Y97.77 E.03644
G1 X103.506 Y98.436 E.03346
G1 X102.665 Y98.971 E.03125
G1 X101.826 Y99.393 E.02943
G1 X100.931 Y99.737 E.03008
G1 X99.967 Y99.999 E.03133
G1 X98.983 Y100.159 E.03126
G1 X98.033 Y100.216 E.02984
G1 X97.037 Y100.174 E.03124
G1 X96.065 Y100.033 E.03081
G1 X95.109 Y99.792 E.03091
G1 X94.145 Y99.438 E.03218
G1 X93.224 Y98.983 E.03221
G1 X92.374 Y98.445 E.03154
G1 X91.59 Y97.826 E.03132
G1 X90.744 Y96.984 E.03743
G1 X90.098 Y96.172 E.03254
G1 X89.634 Y95.446 E.02702
G1 X88.923 Y96.341 E.03584
G1 X88.09 Y97.182 E.03712
G1 X87.274 Y97.832 E.03271
G1 X86.448 Y98.358 E.03068
G1 X85.573 Y98.798 E.03071
G1 X84.64 Y99.152 E.03128
G1 X83.696 Y99.404 E.03066
G1 X82.732 Y99.557 E.03059
G1 X81.762 Y99.613 E.03045
G1 X80.783 Y99.569 E.03075
G1 X79.769 Y99.417 E.03213
G1 X78.814 Y99.17 E.03094
G1 X77.89 Y98.826 E.03093
G1 X76.988 Y98.379 E.03153
M73 P14 R3
G1 X76.156 Y97.853 E.03087
G1 X75.357 Y97.224 E.03189
G1 X74.525 Y96.398 E.03676
G1 X73.864 Y95.569 E.03325
G1 X73.32 Y94.71 E.03187
G1 X72.9 Y93.87 E.02945
G1 X72.559 Y92.975 E.03002
G1 X72.308 Y92.053 E.02997
G1 X72.151 Y91.111 E.02994
G1 X72.087 Y90.104 E.03163
G1 X72.126 Y89.126 E.03068
G1 X72.262 Y88.172 E.03021
G1 X72.517 Y87.157 E.03284
G1 X72.889 Y86.154 E.03352
G1 X73.34 Y85.254 E.03157
G1 X73.882 Y84.407 E.03153
G1 X74.492 Y83.642 E.03068
G1 X75.083 Y83.045 E.02634
M204 P1000
G1 X75.351 Y83.31 F9000
M204 P600
G1 F1200
G1 X75.554 Y83.106 E.00904
G1 X76.352 Y82.47 E.03199
G1 X77.125 Y81.976 E.02877
G1 X77.94 Y81.564 E.02862
G1 X78.795 Y81.233 E.02876
G1 X79.68 Y80.988 E.02878
G1 X80.683 Y80.82 E.03188
G1 X81.582 Y80.765 E.02827
G1 X82.474 Y80.798 E.02796
G1 X83.692 Y80.981 E.03864
G1 X84.665 Y81.253 E.03167
G1 X85.564 Y81.611 E.03033
G1 X86.419 Y82.061 E.03031
G1 X87.24 Y82.61 E.03096
G1 X87.967 Y83.216 E.02969
G1 X88.639 Y83.904 E.03014
G1 X89.233 Y84.656 E.03003
G1 X89.727 Y85.433 E.02889
G1 X89.978 Y85.925 E.01732
G1 X90.403 Y85.255 E.02489
G1 X90.986 Y84.52 E.0294
G1 X91.803 Y83.695 E.03642
G1 X92.552 Y83.097 E.03006
G1 X93.341 Y82.59 E.02938
G1 X94.19 Y82.16 E.02985
G1 X95.065 Y81.824 E.02939
G1 X95.971 Y81.578 E.02942
G1 X96.897 Y81.425 E.02944
G1 X97.836 Y81.368 E.02949
M73 P15 R3
G1 X98.771 Y81.407 E.02935
G1 X99.924 Y81.584 E.03658
G1 X100.859 Y81.843 E.03042
G1 X101.759 Y82.197 E.03033
G1 X102.634 Y82.653 E.03094
G1 X103.44 Y83.188 E.03032
G1 X104.17 Y83.791 E.02967
G1 X104.845 Y84.476 E.03017
G1 X105.431 Y85.21 E.02945
G1 X105.941 Y86 E.02948
G1 X106.367 Y86.838 E.02947
G1 X106.705 Y87.713 E.02942
G1 X106.954 Y88.618 E.02943
G1 X107.11 Y89.56 E.02994
G1 X107.169 Y90.499 E.02949
G1 X107.13 Y91.456 E.03003
G1 X106.995 Y92.388 E.02953
G1 X106.765 Y93.306 E.02966
G1 X106.426 Y94.233 E.03096
G1 X105.98 Y95.137 E.03159
G1 X105.474 Y95.936 E.02967
G1 X104.881 Y96.686 E.02998
G1 X104.08 Y97.497 E.03575
G1 X103.279 Y98.135 E.0321
G1 X102.487 Y98.639 E.02943
G1 X101.682 Y99.044 E.02825
G1 X100.805 Y99.381 E.02947
G1 X99.878 Y99.632 E.03011
G1 X98.932 Y99.785 E.03004
G1 X98.02 Y99.839 E.02864
G1 X97.082 Y99.8 E.02944
G1 X96.129 Y99.661 E.0302
G1 X95.211 Y99.429 E.02968
G1 X94.285 Y99.088 E.03094
G1 X93.4 Y98.65 E.03095
G1 X92.6 Y98.143 E.02971
G1 X91.848 Y97.551 E.03
G1 X91.032 Y96.741 E.03605
G1 X90.399 Y95.945 E.03187
G1 X89.906 Y95.17 E.02881
G1 X89.655 Y94.678 E.01732
G1 X89.23 Y95.348 E.02489
G1 X88.647 Y96.083 E.0294
G1 X87.829 Y96.909 E.03644
G1 X87.062 Y97.52 E.03075
G1 X86.27 Y98.026 E.02948
G1 X85.43 Y98.449 E.0295
M73 P16 R3
G1 X84.534 Y98.79 E.03007
G1 X83.626 Y99.033 E.02945
G1 X82.7 Y99.182 E.0294
G1 X81.769 Y99.236 E.02925
G1 X80.828 Y99.195 E.02952
G1 X79.854 Y99.05 E.03088
G1 X78.918 Y98.807 E.03032
G1 X78.031 Y98.476 E.0297
G1 X77.165 Y98.046 E.0303
G1 X76.366 Y97.54 E.02966
G1 X75.615 Y96.949 E.02997
G1 X74.799 Y96.138 E.03607
G1 X74.165 Y95.342 E.0319
G1 X73.653 Y94.533 E.03002
G1 X73.242 Y93.71 E.02885
G1 X72.915 Y92.85 E.02884
G1 X72.675 Y91.964 E.0288
G1 X72.525 Y91.059 E.02876
G1 X72.464 Y90.109 E.02983
G1 X72.501 Y89.17 E.02947
G1 X72.634 Y88.235 E.0296
G1 X72.874 Y87.278 E.03095
G1 X73.231 Y86.313 E.03225
G1 X73.663 Y85.448 E.03032
G1 X74.183 Y84.634 E.03029
G1 X74.767 Y83.9 E.02941
G1 X75.309 Y83.353 E.02414
M204 P1000
G1 X75.577 Y83.618 F9000
M204 P600
G1 F1200
G1 X75.814 Y83.379 E.01057
G1 X76.563 Y82.782 E.03003
G1 X77.304 Y82.309 E.02758
G1 X78.102 Y81.905 E.02803
G1 X78.922 Y81.588 E.02758
G1 X79.771 Y81.354 E.0276
G1 X80.716 Y81.196 E.03005
G1 X81.578 Y81.142 E.02708
G1 X82.449 Y81.174 E.02732
G1 X83.624 Y81.352 E.03726
G1 X84.553 Y81.613 E.03027
G1 X85.414 Y81.958 E.02908
G1 X86.218 Y82.38 E.02847
G1 X87.006 Y82.906 E.02971
G1 X87.718 Y83.5 E.02906
G1 X88.361 Y84.16 E.02891
G1 X88.92 Y84.867 E.02822
G1 X89.404 Y85.627 E.02828
G1 X89.971 Y86.75 E.03943
G1 X90.2 Y86.282 E.01636
G1 X90.706 Y85.481 E.0297
G1 X91.261 Y84.778 E.02809
M73 P17 R3
G1 X92.063 Y83.968 E.03574
G1 X92.765 Y83.408 E.02813
G1 X93.52 Y82.922 E.02818
G1 X94.335 Y82.508 E.02864
G1 X95.174 Y82.185 E.02819
G1 X96.042 Y81.948 E.02822
G1 X96.93 Y81.801 E.02823
G1 X97.83 Y81.745 E.02828
G1 X98.725 Y81.781 E.02806
G1 X99.834 Y81.95 E.0352
G1 X100.749 Y82.204 E.02975
G1 X101.612 Y82.544 E.02908
G1 X102.451 Y82.982 E.02969
G1 X103.223 Y83.496 E.02907
G1 X103.922 Y84.075 E.02845
G1 X104.569 Y84.733 E.02895
G1 X105.13 Y85.437 E.02824
G1 X105.618 Y86.196 E.02828
G1 X106.026 Y87 E.02826
G1 X106.35 Y87.839 E.02821
G1 X106.587 Y88.708 E.02823
G1 X106.737 Y89.612 E.02873
G1 X106.792 Y90.512 E.02828
G1 X106.755 Y91.412 E.02823
G1 X106.627 Y92.306 E.02832
G1 X106.402 Y93.204 E.02904
G1 X106.083 Y94.075 E.02907
G1 X105.647 Y94.96 E.03095
G1 X105.161 Y95.726 E.02842
G1 X104.606 Y96.429 E.02809
G1 X103.819 Y97.224 E.03507
G1 X103.052 Y97.833 E.03072
G1 X102.308 Y98.306 E.02764
G1 X101.538 Y98.696 E.02707
G1 X100.679 Y99.026 E.02886
G1 X99.789 Y99.265 E.02887
G1 X98.882 Y99.411 E.02882
G1 X98.008 Y99.462 E.02746
G1 X97.127 Y99.425 E.02765
G1 X96.193 Y99.289 E.02958
G1 X95.313 Y99.066 E.02845
G1 X94.443 Y98.745 E.02909
G1 X93.593 Y98.326 E.0297
G1 X92.81 Y97.83 E.02908
G1 X92.09 Y97.262 E.02874
G1 X91.306 Y96.481 E.03469
G1 X90.712 Y95.734 E.02992
G1 X90.229 Y94.976 E.02819
G1 X89.662 Y93.853 E.03944
M73 P18 R3
G1 X89.433 Y94.322 E.01636
G1 X88.927 Y95.123 E.0297
G1 X88.372 Y95.825 E.02809
G1 X87.569 Y96.636 E.03576
G1 X86.851 Y97.207 E.0288
G1 X86.091 Y97.694 E.02827
G1 X85.286 Y98.101 E.02829
G1 X84.426 Y98.429 E.02885
G1 X83.556 Y98.662 E.02825
G1 X82.668 Y98.806 E.0282
G1 X81.775 Y98.859 E.02805
G1 X80.874 Y98.82 E.0283
G1 X79.939 Y98.682 E.02964
G1 X79.041 Y98.45 E.02907
G1 X78.172 Y98.126 E.02907
G1 X77.342 Y97.713 E.02907
G1 X76.576 Y97.227 E.02844
G1 X75.873 Y96.674 E.02805
G1 X75.072 Y95.878 E.03538
G1 X74.467 Y95.115 E.03054
G1 X73.986 Y94.356 E.02819
G1 X73.583 Y93.55 E.02825
G1 X73.271 Y92.725 E.02765
G1 X73.042 Y91.875 E.02762
G1 X72.898 Y91.007 E.02759
G1 X72.842 Y90.114 E.02805
G1 X72.876 Y89.213 E.02826
G1 X73.006 Y88.298 E.02898
G1 X73.231 Y87.399 E.02907
G1 X73.574 Y86.472 E.03097
G1 X73.987 Y85.642 E.02907
G1 X74.484 Y84.86 E.02905
G1 X75.042 Y84.158 E.02812
G1 X75.534 Y83.661 E.02193
M204 P1000
G1 X75.802 Y83.926 F9000
M204 P600
G1 F1200
G1 X76.074 Y83.652 E.0121
G1 X76.775 Y83.095 E.02808
G1 X77.483 Y82.64 E.02639
G1 X78.246 Y82.253 E.02683
G1 X79.049 Y81.943 E.02698
G1 X79.861 Y81.72 E.0264
G1 X80.749 Y81.572 E.02823
G1 X81.592 Y81.519 E.02648
G1 X82.424 Y81.55 E.0261
G1 X83.555 Y81.723 E.03589
G1 X84.423 Y81.967 E.02826
G1 X85.248 Y82.296 E.02784
G1 X86.034 Y82.709 E.02784
G1 X86.788 Y83.214 E.02846
G1 X87.469 Y83.783 E.02782
M73 P19 R3
G1 X88.072 Y84.402 E.0271
G1 X88.607 Y85.077 E.02701
G1 X89.081 Y85.822 E.02767
G1 X89.452 Y86.558 E.02586
G1 X89.911 Y87.753 E.04013
G1 X90.525 Y86.473 E.04452
G1 X91.008 Y85.706 E.02841
G1 X91.537 Y85.035 E.02678
G1 X92.308 Y84.255 E.03437
G1 X92.977 Y83.72 E.02689
G1 X93.7 Y83.253 E.02698
G1 X94.48 Y82.856 E.02743
G1 X95.283 Y82.546 E.02698
G1 X96.114 Y82.319 E.02702
G1 X96.964 Y82.177 E.02703
G1 X97.826 Y82.122 E.02707
G1 X98.678 Y82.155 E.02676
G1 X99.766 Y82.322 E.0345
G1 X100.638 Y82.564 E.02837
G1 X101.464 Y82.891 E.02784
G1 X102.25 Y83.302 E.02784
G1 X102.99 Y83.793 E.02784
G1 X103.674 Y84.359 E.02783
G1 X104.293 Y84.99 E.02772
G1 X104.829 Y85.665 E.02702
G1 X105.296 Y86.391 E.02708
G1 X105.686 Y87.161 E.02706
G1 X105.995 Y87.965 E.02701
G1 X106.221 Y88.797 E.02703
G1 X106.363 Y89.663 E.02751
G1 X106.415 Y90.525 E.02707
G1 X106.379 Y91.386 E.02703
G1 X106.255 Y92.242 E.02711
G1 X106.039 Y93.102 E.02782
G1 X105.733 Y93.936 E.02783
G1 X105.323 Y94.767 E.02907
G1 X104.859 Y95.5 E.02719
G1 X104.33 Y96.171 E.02679
G1 X103.559 Y96.951 E.03437
G1 X102.841 Y97.521 E.02874
G1 X102.13 Y97.974 E.02645
G1 X101.376 Y98.355 E.02646
G1 X100.553 Y98.67 E.02765
G1 X99.72 Y98.895 E.02706
G1 X98.85 Y99.035 E.02761
G1 X97.995 Y99.085 E.02685
G1 X97.152 Y99.049 E.02646
G1 X96.276 Y98.921 E.02777
G1 X95.434 Y98.708 E.02722
G1 X94.582 Y98.395 E.02846
G1 X93.786 Y98.002 E.02784
M73 P20 R3
G1 X93.035 Y97.528 E.02784
G1 X92.332 Y96.973 E.02808
G1 X91.58 Y96.222 E.03333
G1 X91.025 Y95.524 E.02798
G1 X90.552 Y94.782 E.02758
G1 X90.181 Y94.045 E.02585
G1 X89.723 Y92.848 E.0402
G1 X89.108 Y94.13 E.04459
G1 X88.625 Y94.897 E.02841
G1 X88.096 Y95.568 E.02678
G1 X87.326 Y96.348 E.03438
G1 X86.639 Y96.895 E.02753
G1 X85.896 Y97.371 E.02766
G1 X85.125 Y97.759 E.02708
G1 X84.319 Y98.067 E.02705
G1 X83.486 Y98.292 E.02705
G1 X82.636 Y98.43 E.027
G1 X81.781 Y98.481 E.02686
G1 X80.918 Y98.446 E.02707
G1 X80.022 Y98.314 E.02839
G1 X79.163 Y98.093 E.02783
G1 X78.331 Y97.784 E.02784
